; G-Code generated by Simplify3D(R) Version 4.1.2
; Aug 9, 2023 at 4:16:46 PM
; Settings Summary
;   processName,process1
;   applyToModels,dc31_badge_top
;   profileName,Default (modified)
;   profileVersion,2021-09-04 16:52:40
;   baseProfile,Monoprice Mini Delta (modified)
;   printMaterial,PLA
;   printQuality,Medium
;   printExtruders,
;   extruderName,Primary Extruder
;   extruderToolheadNumber,0
;   extruderDiameter,0.4
;   extruderAutoWidth,0
;   extruderWidth,0.4
;   extrusionMultiplier,0.9
;   extruderUseRetract,1
;   extruderRetractionDistance,5
;   extruderExtraRestartDistance,0
;   extruderRetractionZLift,0.1
;   extruderRetractionSpeed,3600
;   extruderUseCoasting,0
;   extruderCoastingDistance,1
;   extruderUseWipe,0
;   extruderWipeDistance,5
;   primaryExtruder,0
;   layerHeight,0.15
;   topSolidLayers,3
;   bottomSolidLayers,3
;   perimeterOutlines,2
;   printPerimetersInsideOut,1
;   startPointOption,2
;   startPointOriginX,0
;   startPointOriginY,0
;   sequentialIslands,0
;   spiralVaseMode,0
;   firstLayerHeightPercentage,90
;   firstLayerWidthPercentage,100
;   firstLayerUnderspeed,0.5
;   useRaft,1
;   raftExtruder,0
;   raftTopLayers,3
;   raftBaseLayers,2
;   raftOffset,3
;   raftSeparationDistance,0.14
;   raftTopInfill,100
;   aboveRaftSpeedMultiplier,0.3
;   useSkirt,1
;   skirtExtruder,0
;   skirtLayers,1
;   skirtOutlines,2
;   skirtOffset,4
;   usePrimePillar,0
;   primePillarExtruder,999
;   primePillarWidth,12
;   primePillarLocation,7
;   primePillarSpeedMultiplier,1
;   useOozeShield,0
;   oozeShieldExtruder,999
;   oozeShieldOffset,2
;   oozeShieldOutlines,1
;   oozeShieldSidewallShape,1
;   oozeShieldSidewallAngle,30
;   oozeShieldSpeedMultiplier,1
;   infillExtruder,0
;   internalInfillPattern,Rectilinear
;   externalInfillPattern,Rectilinear
;   infillPercentage,20
;   outlineOverlapPercentage,30
;   infillExtrusionWidthPercentage,120
;   minInfillLength,5
;   infillLayerInterval,1
;   internalInfillAngles,45,-45
;   overlapInternalInfillAngles,0
;   externalInfillAngles,45,-45
;   generateSupport,1
;   supportExtruder,0
;   supportInfillPercentage,30
;   supportExtraInflation,0
;   supportBaseLayers,0
;   denseSupportExtruder,0
;   denseSupportLayers,0
;   denseSupportInfillPercentage,70
;   supportLayerInterval,1
;   supportHorizontalPartOffset,0.3
;   supportUpperSeparationLayers,1
;   supportLowerSeparationLayers,1
;   supportType,0
;   supportGridSpacing,4
;   maxOverhangAngle,45
;   supportAngles,0
;   temperatureName,Primary Extruder,Heated Bed
;   temperatureNumber,0,1
;   temperatureSetpointCount,1,1
;   temperatureSetpointLayers,1,1
;   temperatureSetpointTemperatures,190,60
;   temperatureStabilizeAtStartup,1,1
;   temperatureHeatedBed,0,1
;   fanLayers,1,2
;   fanSpeeds,0,100
;   blipFanToFullPower,1
;   adjustSpeedForCooling,1
;   minSpeedLayerTime,15
;   minCoolingSpeedSlowdown,20
;   increaseFanForCooling,0
;   minFanLayerTime,60
;   maxCoolingFanSpeed,100
;   increaseFanForBridging,0
;   bridgingFanSpeed,100
;   use5D,1
;   relativeEdistances,0
;   allowEaxisZeroing,1
;   independentExtruderAxes,0
;   includeM10123,0
;   stickySupport,1
;   applyToolheadOffsets,0
;   gcodeXoffset,0
;   gcodeYoffset,0
;   gcodeZoffset,0
;   overrideMachineDefinition,1
;   machineTypeOverride,1
;   strokeXoverride,77
;   strokeYoverride,77
;   strokeZoverride,120
;   originOffsetXoverride,38.5
;   originOffsetYoverride,38.5
;   originOffsetZoverride,0
;   homeXdirOverride,0
;   homeYdirOverride,0
;   homeZdirOverride,1
;   flipXoverride,1
;   flipYoverride,-1
;   flipZoverride,1
;   toolheadOffsets,0,0|0,0|0,0|0,0|0,0|0,0
;   overrideFirmwareConfiguration,1
;   firmwareTypeOverride,RepRap (Marlin/Repetier/Sprinter)
;   GPXconfigOverride,r2
;   baudRateOverride,115200
;   overridePrinterModels,1
;   printerModelsOverride
;   startingGcode,G28 ; start from home position,G1 E-6 F900 ; retract 6mm of filament before starting the bed leveling process,G4 S5 ; pause to allow time for removing any oozing filament,G29 P2 Z0.5 ; auto level bed
;   layerChangeGcode,
;   retractionGcode,
;   toolChangeGcode,
;   endingGcode,M104 S0 ; turn off extruder,M140 S0 ; turn off bed,G91 ; switch to use relative coordinates,G1 E-5 F800 ; retract the filament a bit before lifting the nozzle to release some of the pressure,G1 Z5 ; raise Z 5mm from current position,G90 ; switch back to using absolute coordinates,M84 ; disable motors
;   exportFileFormat,gcode
;   celebration,0
;   celebrationSong,Random Song
;   postProcessing,
;   defaultSpeed,4800
;   outlineUnderspeed,0.35
;   solidInfillUnderspeed,0.6
;   supportUnderspeed,0.8
;   rapidXYspeed,4000
;   rapidZspeed,1000
;   minBridgingArea,50
;   bridgingExtraInflation,0
;   bridgingExtrusionMultiplier,1.05
;   bridgingSpeedMultiplier,1
;   useFixedBridgingAngle,0
;   fixedBridgingAngle,0
;   applyBridgingToPerimeters,0
;   filamentDiameters,1.75|1.75|1.75|1.75|1.75|1.75
;   filamentPricesPerKg,46|46|46|46|46|46
;   filamentDensities,1.25|1.25|1.25|1.25|1.25|1.25
;   useMinPrintHeight,0
;   minPrintHeight,0
;   useMaxPrintHeight,0
;   maxPrintHeight,0
;   useDiaphragm,0
;   diaphragmLayerInterval,20
;   robustSlicing,1
;   mergeAllIntoSolid,0
;   onlyRetractWhenCrossingOutline,1
;   retractBetweenLayers,1
;   useRetractionMinTravel,0
;   retractionMinTravel,3
;   retractWhileWiping,0
;   onlyWipeOutlines,1
;   avoidCrossingOutline,0
;   maxMovementDetourFactor,3
;   toolChangeRetractionDistance,12
;   toolChangeExtraRestartDistance,-0.5
;   toolChangeRetractionSpeed,600
;   externalThinWallType,0
;   internalThinWallType,2
;   thinWallAllowedOverlapPercentage,10
;   singleExtrusionMinLength,1
;   singleExtrusionMinPrintingWidthPercentage,50
;   singleExtrusionMaxPrintingWidthPercentage,200
;   singleExtrusionEndpointExtension,0.2
;   horizontalSizeCompensation,0
G90
M82
M106 S0
M140 S60
M190 S60
M104 S190 T0
M109 S190 T0
G28 ; start from home position
G1 E-6 F900 ; retract 6mm of filament before starting the bed leveling process
G4 S5 ; pause to allow time for removing any oozing filament
G29 P2 Z0.5 ; auto level bed
; process process1
; layer 1, Z = 0.450
T0
G92 E0.0000
G1 E-5.0000 F3600
; feature skirt
; tool H0.450 W0.400
G1 Z0.450 F1000
G1 X-13.223 Y-17.820 F4000
G1 E0.0000 F3600
G92 E0.0000
G1 X-13.120 Y-18.068 E0.0181 F2400
G1 X-10.068 Y-21.120 E0.3087
G1 X-8.378 Y-21.820 E0.4320
G1 X-5.820 Y-21.820 E0.6043
G1 X-5.820 Y-24.378 E0.7765
G1 X-5.120 Y-26.068 E0.8998
G1 X-2.068 Y-29.120 E1.1904
G1 X-0.378 Y-29.820 E1.3137
G1 X6.180 Y-29.820 E1.7553
G1 X6.180 Y-32.378 E1.9276
G1 X6.880 Y-34.068 E2.0509
G1 X9.932 Y-37.120 E2.3415
G1 X11.622 Y-37.820 E2.4647
G1 X14.777 Y-37.820 E2.6772
G1 X14.880 Y-38.068 E2.6953
G1 X17.932 Y-41.120 E2.9860
G1 X19.622 Y-41.820 E3.1092
G1 X28.378 Y-41.820 E3.6989
G1 X30.068 Y-41.120 E3.8222
G1 X33.120 Y-38.068 E4.1128
G1 X33.820 Y-36.378 E4.2361
G1 X33.820 Y-28.186 E4.7878
G1 X33.825 Y-28.176 E4.7885
G1 X33.916 Y-27.977 E4.8033
G1 X34.103 Y-27.509 E4.8372
G1 X34.174 Y-27.302 E4.8520
G1 X37.453 Y-16.078 E5.6395
G1 X36.202 Y-13.079 E5.8584
G1 X30.192 Y-9.820 E6.3189
G1 X32.378 Y-9.820 E6.4661
G1 X34.068 Y-9.120 E6.5893
G1 X37.120 Y-6.068 E6.8800
G1 X37.820 Y-4.378 E7.0032
G1 X37.820 Y4.378 E7.5929
G1 X37.120 Y6.068 E7.7162
G1 X34.068 Y9.120 E8.0068
G1 X32.378 Y9.820 E8.1300
G1 X29.223 Y9.820 E8.3425
G1 X29.120 Y10.068 E8.3607
G1 X26.068 Y13.120 E8.6513
G1 X25.398 Y13.398 E8.7002
G1 X25.120 Y14.068 E8.7491
G1 X22.068 Y17.120 E9.0397
G1 X21.398 Y17.398 E9.0886
G1 X21.120 Y18.068 E9.1375
G1 X18.068 Y21.120 E9.4282
G1 X16.378 Y21.820 E9.5514
G1 X5.223 Y21.820 E10.3027
G1 X5.120 Y22.068 E10.3209
G1 X2.068 Y25.120 E10.6115
G1 X1.398 Y25.398 E10.6604
G1 X1.120 Y26.068 E10.7093
G1 X-1.932 Y29.120 E10.9999
G1 X-3.622 Y29.820 E11.1232
G1 X-6.777 Y29.820 E11.3357
G1 X-6.880 Y30.068 E11.3538
G1 X-9.932 Y33.120 E11.6444
G1 X-11.622 Y33.820 E11.7677
G1 X-18.180 Y33.820 E12.2094
G1 X-18.180 Y36.378 E12.3816
G1 X-18.880 Y38.068 E12.5049
G1 X-21.932 Y41.120 E12.7955
G1 X-23.622 Y41.820 E12.9188
G1 X-36.378 Y41.820 E13.7779
G1 X-38.068 Y41.120 E13.9011
G1 X-41.120 Y38.068 E14.1918
G1 X-41.820 Y36.378 E14.3150
G1 X-41.820 Y19.622 E15.4435
G1 X-41.120 Y17.932 E15.5668
G1 X-38.068 Y14.880 E15.8574
G1 X-37.820 Y14.777 E15.8755
G1 X-37.820 Y11.622 E16.0880
G1 X-37.120 Y9.932 E16.2113
G1 X-34.068 Y6.880 E16.5019
G1 X-33.820 Y6.777 E16.5200
G1 X-33.820 Y-0.378 E17.0019
G1 X-33.120 Y-2.068 E17.1252
G1 X-30.068 Y-5.120 E17.4158
G1 X-29.398 Y-5.398 E17.4647
G1 X-29.120 Y-6.068 E17.5136
G1 X-26.068 Y-9.120 E17.8042
G1 X-25.820 Y-9.223 E17.8224
G1 X-25.820 Y-12.378 E18.0349
G1 X-25.120 Y-14.068 E18.1581
G1 X-22.068 Y-17.120 E18.4487
G1 X-20.378 Y-17.820 E18.5720
G1 X-13.223 Y-17.820 E19.0539
G92 E0.0000
G1 E-5.0000 F3600
G1 Z0.550 F1000
G1 X-12.781 Y-17.842 F4000
G1 Z0.450 F1000
G1 E0.0000 F3600
G92 E0.0000
G1 X-9.842 Y-20.781 E0.2799 F2400
G1 X-8.298 Y-21.420 E0.3925
G1 X-5.420 Y-21.420 E0.5863
G1 X-5.420 Y-24.298 E0.7801
G1 X-4.781 Y-25.842 E0.8927
G1 X-1.842 Y-28.781 E1.1726
G1 X-0.298 Y-29.420 E1.2851
G1 X6.580 Y-29.420 E1.7484
G1 X6.580 Y-32.298 E1.9422
G1 X7.219 Y-33.842 E2.0548
G1 X10.158 Y-36.781 E2.3347
G1 X11.702 Y-37.420 E2.4472
G1 X15.045 Y-37.420 E2.6724
G1 X15.219 Y-37.842 E2.7031
G1 X18.158 Y-40.781 E2.9830
G1 X19.702 Y-41.420 E3.0956
G1 X28.298 Y-41.420 E3.6745
G1 X29.842 Y-40.781 E3.7871
G1 X32.781 Y-37.842 E4.0670
G1 X33.420 Y-36.298 E4.1795
G1 X33.420 Y-28.090 E4.7324
G1 X33.465 Y-28.002 E4.7390
G1 X33.548 Y-27.820 E4.7525
G1 X33.728 Y-27.369 E4.7852
G1 X33.793 Y-27.180 E4.7986
G1 X37.029 Y-16.102 E5.5760
G1 X35.888 Y-13.363 E5.7758
G1 X29.021 Y-9.640 E6.3019
G1 X26.103 Y-10.178 E6.5017
G1 X23.654 Y-13.032 E6.7550
G1 X22.622 Y-12.000 E6.8533
G1 X24.781 Y-9.842 E7.0588
G1 X24.955 Y-9.420 E7.0896
G1 X32.298 Y-9.420 E7.5841
G1 X33.842 Y-8.781 E7.6967
G1 X36.781 Y-5.842 E7.9766
G1 X37.420 Y-4.298 E8.0891
G1 X37.420 Y4.298 E8.6681
G1 X36.781 Y5.842 E8.7806
G1 X33.842 Y8.781 E9.0606
G1 X32.298 Y9.420 E9.1731
G1 X28.955 Y9.420 E9.3982
G1 X28.781 Y9.842 E9.4290
G1 X25.842 Y12.781 E9.7089
G1 X25.091 Y13.091 E9.7636
G1 X24.781 Y13.842 E9.8183
G1 X21.842 Y16.781 E10.0982
G1 X21.091 Y17.091 E10.1529
G1 X20.781 Y17.842 E10.2076
G1 X17.842 Y20.781 E10.4876
G1 X16.298 Y21.420 E10.6001
G1 X4.955 Y21.420 E11.3640
G1 X4.781 Y21.842 E11.3948
G1 X1.842 Y24.781 E11.6747
G1 X1.091 Y25.091 E11.7294
G1 X0.781 Y25.842 E11.7841
G1 X-2.158 Y28.781 E12.0640
G1 X-3.702 Y29.420 E12.1766
G1 X-7.045 Y29.420 E12.4017
G1 X-7.219 Y29.842 E12.4325
G1 X-10.158 Y32.781 E12.7124
G1 X-11.702 Y33.420 E12.8249
G1 X-18.580 Y33.420 E13.2882
G1 X-18.580 Y36.298 E13.4820
G1 X-19.219 Y37.842 E13.5946
G1 X-22.158 Y40.781 E13.8745
G1 X-23.702 Y41.420 E13.9870
G1 X-36.298 Y41.420 E14.8354
G1 X-37.842 Y40.781 E14.9479
G1 X-40.781 Y37.842 E15.2278
G1 X-41.420 Y36.298 E15.3404
G1 X-41.420 Y19.702 E16.4582
G1 X-40.781 Y18.158 E16.5707
G1 X-37.842 Y15.219 E16.8506
G1 X-37.420 Y15.045 E16.8814
G1 X-37.420 Y11.702 E17.1065
G1 X-36.781 Y10.158 E17.2190
G1 X-33.842 Y7.219 E17.4990
G1 X-33.420 Y7.045 E17.5297
G1 X-33.420 Y-0.298 E18.0243
G1 X-32.781 Y-1.842 E18.1368
G1 X-29.842 Y-4.781 E18.4167
G1 X-29.091 Y-5.091 E18.4714
G1 X-28.781 Y-5.842 E18.5261
G1 X-25.842 Y-8.781 E18.8061
G1 X-25.420 Y-8.955 E18.8368
G1 X-25.420 Y-12.298 E19.0619
G1 X-24.781 Y-13.842 E19.1745
G1 X-21.842 Y-16.781 E19.4544
G1 X-20.298 Y-17.420 E19.5669
G1 X-12.955 Y-17.420 E20.0615
G1 X-12.781 Y-17.842 E20.0922
G92 E0.0000
G1 E-5.0000 F3600
G1 Z0.550 F1000
G1 X23.188 Y-12.000 F4000
G1 Z0.450 F1000
G1 E0.0000 F3600
G92 E0.0000
G1 X25.120 Y-10.068 E0.1840 F2400
G1 X25.223 Y-9.820 E0.2021
G1 X25.884 Y-9.820 E0.2466
G1 X23.632 Y-12.444 E0.4795
G1 X23.188 Y-12.000 E0.5218
G92 E0.0000
G1 E-5.0000 F3600
; feature raft
; tool H0.450 W0.800
G1 Z0.550 F1000
G1 X19.297 Y-15.180 F4000
G1 Z0.450 F1000
G1 E0.0000 F3600
G92 E0.0000
G1 X16.820 Y-15.180 E0.3337 F600
G1 X16.820 Y-12.703 E0.6673
G1 X15.297 Y-11.180 E0.9574
G1 X12.820 Y-11.180 E1.2911
G1 X12.820 Y-8.820 E1.6090
G1 X19.297 Y-8.820 E2.4815
G1 X20.820 Y-7.297 E2.7716
G1 X20.820 Y-4.820 E3.1053
G1 X23.297 Y-4.820 E3.4389
G1 X24.000 Y-4.117 E3.5729
G1 X24.703 Y-4.820 E3.7068
G1 X31.297 Y-4.820 E4.5950
G1 X32.820 Y-3.297 E4.8851
G1 X32.820 Y3.297 E5.7734
G1 X31.297 Y4.820 E6.0635
G1 X24.820 Y4.820 E6.9360
G1 X24.820 Y7.297 E7.2696
G1 X23.297 Y8.820 E7.5598
G1 X20.820 Y8.820 E7.8934
G1 X20.820 Y11.297 E8.2271
G1 X19.297 Y12.820 E8.5172
G1 X16.820 Y12.820 E8.8509
G1 X16.820 Y15.297 E9.1845
G1 X15.297 Y16.820 E9.4747
G1 X4.703 Y16.820 E10.9017
G1 X3.180 Y15.297 E11.1918
G1 X3.180 Y12.820 E11.5255
G1 X0.820 Y12.820 E11.8434
G1 X0.820 Y19.297 E12.7159
G1 X-0.703 Y20.820 E13.0060
G1 X-3.180 Y20.820 E13.3397
G1 X-3.180 Y23.297 E13.6733
G1 X-4.703 Y24.820 E13.9635
G1 X-11.180 Y24.820 E14.8359
G1 X-11.180 Y27.297 E15.1696
G1 X-12.703 Y28.820 E15.4597
G1 X-19.297 Y28.820 E16.3479
G1 X-20.000 Y28.117 E16.4819
G1 X-20.703 Y28.820 E16.6158
G1 X-23.180 Y28.820 E16.9495
G1 X-23.180 Y35.297 E17.8219
G1 X-24.703 Y36.820 E18.1121
G1 X-35.297 Y36.820 E19.5391
G1 X-36.820 Y35.297 E19.8292
G1 X-36.820 Y20.703 E21.7951
G1 X-35.297 Y19.180 E22.0852
G1 X-32.820 Y19.180 E22.4189
G1 X-32.820 Y12.703 E23.2914
G1 X-31.297 Y11.180 E23.5815
G1 X-28.820 Y11.180 E23.9152
G1 X-28.820 Y0.703 E25.3264
G1 X-27.297 Y-0.820 E25.6166
G1 X-24.820 Y-0.820 E25.9502
G1 X-24.820 Y-3.297 E26.2839
G1 X-23.297 Y-4.820 E26.5740
G1 X-20.820 Y-4.820 E26.9077
G1 X-20.820 Y-11.297 E27.7802
G1 X-19.297 Y-12.820 E28.0703
G1 X-12.703 Y-12.820 E28.9585
G1 X-11.180 Y-11.297 E29.2487
G1 X-11.180 Y-8.820 E29.5823
G1 X-8.820 Y-8.820 E29.9002
G1 X-8.820 Y-15.297 E30.7727
G1 X-7.297 Y-16.820 E31.0628
G1 X-0.820 Y-16.820 E31.9353
G1 X-0.820 Y-23.297 E32.8078
G1 X0.703 Y-24.820 E33.0979
G1 X11.180 Y-24.820 E34.5092
G1 X11.180 Y-31.297 E35.3816
G1 X12.703 Y-32.820 E35.6718
G1 X19.180 Y-32.820 E36.5443
G1 X19.180 Y-35.297 E36.8779
G1 X20.703 Y-36.820 E37.1680
G1 X27.297 Y-36.820 E38.0563
G1 X28.820 Y-35.297 E38.3464
G1 X28.820 Y-26.978 E39.4670
G1 X29.319 Y-26.006 E39.6141
G1 X29.410 Y-25.776 E39.6475
G1 X32.107 Y-16.546 E40.9428
G1 X28.417 Y-14.545 E41.5083
G1 X24.492 Y-19.118 E42.3200
G1 X24.172 Y-18.957 E42.3682
G1 X22.815 Y-19.020 E42.5512
G1 X22.558 Y-19.180 E42.5919
G1 X20.820 Y-19.180 E42.8261
G1 X20.820 Y-16.703 E43.1597
G1 X19.297 Y-15.180 E43.4499
G92 E0.0000
G1 E-5.0000 F3600
G1 Z0.550 F1000
G1 X27.906 Y-16.000 F4000
G1 Z0.450 F1000
G1 E0.0000 F3600
G92 E0.0000
G1 X29.925 Y-16.000 E0.2720 F600
G92 E0.0000
G1 E-5.0000 F3600
G1 Z0.550 F1000
G1 X19.740 Y-34.286 F4000
G1 Z0.450 F1000
G1 E0.0000 F3600
G92 E0.0000
G1 X28.260 Y-34.286 E1.1477 F600
G1 X28.260 Y-32.000 E1.4556
G1 X12.675 Y-32.000 E3.5549
G1 X11.740 Y-31.065 E3.7330
G1 X11.740 Y-29.714 E3.9150
G1 X28.260 Y-29.714 E6.1403
G1 X28.260 Y-27.429 E6.4482
G1 X11.740 Y-27.429 E8.6735
G1 X11.740 Y-25.143 E8.9814
G1 X29.012 Y-25.143 E11.3080
G1 X29.680 Y-22.857 E11.6288
G1 X-0.260 Y-22.857 E15.6618
G1 X-0.260 Y-20.571 E15.9697
G1 X30.348 Y-20.571 E20.0926
G1 X31.015 Y-18.286 E20.4134
G1 X25.944 Y-18.286 E21.0965
G1 X24.632 Y-19.814 E21.3678
G1 X24.052 Y-19.523 E21.4553
G1 X22.987 Y-19.573 E21.5989
G1 X22.719 Y-19.740 E21.6415
G1 X20.260 Y-19.740 E21.9727
G1 X20.260 Y-18.286 E22.1686
G1 X-0.260 Y-18.286 E24.9327
G1 X-0.260 Y-16.260 E25.2056
G1 X-7.065 Y-16.260 E26.1222
G1 X-7.325 Y-16.000 E26.1717
G1 X19.325 Y-16.000 E29.7616
G1 X19.065 Y-15.740 E29.8111
G1 X16.260 Y-15.740 E30.1890
G1 X16.260 Y-13.714 E30.4618
G1 X-8.260 Y-13.714 E33.7648
G1 X-8.260 Y-11.429 E34.0727
G1 X12.260 Y-11.429 E36.8368
G1 X12.260 Y-9.143 E37.1447
G1 X-8.260 Y-9.143 E39.9088
G1 X-8.260 Y-8.260 E40.0277
G1 X-11.740 Y-8.260 E40.4965
G1 X-11.740 Y-9.143 E40.6154
G1 X-20.260 Y-9.143 E41.7631
G1 X-20.260 Y-11.065 E42.0220
G1 X-19.896 Y-11.429 E42.0913
G1 X-12.104 Y-11.429 E43.1410
G92 E0.0000
G1 E-5.0000 F3600
G1 Z0.550 F1000
G1 X-20.260 Y-6.857 F4000
G1 Z0.450 F1000
G1 E0.0000 F3600
G92 E0.0000
G1 X20.260 Y-6.857 E5.4582 F600
G1 X20.260 Y-4.571 E5.7661
G1 X-20.260 Y-4.571 E11.2243
