; G-Code generated by Simplify3D(R) Version 4.1.2
; Aug 9, 2023 at 4:17:51 PM
; Settings Summary
;   processName,process1
;   applyToModels,dc31_badge_bottom
;   profileName,Default (modified)
;   profileVersion,2021-09-04 16:52:40
;   baseProfile,Monoprice Mini Delta (modified)
;   printMaterial,PLA
;   printQuality,Medium
;   printExtruders,
;   extruderName,Primary Extruder
;   extruderToolheadNumber,0
;   extruderDiameter,0.4
;   extruderAutoWidth,0
;   extruderWidth,0.4
;   extrusionMultiplier,0.9
;   extruderUseRetract,1
;   extruderRetractionDistance,5
;   extruderExtraRestartDistance,0
;   extruderRetractionZLift,0.1
;   extruderRetractionSpeed,3600
;   extruderUseCoasting,0
;   extruderCoastingDistance,1
;   extruderUseWipe,0
;   extruderWipeDistance,5
;   primaryExtruder,0
;   layerHeight,0.15
;   topSolidLayers,3
;   bottomSolidLayers,3
;   perimeterOutlines,2
;   printPerimetersInsideOut,1
;   startPointOption,2
;   startPointOriginX,0
;   startPointOriginY,0
;   sequentialIslands,0
;   spiralVaseMode,0
;   firstLayerHeightPercentage,90
;   firstLayerWidthPercentage,100
;   firstLayerUnderspeed,0.5
;   useRaft,1
;   raftExtruder,0
;   raftTopLayers,3
;   raftBaseLayers,2
;   raftOffset,3
;   raftSeparationDistance,0.14
;   raftTopInfill,100
;   aboveRaftSpeedMultiplier,0.3
;   useSkirt,1
;   skirtExtruder,0
;   skirtLayers,1
;   skirtOutlines,2
;   skirtOffset,4
;   usePrimePillar,0
;   primePillarExtruder,999
;   primePillarWidth,12
;   primePillarLocation,7
;   primePillarSpeedMultiplier,1
;   useOozeShield,0
;   oozeShieldExtruder,999
;   oozeShieldOffset,2
;   oozeShieldOutlines,1
;   oozeShieldSidewallShape,1
;   oozeShieldSidewallAngle,30
;   oozeShieldSpeedMultiplier,1
;   infillExtruder,0
;   internalInfillPattern,Rectilinear
;   externalInfillPattern,Rectilinear
;   infillPercentage,20
;   outlineOverlapPercentage,30
;   infillExtrusionWidthPercentage,120
;   minInfillLength,5
;   infillLayerInterval,1
;   internalInfillAngles,45,-45
;   overlapInternalInfillAngles,0
;   externalInfillAngles,45,-45
;   generateSupport,1
;   supportExtruder,0
;   supportInfillPercentage,30
;   supportExtraInflation,0
;   supportBaseLayers,0
;   denseSupportExtruder,0
;   denseSupportLayers,0
;   denseSupportInfillPercentage,70
;   supportLayerInterval,1
;   supportHorizontalPartOffset,0.3
;   supportUpperSeparationLayers,1
;   supportLowerSeparationLayers,1
;   supportType,0
;   supportGridSpacing,4
;   maxOverhangAngle,45
;   supportAngles,0
;   temperatureName,Primary Extruder,Heated Bed
;   temperatureNumber,0,1
;   temperatureSetpointCount,1,1
;   temperatureSetpointLayers,1,1
;   temperatureSetpointTemperatures,190,60
;   temperatureStabilizeAtStartup,1,1
;   temperatureHeatedBed,0,1
;   fanLayers,1,2
;   fanSpeeds,0,100
;   blipFanToFullPower,1
;   adjustSpeedForCooling,1
;   minSpeedLayerTime,15
;   minCoolingSpeedSlowdown,20
;   increaseFanForCooling,0
;   minFanLayerTime,60
;   maxCoolingFanSpeed,100
;   increaseFanForBridging,0
;   bridgingFanSpeed,100
;   use5D,1
;   relativeEdistances,0
;   allowEaxisZeroing,1
;   independentExtruderAxes,0
;   includeM10123,0
;   stickySupport,1
;   applyToolheadOffsets,0
;   gcodeXoffset,0
;   gcodeYoffset,0
;   gcodeZoffset,0
;   overrideMachineDefinition,1
;   machineTypeOverride,1
;   strokeXoverride,77
;   strokeYoverride,77
;   strokeZoverride,120
;   originOffsetXoverride,38.5
;   originOffsetYoverride,38.5
;   originOffsetZoverride,0
;   homeXdirOverride,0
;   homeYdirOverride,0
;   homeZdirOverride,1
;   flipXoverride,1
;   flipYoverride,-1
;   flipZoverride,1
;   toolheadOffsets,0,0|0,0|0,0|0,0|0,0|0,0
;   overrideFirmwareConfiguration,1
;   firmwareTypeOverride,RepRap (Marlin/Repetier/Sprinter)
;   GPXconfigOverride,r2
;   baudRateOverride,115200
;   overridePrinterModels,1
;   printerModelsOverride
;   startingGcode,G28 ; start from home position,G1 E-6 F900 ; retract 6mm of filament before starting the bed leveling process,G4 S5 ; pause to allow time for removing any oozing filament,G29 P2 Z0.5 ; auto level bed
;   layerChangeGcode,
;   retractionGcode,
;   toolChangeGcode,
;   endingGcode,M104 S0 ; turn off extruder,M140 S0 ; turn off bed,G91 ; switch to use relative coordinates,G1 E-5 F800 ; retract the filament a bit before lifting the nozzle to release some of the pressure,G1 Z5 ; raise Z 5mm from current position,G90 ; switch back to using absolute coordinates,M84 ; disable motors
;   exportFileFormat,gcode
;   celebration,0
;   celebrationSong,Random Song
;   postProcessing,
;   defaultSpeed,4800
;   outlineUnderspeed,0.35
;   solidInfillUnderspeed,0.6
;   supportUnderspeed,0.8
;   rapidXYspeed,4000
;   rapidZspeed,1000
;   minBridgingArea,50
;   bridgingExtraInflation,0
;   bridgingExtrusionMultiplier,1.05
;   bridgingSpeedMultiplier,1
;   useFixedBridgingAngle,0
;   fixedBridgingAngle,0
;   applyBridgingToPerimeters,0
;   filamentDiameters,1.75|1.75|1.75|1.75|1.75|1.75
;   filamentPricesPerKg,46|46|46|46|46|46
;   filamentDensities,1.25|1.25|1.25|1.25|1.25|1.25
;   useMinPrintHeight,0
;   minPrintHeight,0
;   useMaxPrintHeight,0
;   maxPrintHeight,0
;   useDiaphragm,0
;   diaphragmLayerInterval,20
;   robustSlicing,1
;   mergeAllIntoSolid,0
;   onlyRetractWhenCrossingOutline,1
;   retractBetweenLayers,1
;   useRetractionMinTravel,0
;   retractionMinTravel,3
;   retractWhileWiping,0
;   onlyWipeOutlines,1
;   avoidCrossingOutline,0
;   maxMovementDetourFactor,3
;   toolChangeRetractionDistance,12
;   toolChangeExtraRestartDistance,-0.5
;   toolChangeRetractionSpeed,600
;   externalThinWallType,0
;   internalThinWallType,2
;   thinWallAllowedOverlapPercentage,10
;   singleExtrusionMinLength,1
;   singleExtrusionMinPrintingWidthPercentage,50
;   singleExtrusionMaxPrintingWidthPercentage,200
;   singleExtrusionEndpointExtension,0.2
;   horizontalSizeCompensation,0
G90
M82
M106 S0
M140 S60
M190 S60
M104 S190 T0
M109 S190 T0
G28 ; start from home position
G1 E-6 F900 ; retract 6mm of filament before starting the bed leveling process
G4 S5 ; pause to allow time for removing any oozing filament
G29 P2 Z0.5 ; auto level bed
; process process1
; layer 1, Z = 0.450
T0
G92 E0.0000
G1 E-5.0000 F3600
; feature skirt
; tool H0.450 W0.400
G1 Z0.450 F1000
G1 X7.223 Y-14.094 F4000
G1 E0.0000 F3600
G92 E0.0000
G1 X14.378 Y-14.094 E0.4819 F2400
G1 X16.068 Y-13.394 E0.6052
G1 X19.120 Y-10.343 E0.8958
G1 X19.820 Y-8.652 E1.0191
G1 X19.820 Y-1.497 E1.5010
G1 X20.068 Y-1.394 E1.5191
G1 X23.120 Y1.657 E1.8097
G1 X23.398 Y2.328 E1.8586
G1 X24.068 Y2.606 E1.9075
G1 X27.120 Y5.657 E2.1982
G1 X27.398 Y6.328 E2.2471
G1 X28.068 Y6.606 E2.2960
G1 X31.120 Y9.657 E2.5866
G1 X31.820 Y11.348 E2.7098
G1 X31.820 Y24.103 E3.5689
G1 X31.120 Y25.794 E3.6922
G1 X28.068 Y28.845 E3.9828
G1 X26.378 Y29.546 E4.1061
G1 X15.008 Y29.546 E4.8719
G1 X15.120 Y29.657 E4.8825
G1 X15.820 Y31.348 E5.0057
G1 X15.820 Y48.103 E6.1342
G1 X15.120 Y49.794 E6.2575
G1 X12.068 Y52.845 E6.5481
G1 X10.378 Y53.546 E6.6714
G1 X1.622 Y53.546 E7.2611
G1 X-0.068 Y52.845 E7.3843
G1 X-2.420 Y50.494 E7.6083
G1 X-2.602 Y50.385 E7.6226
G1 X-2.766 Y50.148 E7.6420
G1 X-3.120 Y49.794 E7.6757
G1 X-3.223 Y49.546 E7.6938
G1 X-6.378 Y49.546 E7.9063
G1 X-8.068 Y48.845 E8.0296
G1 X-11.120 Y45.794 E8.3202
G1 X-11.820 Y44.103 E8.4435
G1 X-11.820 Y36.948 E8.9254
G1 X-12.068 Y36.845 E8.9435
G1 X-15.120 Y33.794 E9.2341
G1 X-15.398 Y33.123 E9.2830
G1 X-16.068 Y32.845 E9.3319
G1 X-19.120 Y29.794 E9.6226
G1 X-19.820 Y28.103 E9.7458
G1 X-19.820 Y24.948 E9.9583
G1 X-20.068 Y24.845 E9.9764
G1 X-23.120 Y21.794 E10.2671
G1 X-23.398 Y21.123 E10.3160
G1 X-24.068 Y20.845 E10.3649
G1 X-27.120 Y17.794 E10.6555
G1 X-27.398 Y17.123 E10.7044
G1 X-28.068 Y16.845 E10.7533
G1 X-31.120 Y13.794 E11.0440
G1 X-31.820 Y12.103 E11.1672
G1 X-31.820 Y4.948 E11.6491
G1 X-32.068 Y4.845 E11.6672
G1 X-35.120 Y1.794 E11.9579
G1 X-35.820 Y0.103 E12.0811
G1 X-35.820 Y-36.652 E14.5567
G1 X-35.120 Y-38.343 E14.6799
G1 X-32.068 Y-41.394 E14.9706
G1 X-31.398 Y-41.672 E15.0195
G1 X-31.120 Y-42.343 E15.0684
G1 X-28.068 Y-45.394 E15.3590
G1 X-26.378 Y-46.094 E15.4822
G1 X-17.622 Y-46.094 E16.0719
G1 X-15.932 Y-45.394 E16.1952
G1 X-12.880 Y-42.343 E16.4858
G1 X-12.180 Y-40.652 E16.6091
G1 X-12.180 Y-38.094 E16.7813
G1 X-9.622 Y-38.094 E16.9536
G1 X-7.932 Y-37.394 E17.0769
G1 X-4.880 Y-34.343 E17.3675
G1 X-4.180 Y-32.652 E17.4908
G1 X-4.180 Y-29.497 E17.7033
G1 X-3.932 Y-29.394 E17.7214
G1 X-0.880 Y-26.343 E18.0120
G1 X-0.602 Y-25.672 E18.0609
G1 X0.068 Y-25.394 E18.1098
G1 X3.120 Y-22.343 E18.4004
G1 X3.820 Y-20.652 E18.5237
G1 X3.820 Y-17.497 E18.7362
G1 X4.068 Y-17.394 E18.7543
G1 X7.120 Y-14.343 E19.0449
G1 X7.223 Y-14.094 E19.0630
G92 E0.0000
G1 E-5.0000 F3600
G1 Z0.550 F1000
G1 X6.781 Y-14.116 F4000
G1 Z0.450 F1000
G1 E0.0000 F3600
G92 E0.0000
G1 X6.955 Y-13.694 E0.0307 F2400
G1 X14.298 Y-13.694 E0.5253
G1 X15.842 Y-13.055 E0.6378
G1 X18.781 Y-10.116 E0.9178
G1 X19.420 Y-8.573 E1.0303
G1 X19.420 Y-1.230 E1.5248
G1 X19.842 Y-1.055 E1.5556
G1 X22.781 Y1.884 E1.8355
G1 X23.091 Y2.634 E1.8902
G1 X23.842 Y2.945 E1.9449
G1 X26.781 Y5.884 E2.2248
G1 X27.091 Y6.634 E2.2795
G1 X27.842 Y6.945 E2.3342
G1 X30.781 Y9.884 E2.6142
G1 X31.420 Y11.427 E2.7267
G1 X31.420 Y24.024 E3.5751
G1 X30.781 Y25.567 E3.6876
G1 X27.842 Y28.506 E3.9675
G1 X26.298 Y29.146 E4.0801
G1 X14.042 Y29.146 E4.9055
G1 X14.781 Y29.884 E4.9758
G1 X15.420 Y31.427 E5.0884
G1 X15.420 Y48.024 E6.2061
G1 X14.781 Y49.567 E6.3187
G1 X11.842 Y52.506 E6.5986
G1 X10.298 Y53.146 E6.7111
G1 X1.702 Y53.146 E7.2901
G1 X0.158 Y52.506 E7.4026
G1 X-2.173 Y50.175 E7.6247
G1 X-2.322 Y50.086 E7.6364
G1 X-2.457 Y49.891 E7.6524
G1 X-2.781 Y49.567 E7.6832
G1 X-2.933 Y49.198 E7.7101
G1 X-2.970 Y49.146 E7.7144
G1 X-6.298 Y49.146 E7.9386
G1 X-7.842 Y48.506 E8.0511
G1 X-10.781 Y45.567 E8.3310
G1 X-11.420 Y44.024 E8.4436
G1 X-11.420 Y36.681 E8.9381
G1 X-11.842 Y36.506 E8.9689
G1 X-14.781 Y33.567 E9.2488
G1 X-15.091 Y32.817 E9.3035
G1 X-15.842 Y32.506 E9.3582
G1 X-18.781 Y29.567 E9.6381
G1 X-19.420 Y28.024 E9.7507
G1 X-19.420 Y24.681 E9.9758
G1 X-19.842 Y24.506 E10.0065
G1 X-22.781 Y21.567 E10.2865
G1 X-23.091 Y20.817 E10.3412
G1 X-23.842 Y20.506 E10.3959
G1 X-26.781 Y17.567 E10.6758
G1 X-27.091 Y16.817 E10.7305
G1 X-27.842 Y16.506 E10.7852
G1 X-30.781 Y13.567 E11.0651
G1 X-31.420 Y12.024 E11.1777
G1 X-31.420 Y4.681 E11.6722
G1 X-31.842 Y4.506 E11.7030
G1 X-34.781 Y1.567 E11.9829
G1 X-35.420 Y0.024 E12.0954
G1 X-35.420 Y-36.573 E14.5602
G1 X-34.781 Y-38.116 E14.6728
G1 X-31.842 Y-41.055 E14.9527
G1 X-31.091 Y-41.366 E15.0074
G1 X-30.781 Y-42.116 E15.0621
G1 X-27.842 Y-45.055 E15.3420
G1 X-26.298 Y-45.694 E15.4546
G1 X-17.702 Y-45.694 E16.0335
G1 X-16.158 Y-45.055 E16.1461
G1 X-13.219 Y-42.116 E16.4260
G1 X-12.580 Y-40.573 E16.5385
G1 X-12.580 Y-37.694 E16.7324
G1 X-9.702 Y-37.694 E16.9262
G1 X-8.158 Y-37.055 E17.0387
G1 X-5.219 Y-34.116 E17.3187
G1 X-4.580 Y-32.573 E17.4312
G1 X-4.580 Y-29.230 E17.6563
G1 X-4.158 Y-29.055 E17.6871
G1 X-1.219 Y-26.116 E17.9670
G1 X-0.909 Y-25.366 E18.0217
G1 X-0.158 Y-25.055 E18.0764
G1 X2.781 Y-22.116 E18.3563
G1 X3.420 Y-20.573 E18.4689
G1 X3.420 Y-17.230 E18.6940
G1 X3.842 Y-17.055 E18.7248
G1 X6.781 Y-14.116 E19.0047
G92 E0.0000
G1 E-5.0000 F3600
; feature raft
; tool H0.450 W0.800
G1 Z0.550 F1000
G1 X2.820 Y-11.571 F4000
G1 Z0.450 F1000
G1 E0.0000 F3600
G92 E0.0000
G1 X2.820 Y-9.094 E0.3337 F600
G1 X13.297 Y-9.094 E1.7449
G1 X14.820 Y-7.571 E2.0351
G1 X14.820 Y2.906 E3.4464
G1 X17.297 Y2.906 E3.7800
G1 X18.820 Y4.429 E4.0702
G1 X18.820 Y6.906 E4.4038
G1 X21.297 Y6.906 E4.7375
G1 X22.820 Y8.429 E5.0276
G1 X22.820 Y10.906 E5.3613
G1 X25.297 Y10.906 E5.6949
G1 X26.820 Y12.429 E5.9851
G1 X26.820 Y23.022 E7.4121
G1 X25.297 Y24.546 E7.7022
G1 X6.820 Y24.546 E10.1911
G1 X6.820 Y30.906 E11.0479
G1 X9.297 Y30.906 E11.3815
G1 X10.820 Y32.429 E11.6716
G1 X10.820 Y47.022 E13.6375
G1 X9.297 Y48.546 E13.9276
G1 X2.703 Y48.546 E14.8159
G1 X1.180 Y47.022 E15.1060
G1 X1.180 Y46.601 E15.1628
G1 X0.839 Y46.566 E15.2089
G1 X-0.551 Y44.546 E15.5393
G1 X-5.297 Y44.546 E16.1786
G1 X-6.820 Y43.022 E16.4687
G1 X-6.820 Y32.546 E17.8800
G1 X-9.297 Y32.546 E18.2137
G1 X-10.820 Y31.022 E18.5038
G1 X-10.820 Y28.546 E18.8375
G1 X-13.297 Y28.546 E19.1711
G1 X-14.820 Y27.022 E19.4613
G1 X-14.820 Y20.546 E20.3337
G1 X-17.297 Y20.546 E20.6674
G1 X-18.820 Y19.022 E20.9575
G1 X-18.820 Y16.546 E21.2912
G1 X-21.297 Y16.546 E21.6248
G1 X-22.820 Y15.022 E21.9150
G1 X-22.820 Y12.546 E22.2486
G1 X-25.297 Y12.546 E22.5823
G1 X-26.820 Y11.022 E22.8724
G1 X-26.820 Y4.429 E23.7606
G1 X-26.117 Y3.726 E23.8946
G1 X-26.820 Y3.022 E24.0285
G1 X-26.820 Y0.546 E24.3622
G1 X-29.297 Y0.546 E24.6958
G1 X-30.820 Y-0.978 E24.9859
G1 X-30.820 Y-35.571 E29.6459
G1 X-29.297 Y-37.094 E29.9360
G1 X-26.820 Y-37.094 E30.2697
G1 X-26.820 Y-39.571 E30.6033
G1 X-25.297 Y-41.094 E30.8935
G1 X-18.703 Y-41.094 E31.7817
G1 X-17.180 Y-39.571 E32.0718
G1 X-17.180 Y-33.094 E32.9443
G1 X-10.703 Y-33.094 E33.8168
G1 X-9.180 Y-31.571 E34.1069
G1 X-9.180 Y-25.094 E34.9794
G1 X-6.703 Y-25.094 E35.3130
G1 X-5.180 Y-23.571 E35.6032
G1 X-5.180 Y-21.094 E35.9368
G1 X-2.703 Y-21.094 E36.2705
G1 X-1.180 Y-19.571 E36.5606
G1 X-1.180 Y-13.094 E37.4331
G1 X1.297 Y-13.094 E37.7667
G1 X2.820 Y-11.571 E38.0569
G92 E0.0000
G1 E-5.0000 F3600
G1 Z0.550 F1000
G1 X-25.896 Y-39.703 F4000
G1 Z0.450 F1000
G1 E0.0000 F3600
G92 E0.0000
G1 X-18.104 Y-39.703 E1.0497 F600
G1 X-17.740 Y-39.339 E1.1190
G1 X-17.740 Y-37.417 E1.3779
G1 X-26.260 Y-37.417 E2.5256
G1 X-26.260 Y-36.534 E2.6445
G1 X-29.065 Y-36.534 E3.0224
G1 X-30.260 Y-35.339 E3.2500
G1 X-30.260 Y-35.132 E3.2780
G1 X-17.740 Y-35.132 E4.9645
G1 X-17.740 Y-32.846 E5.2724
G1 X-30.260 Y-32.846 E6.9589
G1 X-30.260 Y-30.560 E7.2668
G1 X-9.740 Y-30.560 E10.0309
G1 X-9.740 Y-28.274 E10.3388
G1 X-30.260 Y-28.274 E13.1029
G1 X-30.260 Y-25.989 E13.4108
G1 X-9.740 Y-25.989 E16.1749
G1 X-9.740 Y-24.534 E16.3708
G1 X-6.935 Y-24.534 E16.7486
G1 X-6.104 Y-23.703 E16.9070
G1 X-30.260 Y-23.703 E20.1610
G1 X-30.260 Y-21.417 E20.4689
G1 X-5.740 Y-21.417 E23.7718
G1 X-5.740 Y-20.534 E23.8907
G1 X-2.935 Y-20.534 E24.2686
G1 X-1.740 Y-19.339 E24.4962
G1 X-1.740 Y-19.132 E24.5242
G1 X-30.260 Y-19.132 E28.3660
G1 X-30.260 Y-16.846 E28.6739
G1 X-1.740 Y-16.846 E32.5156
G1 X-1.740 Y-14.560 E32.8235
G1 X-30.260 Y-14.560 E36.6653
G1 X-30.260 Y-12.274 E36.9731
G1 X1.325 Y-12.274 E41.2278
G1 X2.260 Y-11.339 E41.4059
G1 X2.260 Y-9.989 E41.5878
G1 X-30.260 Y-9.989 E45.9684
G1 X-30.260 Y-7.703 E46.2763
G1 X13.896 Y-7.703 E52.2243
G1 X14.260 Y-7.339 E52.2936
G1 X14.260 Y-5.417 E52.5525
G1 X-30.260 Y-5.417 E58.5495
G1 X-30.260 Y-3.132 E58.8574
G1 X14.260 Y-3.132 E64.8544
G1 X14.260 Y-0.846 E65.1623
G1 X-29.896 Y-0.846 E71.1103
G1 X-29.065 Y-0.014 E71.2687
G1 X-26.260 Y-0.014 E71.6465
G1 X-26.260 Y1.440 E71.8424
G1 X14.260 Y1.440 E77.3006
G1 X14.260 Y3.466 E77.5735
G1 X17.065 Y3.466 E77.9513
G1 X17.325 Y3.726 E78.0008
G1 X-25.325 Y3.726 E83.7460
G1 X-26.260 Y4.661 E83.9241
G1 X-26.260 Y6.011 E84.1060
G1 X18.260 Y6.011 E90.1030
G1 X18.260 Y7.465 E90.2989
G1 X21.065 Y7.465 E90.6768
G1 X21.896 Y8.297 E90.8351
G1 X-26.260 Y8.297 E97.3220
G1 X-26.260 Y10.583 E97.6299
G1 X22.260 Y10.583 E104.1657
G1 X22.260 Y11.466 E104.2846
G1 X25.065 Y11.466 E104.6625
G1 X26.260 Y12.661 E104.8901
G1 X26.260 Y12.868 E104.9181
G1 X-22.260 Y12.868 E111.4539
G1 X-22.260 Y14.791 E111.7128
G1 X-21.896 Y15.154 E111.7821
G1 X26.260 Y15.154 E118.2689
G1 X26.260 Y17.440 E118.5768
G1 X-18.260 Y17.440 E124.5738
G1 X-18.260 Y18.790 E124.7558
G1 X-17.325 Y19.726 E124.9339
G1 X26.260 Y19.726 E130.8050
G1 X26.260 Y22.011 E131.1128
G1 X-14.260 Y22.011 E136.5710
G1 X-14.260 Y24.297 E136.8789
G1 X6.260 Y24.297 E139.6430
G1 X6.260 Y26.583 E139.9509
G1 X-14.260 Y26.583 E142.7151
G1 X-14.260 Y26.791 E142.7430
G1 X-13.065 Y27.986 E142.9707
G1 X-10.260 Y27.986 E143.3485
G1 X-10.260 Y28.868 E143.4675
G1 X6.260 Y28.868 E145.6928
G1 X6.260 Y31.154 E146.0007
G1 X-9.896 Y31.154 E148.1770
G1 X-9.065 Y31.985 E148.3354
G1 X-6.260 Y31.985 E148.7132
G1 X-6.260 Y33.440 E148.9091
G1 X10.260 Y33.440 E151.1344
