; G-Code generated by Simplify3D(R) Version 4.1.2
; Aug 8, 2023 at 10:40:11 PM
; Settings Summary
;   processName,process1
;   applyToModels,DN-Badge-PowerBar-version-8.6.8
;   profileName,Default (modified)
;   profileVersion,2021-09-04 16:52:40
;   baseProfile,Monoprice Mini Delta (modified)
;   printMaterial,PLA
;   printQuality,Medium
;   printExtruders,
;   extruderName,Primary Extruder
;   extruderToolheadNumber,0
;   extruderDiameter,0.4
;   extruderAutoWidth,0
;   extruderWidth,0.4
;   extrusionMultiplier,0.9
;   extruderUseRetract,1
;   extruderRetractionDistance,5
;   extruderExtraRestartDistance,0
;   extruderRetractionZLift,0.1
;   extruderRetractionSpeed,3600
;   extruderUseCoasting,0
;   extruderCoastingDistance,1
;   extruderUseWipe,0
;   extruderWipeDistance,5
;   primaryExtruder,0
;   layerHeight,0.15
;   topSolidLayers,3
;   bottomSolidLayers,3
;   perimeterOutlines,2
;   printPerimetersInsideOut,1
;   startPointOption,2
;   startPointOriginX,0
;   startPointOriginY,0
;   sequentialIslands,0
;   spiralVaseMode,0
;   firstLayerHeightPercentage,90
;   firstLayerWidthPercentage,100
;   firstLayerUnderspeed,0.5
;   useRaft,0
;   raftExtruder,0
;   raftTopLayers,3
;   raftBaseLayers,2
;   raftOffset,3
;   raftSeparationDistance,0.14
;   raftTopInfill,100
;   aboveRaftSpeedMultiplier,0.3
;   useSkirt,1
;   skirtExtruder,0
;   skirtLayers,1
;   skirtOutlines,2
;   skirtOffset,4
;   usePrimePillar,0
;   primePillarExtruder,999
;   primePillarWidth,12
;   primePillarLocation,7
;   primePillarSpeedMultiplier,1
;   useOozeShield,0
;   oozeShieldExtruder,999
;   oozeShieldOffset,2
;   oozeShieldOutlines,1
;   oozeShieldSidewallShape,1
;   oozeShieldSidewallAngle,30
;   oozeShieldSpeedMultiplier,1
;   infillExtruder,0
;   internalInfillPattern,Rectilinear
;   externalInfillPattern,Rectilinear
;   infillPercentage,20
;   outlineOverlapPercentage,30
;   infillExtrusionWidthPercentage,120
;   minInfillLength,5
;   infillLayerInterval,1
;   internalInfillAngles,45,-45
;   overlapInternalInfillAngles,0
;   externalInfillAngles,45,-45
;   generateSupport,0
;   supportExtruder,0
;   supportInfillPercentage,30
;   supportExtraInflation,0
;   supportBaseLayers,0
;   denseSupportExtruder,0
;   denseSupportLayers,0
;   denseSupportInfillPercentage,70
;   supportLayerInterval,1
;   supportHorizontalPartOffset,0.3
;   supportUpperSeparationLayers,1
;   supportLowerSeparationLayers,1
;   supportType,0
;   supportGridSpacing,4
;   maxOverhangAngle,45
;   supportAngles,0
;   temperatureName,Primary Extruder,Heated Bed
;   temperatureNumber,0,1
;   temperatureSetpointCount,1,1
;   temperatureSetpointLayers,1,1
;   temperatureSetpointTemperatures,190,60
;   temperatureStabilizeAtStartup,1,1
;   temperatureHeatedBed,0,1
;   fanLayers,1,2
;   fanSpeeds,0,100
;   blipFanToFullPower,1
;   adjustSpeedForCooling,1
;   minSpeedLayerTime,15
;   minCoolingSpeedSlowdown,20
;   increaseFanForCooling,0
;   minFanLayerTime,60
;   maxCoolingFanSpeed,100
;   increaseFanForBridging,0
;   bridgingFanSpeed,100
;   use5D,1
;   relativeEdistances,0
;   allowEaxisZeroing,1
;   independentExtruderAxes,0
;   includeM10123,0
;   stickySupport,1
;   applyToolheadOffsets,0
;   gcodeXoffset,0
;   gcodeYoffset,0
;   gcodeZoffset,0
;   overrideMachineDefinition,1
;   machineTypeOverride,1
;   strokeXoverride,77
;   strokeYoverride,77
;   strokeZoverride,120
;   originOffsetXoverride,38.5
;   originOffsetYoverride,38.5
;   originOffsetZoverride,0
;   homeXdirOverride,0
;   homeYdirOverride,0
;   homeZdirOverride,1
;   flipXoverride,1
;   flipYoverride,-1
;   flipZoverride,1
;   toolheadOffsets,0,0|0,0|0,0|0,0|0,0|0,0
;   overrideFirmwareConfiguration,1
;   firmwareTypeOverride,RepRap (Marlin/Repetier/Sprinter)
;   GPXconfigOverride,r2
;   baudRateOverride,115200
;   overridePrinterModels,1
;   printerModelsOverride
;   startingGcode,G28 ; start from home position,G1 E-6 F900 ; retract 6mm of filament before starting the bed leveling process,G4 S5 ; pause to allow time for removing any oozing filament,G29 P2 Z0.5 ; auto level bed
;   layerChangeGcode,
;   retractionGcode,
;   toolChangeGcode,
;   endingGcode,M104 S0 ; turn off extruder,M140 S0 ; turn off bed,G91 ; switch to use relative coordinates,G1 E-5 F800 ; retract the filament a bit before lifting the nozzle to release some of the pressure,G1 Z5 ; raise Z 5mm from current position,G90 ; switch back to using absolute coordinates,M84 ; disable motors
;   exportFileFormat,gcode
;   celebration,0
;   celebrationSong,Random Song
;   postProcessing,
;   defaultSpeed,4800
;   outlineUnderspeed,0.35
;   solidInfillUnderspeed,0.6
;   supportUnderspeed,0.8
;   rapidXYspeed,4000
;   rapidZspeed,1000
;   minBridgingArea,50
;   bridgingExtraInflation,0
;   bridgingExtrusionMultiplier,1.05
;   bridgingSpeedMultiplier,1
;   useFixedBridgingAngle,0
;   fixedBridgingAngle,0
;   applyBridgingToPerimeters,0
;   filamentDiameters,1.75|1.75|1.75|1.75|1.75|1.75
;   filamentPricesPerKg,46|46|46|46|46|46
;   filamentDensities,1.25|1.25|1.25|1.25|1.25|1.25
;   useMinPrintHeight,0
;   minPrintHeight,0
;   useMaxPrintHeight,0
;   maxPrintHeight,0
;   useDiaphragm,0
;   diaphragmLayerInterval,20
;   robustSlicing,1
;   mergeAllIntoSolid,0
;   onlyRetractWhenCrossingOutline,1
;   retractBetweenLayers,1
;   useRetractionMinTravel,0
;   retractionMinTravel,3
;   retractWhileWiping,0
;   onlyWipeOutlines,1
;   avoidCrossingOutline,0
;   maxMovementDetourFactor,3
;   toolChangeRetractionDistance,12
;   toolChangeExtraRestartDistance,-0.5
;   toolChangeRetractionSpeed,600
;   externalThinWallType,0
;   internalThinWallType,2
;   thinWallAllowedOverlapPercentage,10
;   singleExtrusionMinLength,1
;   singleExtrusionMinPrintingWidthPercentage,50
;   singleExtrusionMaxPrintingWidthPercentage,200
;   singleExtrusionEndpointExtension,0.2
;   horizontalSizeCompensation,0
G90
M82
M106 S0
M140 S60
M190 S60
M104 S190 T0
M109 S190 T0
G28 ; start from home position
G1 E-6 F900 ; retract 6mm of filament before starting the bed leveling process
G4 S5 ; pause to allow time for removing any oozing filament
G29 P2 Z0.5 ; auto level bed
; process process1
; layer 1, Z = 0.135
T0
G92 E0.0000
G1 E-5.0000 F3600
; feature skirt
; tool H0.135 W0.400
G1 Z0.135 F1000
G1 X7.100 Y-10.403 F4000
G1 E0.0000 F3600
G92 E0.0000
G1 X7.100 Y40.405 E1.0266 F2400
G1 X4.405 Y43.100 E1.1036
G1 X-4.405 Y43.100 E1.2816
G1 X-7.100 Y40.405 E1.3586
G1 X-7.100 Y-44.405 E3.0723
G1 X-4.405 Y-47.100 E3.1493
G1 X4.405 Y-47.100 E3.3273
G1 X7.100 Y-44.405 E3.4043
G1 X7.100 Y-14.598 E4.0066
G1 X6.098 Y-13.596 E4.0352
G1 X6.098 Y-11.405 E4.0795
G1 X7.100 Y-10.403 E4.1081
G92 E0.0000
G1 E-5.0000 F3600
G1 Z0.235 F1000
G1 X6.700 Y-10.238 F4000
G1 Z0.135 F1000
G1 E0.0000 F3600
G92 E0.0000
G1 X6.700 Y40.240 E1.0199 F2400
G1 X4.240 Y42.700 E1.0902
G1 X-4.240 Y42.700 E1.2616
G1 X-6.700 Y40.240 E1.3319
G1 X-6.700 Y-44.240 E3.0388
G1 X-4.240 Y-46.700 E3.1091
G1 X4.240 Y-46.700 E3.2804
G1 X6.700 Y-44.240 E3.3507
G1 X6.700 Y-14.763 E3.9463
G1 X5.698 Y-13.761 E3.9750
G1 X5.698 Y-11.240 E4.0259
G1 X6.700 Y-10.238 E4.0545
G92 E0.0000
G1 E-5.0000 F3600
; feature inner perimeter
G1 Z0.235 F1000
G1 X1.900 Y-7.898 F4000
G1 Z0.135 F1000
G1 E0.0000 F3600
G92 E0.0000
G1 X1.900 Y37.900 E0.9254 F1620
G1 X-1.900 Y37.900 E1.0022
G1 X-1.900 Y-41.900 E2.6146
G1 X1.900 Y-41.900 E2.6913
G1 X1.900 Y-26.611 E3.0003
G1 X-0.227 Y-26.611 E3.0432
G1 X-0.227 Y-22.898 E3.1183
G1 X1.900 Y-22.898 E3.1612
G1 X1.900 Y-17.103 E3.2783
G1 X0.898 Y-17.103 E3.2986
G1 X0.898 Y-7.898 E3.4846
G1 X1.900 Y-7.898 E3.5048
; feature outer perimeter
G1 X2.300 Y-8.298 F4000
G92 E0.0000
G1 X2.300 Y38.300 E0.9415 F840
G1 X-2.300 Y38.300 E1.0345
G1 X-2.300 Y-42.300 E2.6630
G1 X2.300 Y-42.300 E2.7560
G1 X2.300 Y-26.211 E3.0811
G1 X0.173 Y-26.211 E3.1241
G1 X0.173 Y-23.298 E3.1829
G1 X2.300 Y-23.298 E3.2259
G1 X2.300 Y-16.703 E3.3591
G1 X1.298 Y-16.703 E3.3794
G1 X1.298 Y-8.298 E3.5492
G1 X2.300 Y-8.298 E3.5695
G92 E0.0000
G1 E-5.0000 F3600
; feature solid layer
G1 Z0.235 F1000
G1 X1.620 Y-21.310 F4000
G1 Z0.135 F1000
G1 E0.0000 F3600
G92 E0.0000
G1 X0.312 Y-22.618 E0.0374 F1440
G1 X0.878 Y-22.618 E0.0488
G1 X1.620 Y-21.876 E0.0700
G1 X1.620 Y-22.442 E0.0814
G1 X1.444 Y-22.618 E0.0865
G92 E0.0000
G1 E-5.0000 F3600
G1 Z0.235 F1000
G1 X1.109 Y-41.620 F4000
G1 Z0.135 F1000
G1 E0.0000 F3600
G92 E0.0000
G1 X1.620 Y-41.109 E0.0146 F1440
G1 X1.620 Y-40.544 E0.0260
G1 X0.544 Y-41.620 E0.0568
G1 X-0.022 Y-41.620 E0.0682
G1 X1.620 Y-39.978 E0.1151
G1 X1.620 Y-39.412 E0.1266
G1 X-0.588 Y-41.620 E0.1896
G1 X-1.153 Y-41.620 E0.2011
G1 X1.620 Y-38.847 E0.2803
G1 X1.620 Y-38.281 E0.2918
G1 X-1.620 Y-41.521 E0.3843
G1 X-1.620 Y-40.955 E0.3958
G1 X1.620 Y-37.715 E0.4883
G1 X1.620 Y-37.150 E0.4998
G1 X-1.620 Y-40.390 E0.5924
G1 X-1.620 Y-39.824 E0.6038
G1 X1.620 Y-36.584 E0.6964
G1 X1.620 Y-36.018 E0.7078
G1 X-1.620 Y-39.258 E0.8004
G1 X-1.620 Y-38.693 E0.8118
G1 X1.620 Y-35.453 E0.9044
G1 X1.620 Y-34.887 E0.9158
G1 X-1.620 Y-38.127 E1.0084
G1 X-1.620 Y-37.561 E1.0198
G1 X1.620 Y-34.321 E1.1124
G1 X1.620 Y-33.755 E1.1239
G1 X-1.620 Y-36.995 E1.2164
G1 X-1.620 Y-36.430 E1.2279
G1 X1.620 Y-33.190 E1.3204
G1 X1.620 Y-32.624 E1.3319
G1 X-1.620 Y-35.864 E1.4245
G1 X-1.620 Y-35.298 E1.4359
G1 X1.620 Y-32.058 E1.5285
G1 X1.620 Y-31.493 E1.5399
G1 X-1.620 Y-34.733 E1.6325
G1 X-1.620 Y-34.167 E1.6439
G1 X1.620 Y-30.927 E1.7365
G1 X1.620 Y-30.361 E1.7479
G1 X-1.620 Y-33.601 E1.8405
G1 X-1.620 Y-33.036 E1.8519
G1 X1.620 Y-29.796 E1.9445
G1 X1.620 Y-29.230 E1.9560
G1 X-1.620 Y-32.470 E2.0485
G1 X-1.620 Y-31.904 E2.0600
G1 X1.620 Y-28.664 E2.1526
G1 X1.620 Y-28.099 E2.1640
G1 X-1.620 Y-31.339 E2.2566
G1 X-1.620 Y-30.773 E2.2680
G1 X1.620 Y-27.533 E2.3606
G1 X1.620 Y-26.967 E2.3720
G1 X-1.620 Y-30.207 E2.4646
G1 X-1.620 Y-29.642 E2.4760
G1 X1.131 Y-26.891 E2.5546
G1 X0.565 Y-26.891 E2.5660
G1 X-1.620 Y-29.076 E2.6285
G1 X-1.620 Y-28.510 E2.6399
G1 X-0.001 Y-26.891 E2.6862
G1 X-0.507 Y-26.891 E2.6964
G1 X-0.507 Y-26.831 E2.6976
G1 X-1.620 Y-27.944 E2.7294
G1 X-1.620 Y-27.379 E2.7408
G1 X-0.507 Y-26.266 E2.7726
G1 X-0.507 Y-25.700 E2.7841
G1 X-1.620 Y-26.813 E2.8159
G1 X-1.620 Y-26.247 E2.8273
G1 X-0.507 Y-25.134 E2.8591
G1 X-0.507 Y-24.569 E2.8705
G1 X-1.620 Y-25.682 E2.9023
G1 X-1.620 Y-25.116 E2.9138
G1 X-0.507 Y-24.003 E2.9456
G1 X-0.507 Y-23.437 E2.9570
G1 X-1.620 Y-24.550 E2.9888
G1 X-1.620 Y-23.985 E3.0002
G1 X-0.507 Y-22.872 E3.0320
G1 X-0.507 Y-22.618 E3.0372
G1 X-0.253 Y-22.618 E3.0423
G1 X1.620 Y-20.745 E3.0958
G1 X1.620 Y-20.179 E3.1073
G1 X-1.620 Y-23.419 E3.1998
G1 X-1.620 Y-22.853 E3.2113
G1 X1.620 Y-19.613 E3.3039
G1 X1.620 Y-19.048 E3.3153
G1 X-1.620 Y-22.288 E3.4079
G1 X-1.620 Y-21.722 E3.4193
G1 X1.620 Y-18.482 E3.5119
G1 X1.620 Y-17.916 E3.5233
G1 X-1.620 Y-21.156 E3.6159
G1 X-1.620 Y-20.591 E3.6273
G1 X1.588 Y-17.383 E3.7190
G1 X1.022 Y-17.383 E3.7304
G1 X-1.620 Y-20.025 E3.8059
G1 X-1.620 Y-19.459 E3.8173
G1 X0.618 Y-17.221 E3.8813
G1 X0.618 Y-16.656 E3.8927
G1 X-1.620 Y-18.894 E3.9567
G1 X-1.620 Y-18.328 E3.9681
G1 X0.618 Y-16.090 E4.0320
G1 X0.618 Y-15.524 E4.0435
G1 X-1.620 Y-17.762 E4.1074
G1 X-1.620 Y-17.196 E4.1189
G1 X0.618 Y-14.958 E4.1828
G1 X0.618 Y-14.393 E4.1942
G1 X-1.620 Y-16.631 E4.2582
G1 X-1.620 Y-16.065 E4.2696
G1 X0.618 Y-13.827 E4.3336
G1 X0.618 Y-13.261 E4.3450
G1 X-1.620 Y-15.499 E4.4089
G1 X-1.620 Y-14.934 E4.4204
G1 X0.618 Y-12.696 E4.4843
G1 X0.618 Y-12.130 E4.4958
G1 X-1.620 Y-14.368 E4.5597
G1 X-1.620 Y-13.802 E4.5711
G1 X0.618 Y-11.564 E4.6351
G1 X0.618 Y-10.999 E4.6465
G1 X-1.620 Y-13.237 E4.7105
G1 X-1.620 Y-12.671 E4.7219
G1 X0.618 Y-10.433 E4.7859
G1 X0.618 Y-9.867 E4.7973
G1 X-1.620 Y-12.105 E4.8612
G1 X-1.620 Y-11.540 E4.8727
G1 X0.618 Y-9.302 E4.9366
G1 X0.618 Y-8.736 E4.9480
G1 X-1.620 Y-10.974 E5.0120
G1 X-1.620 Y-10.408 E5.0234
G1 X0.618 Y-8.170 E5.0874
G1 X0.618 Y-7.618 E5.0985
G1 X1.170 Y-7.618 E5.1097
G1 X1.620 Y-7.168 E5.1225
G1 X1.620 Y-6.603 E5.1340
G1 X-1.620 Y-9.843 E5.2266
G1 X-1.620 Y-9.277 E5.2380
G1 X1.620 Y-6.037 E5.3306
G1 X1.620 Y-5.471 E5.3420
G1 X-1.620 Y-8.711 E5.4346
G1 X-1.620 Y-8.145 E5.4460
G1 X1.620 Y-4.905 E5.5386
G1 X1.620 Y-4.340 E5.5500
G1 X-1.620 Y-7.580 E5.6426
G1 X-1.620 Y-7.014 E5.6540
G1 X1.620 Y-3.774 E5.7466
G1 X1.620 Y-3.208 E5.7580
G1 X-1.620 Y-6.448 E5.8506
G1 X-1.620 Y-5.883 E5.8621
G1 X1.620 Y-2.643 E5.9546
G1 X1.620 Y-2.077 E5.9661
G1 X-1.620 Y-5.317 E6.0587
G1 X-1.620 Y-4.751 E6.0701
G1 X1.620 Y-1.511 E6.1627
G1 X1.620 Y-0.946 E6.1741
G1 X-1.620 Y-4.186 E6.2667
G1 X-1.620 Y-3.620 E6.2781
G1 X1.620 Y-0.380 E6.3707
G1 X1.620 Y0.186 E6.3821
G1 X-1.620 Y-3.054 E6.4747
G1 X-1.620 Y-2.489 E6.4861
G1 X1.620 Y0.751 E6.5787
G1 X1.620 Y1.317 E6.5902
G1 X-1.620 Y-1.923 E6.6827
G1 X-1.620 Y-1.357 E6.6942
G1 X1.620 Y1.883 E6.7867
G1 X1.620 Y2.448 E6.7982
G1 X-1.620 Y-0.792 E6.8908
G1 X-1.620 Y-0.226 E6.9022
G1 X1.620 Y3.014 E6.9948
G1 X1.620 Y3.580 E7.0062
G1 X-1.620 Y0.340 E7.0988
G1 X-1.620 Y0.905 E7.1102
G1 X1.620 Y4.145 E7.2028
G1 X1.620 Y4.711 E7.2142
G1 X-1.620 Y1.471 E7.3068
G1 X-1.620 Y2.037 E7.3182
G1 X1.620 Y5.277 E7.4108
G1 X1.620 Y5.843 E7.4223
G1 X-1.620 Y2.603 E7.5148
G1 X-1.620 Y3.168 E7.5263
G1 X1.620 Y6.408 E7.6188
G1 X1.620 Y6.974 E7.6303
G1 X-1.620 Y3.734 E7.7229
G1 X-1.620 Y4.300 E7.7343
G1 X1.620 Y7.540 E7.8269
G1 X1.620 Y8.105 E7.8383
G1 X-1.620 Y4.865 E7.9309
G1 X-1.620 Y5.431 E7.9423
G1 X1.620 Y8.671 E8.0349
G1 X1.620 Y9.237 E8.0463
G1 X-1.620 Y5.997 E8.1389
G1 X-1.620 Y6.562 E8.1503
G1 X1.620 Y9.802 E8.2429
G1 X1.620 Y10.368 E8.2544
G1 X-1.620 Y7.128 E8.3469
G1 X-1.620 Y7.694 E8.3584
G1 X1.620 Y10.934 E8.4510
G1 X1.620 Y11.499 E8.4624
G1 X-1.620 Y8.259 E8.5550
G1 X-1.620 Y8.825 E8.5664
G1 X1.620 Y12.065 E8.6590
G1 X1.620 Y12.631 E8.6704
G1 X-1.620 Y9.391 E8.7630
G1 X-1.620 Y9.956 E8.7744
G1 X1.620 Y13.196 E8.8670
G1 X1.620 Y13.762 E8.8784
G1 X-1.620 Y10.522 E8.9710
G1 X-1.620 Y11.088 E8.9824
G1 X1.620 Y14.328 E9.0750
G1 X1.620 Y14.893 E9.0865
G1 X-1.620 Y11.653 E9.1790
G1 X-1.620 Y12.219 E9.1905
G1 X1.620 Y15.459 E9.2831
G1 X1.620 Y16.025 E9.2945
G1 X-1.620 Y12.785 E9.3871
G1 X-1.620 Y13.351 E9.3985
G1 X1.620 Y16.591 E9.4911
G1 X1.620 Y17.156 E9.5025
G1 X-1.620 Y13.916 E9.5951
G1 X-1.620 Y14.482 E9.6065
G1 X1.620 Y17.722 E9.6991
G1 X1.620 Y18.288 E9.7105
G1 X-1.620 Y15.048 E9.8031
G1 X-1.620 Y15.613 E9.8145
G1 X1.620 Y18.853 E9.9071
G1 X1.620 Y19.419 E9.9186
G1 X-1.620 Y16.179 E10.0111
G1 X-1.620 Y16.745 E10.0226
G1 X1.620 Y19.985 E10.1152
G1 X1.620 Y20.550 E10.1266
G1 X-1.620 Y17.310 E10.2192
G1 X-1.620 Y17.876 E10.2306
G1 X1.620 Y21.116 E10.3232
G1 X1.620 Y21.682 E10.3346
G1 X-1.620 Y18.442 E10.4272
G1 X-1.620 Y19.007 E10.4386
G1 X1.620 Y22.247 E10.5312
G1 X1.620 Y22.813 E10.5426
G1 X-1.620 Y19.573 E10.6352
G1 X-1.620 Y20.139 E10.6466
G1 X1.620 Y23.379 E10.7392
G1 X1.620 Y23.944 E10.7507
G1 X-1.620 Y20.704 E10.8432
G1 X-1.620 Y21.270 E10.8547
G1 X1.620 Y24.510 E10.9473
G1 X1.620 Y25.076 E10.9587
G1 X-1.620 Y21.836 E11.0513
G1 X-1.620 Y22.402 E11.0627
G1 X1.620 Y25.642 E11.1553
G1 X1.620 Y26.207 E11.1667
G1 X-1.620 Y22.967 E11.2593
G1 X-1.620 Y23.533 E11.2707
G1 X1.620 Y26.773 E11.3633
G1 X1.620 Y27.339 E11.3747
G1 X-1.620 Y24.099 E11.4673
G1 X-1.620 Y24.664 E11.4788
G1 X1.620 Y27.904 E11.5713
G1 X1.620 Y28.470 E11.5828
G1 X-1.620 Y25.230 E11.6753
G1 X-1.620 Y25.796 E11.6868
G1 X1.620 Y29.036 E11.7794
G1 X1.620 Y29.601 E11.7908
G1 X-1.620 Y26.361 E11.8834
G1 X-1.620 Y26.927 E11.8948
G1 X1.620 Y30.167 E11.9874
G1 X1.620 Y30.733 E11.9988
G1 X-1.620 Y27.493 E12.0914
G1 X-1.620 Y28.058 E12.1028
G1 X1.620 Y31.298 E12.1954
G1 X1.620 Y31.864 E12.2068
G1 X-1.620 Y28.624 E12.2994
G1 X-1.620 Y29.190 E12.3109
G1 X1.620 Y32.430 E12.4034
G1 X1.620 Y32.995 E12.4149
G1 X-1.620 Y29.755 E12.5074
G1 X-1.620 Y30.321 E12.5189
G1 X1.620 Y33.561 E12.6115
G1 X1.620 Y34.127 E12.6229
G1 X-1.620 Y30.887 E12.7155
G1 X-1.620 Y31.452 E12.7269
G1 X1.620 Y34.692 E12.8195
G1 X1.620 Y35.258 E12.8309
G1 X-1.620 Y32.018 E12.9235
G1 X-1.620 Y32.584 E12.9349
G1 X1.620 Y35.824 E13.0275
G1 X1.620 Y36.390 E13.0389
G1 X-1.620 Y33.150 E13.1315
G1 X-1.620 Y33.715 E13.1430
