; G-Code generated by Simplify3D(R) Version 4.1.2
; Aug 7, 2023 at 9:10:33 PM
; Settings Summary
;   processName,process1
;   applyToModels,DN-Badge-Body-version-8.6.8
;   profileName,Default (modified)
;   profileVersion,2021-09-04 16:52:40
;   baseProfile,Monoprice Mini Delta (modified)
;   printMaterial,PLA
;   printQuality,Medium
;   printExtruders,
;   extruderName,Primary Extruder
;   extruderToolheadNumber,0
;   extruderDiameter,0.4
;   extruderAutoWidth,0
;   extruderWidth,0.4
;   extrusionMultiplier,0.9
;   extruderUseRetract,1
;   extruderRetractionDistance,5
;   extruderExtraRestartDistance,0
;   extruderRetractionZLift,0.1
;   extruderRetractionSpeed,3600
;   extruderUseCoasting,0
;   extruderCoastingDistance,1
;   extruderUseWipe,0
;   extruderWipeDistance,5
;   primaryExtruder,0
;   layerHeight,0.15
;   topSolidLayers,3
;   bottomSolidLayers,3
;   perimeterOutlines,2
;   printPerimetersInsideOut,1
;   startPointOption,2
;   startPointOriginX,0
;   startPointOriginY,0
;   sequentialIslands,0
;   spiralVaseMode,0
;   firstLayerHeightPercentage,90
;   firstLayerWidthPercentage,100
;   firstLayerUnderspeed,0.5
;   useRaft,0
;   raftExtruder,0
;   raftTopLayers,3
;   raftBaseLayers,2
;   raftOffset,3
;   raftSeparationDistance,0.14
;   raftTopInfill,100
;   aboveRaftSpeedMultiplier,0.3
;   useSkirt,1
;   skirtExtruder,0
;   skirtLayers,1
;   skirtOutlines,2
;   skirtOffset,4
;   usePrimePillar,0
;   primePillarExtruder,999
;   primePillarWidth,12
;   primePillarLocation,7
;   primePillarSpeedMultiplier,1
;   useOozeShield,0
;   oozeShieldExtruder,999
;   oozeShieldOffset,2
;   oozeShieldOutlines,1
;   oozeShieldSidewallShape,1
;   oozeShieldSidewallAngle,30
;   oozeShieldSpeedMultiplier,1
;   infillExtruder,0
;   internalInfillPattern,Rectilinear
;   externalInfillPattern,Rectilinear
;   infillPercentage,20
;   outlineOverlapPercentage,30
;   infillExtrusionWidthPercentage,120
;   minInfillLength,5
;   infillLayerInterval,1
;   internalInfillAngles,45,-45
;   overlapInternalInfillAngles,0
;   externalInfillAngles,45,-45
;   generateSupport,0
;   supportExtruder,0
;   supportInfillPercentage,30
;   supportExtraInflation,0
;   supportBaseLayers,0
;   denseSupportExtruder,0
;   denseSupportLayers,0
;   denseSupportInfillPercentage,70
;   supportLayerInterval,1
;   supportHorizontalPartOffset,0.3
;   supportUpperSeparationLayers,1
;   supportLowerSeparationLayers,1
;   supportType,0
;   supportGridSpacing,4
;   maxOverhangAngle,45
;   supportAngles,0
;   temperatureName,Primary Extruder,Heated Bed
;   temperatureNumber,0,1
;   temperatureSetpointCount,1,1
;   temperatureSetpointLayers,1,1
;   temperatureSetpointTemperatures,190,60
;   temperatureStabilizeAtStartup,1,1
;   temperatureHeatedBed,0,1
;   fanLayers,1,2
;   fanSpeeds,0,100
;   blipFanToFullPower,1
;   adjustSpeedForCooling,1
;   minSpeedLayerTime,15
;   minCoolingSpeedSlowdown,20
;   increaseFanForCooling,0
;   minFanLayerTime,60
;   maxCoolingFanSpeed,100
;   increaseFanForBridging,0
;   bridgingFanSpeed,100
;   use5D,1
;   relativeEdistances,0
;   allowEaxisZeroing,1
;   independentExtruderAxes,0
;   includeM10123,0
;   stickySupport,1
;   applyToolheadOffsets,0
;   gcodeXoffset,0
;   gcodeYoffset,0
;   gcodeZoffset,0
;   overrideMachineDefinition,1
;   machineTypeOverride,1
;   strokeXoverride,77
;   strokeYoverride,77
;   strokeZoverride,120
;   originOffsetXoverride,38.5
;   originOffsetYoverride,38.5
;   originOffsetZoverride,0
;   homeXdirOverride,0
;   homeYdirOverride,0
;   homeZdirOverride,1
;   flipXoverride,1
;   flipYoverride,-1
;   flipZoverride,1
;   toolheadOffsets,0,0|0,0|0,0|0,0|0,0|0,0
;   overrideFirmwareConfiguration,1
;   firmwareTypeOverride,RepRap (Marlin/Repetier/Sprinter)
;   GPXconfigOverride,r2
;   baudRateOverride,115200
;   overridePrinterModels,1
;   printerModelsOverride
;   startingGcode,G28 ; start from home position,G1 E-6 F900 ; retract 6mm of filament before starting the bed leveling process,G4 S5 ; pause to allow time for removing any oozing filament,G29 P2 Z0.5 ; auto level bed
;   layerChangeGcode,
;   retractionGcode,
;   toolChangeGcode,
;   endingGcode,M104 S0 ; turn off extruder,M140 S0 ; turn off bed,G91 ; switch to use relative coordinates,G1 E-5 F800 ; retract the filament a bit before lifting the nozzle to release some of the pressure,G1 Z5 ; raise Z 5mm from current position,G90 ; switch back to using absolute coordinates,M84 ; disable motors
;   exportFileFormat,gcode
;   celebration,0
;   celebrationSong,Random Song
;   postProcessing,
;   defaultSpeed,4800
;   outlineUnderspeed,0.35
;   solidInfillUnderspeed,0.6
;   supportUnderspeed,0.8
;   rapidXYspeed,4000
;   rapidZspeed,1000
;   minBridgingArea,50
;   bridgingExtraInflation,0
;   bridgingExtrusionMultiplier,1.05
;   bridgingSpeedMultiplier,1
;   useFixedBridgingAngle,0
;   fixedBridgingAngle,0
;   applyBridgingToPerimeters,0
;   filamentDiameters,1.75|1.75|1.75|1.75|1.75|1.75
;   filamentPricesPerKg,46|46|46|46|46|46
;   filamentDensities,1.25|1.25|1.25|1.25|1.25|1.25
;   useMinPrintHeight,0
;   minPrintHeight,0
;   useMaxPrintHeight,0
;   maxPrintHeight,0
;   useDiaphragm,0
;   diaphragmLayerInterval,20
;   robustSlicing,1
;   mergeAllIntoSolid,0
;   onlyRetractWhenCrossingOutline,1
;   retractBetweenLayers,1
;   useRetractionMinTravel,0
;   retractionMinTravel,3
;   retractWhileWiping,0
;   onlyWipeOutlines,1
;   avoidCrossingOutline,0
;   maxMovementDetourFactor,3
;   toolChangeRetractionDistance,12
;   toolChangeExtraRestartDistance,-0.5
;   toolChangeRetractionSpeed,600
;   externalThinWallType,0
;   internalThinWallType,2
;   thinWallAllowedOverlapPercentage,10
;   singleExtrusionMinLength,1
;   singleExtrusionMinPrintingWidthPercentage,50
;   singleExtrusionMaxPrintingWidthPercentage,200
;   singleExtrusionEndpointExtension,0.2
;   horizontalSizeCompensation,0
G90
M82
M106 S0
M140 S60
M190 S60
M104 S190 T0
M109 S190 T0
G28 ; start from home position
G1 E-6 F900 ; retract 6mm of filament before starting the bed leveling process
G4 S5 ; pause to allow time for removing any oozing filament
G29 P2 Z0.5 ; auto level bed
; process process1
; layer 1, Z = 0.135
T0
G92 E0.0000
G1 E-5.0000 F3600
; feature skirt
; tool H0.135 W0.400
G1 Z0.135 F1000
G1 X17.986 Y-0.993 F4000
G1 E0.0000 F3600
G92 E0.0000
G1 X19.209 Y-3.122 E0.0496 F2400
G1 X21.105 Y-4.227 E0.0939
G1 X21.092 Y-4.256 E0.0946
G1 X20.864 Y-30.140 E0.6176
G1 X12.838 Y-34.632 E0.8034
G1 X12.839 Y-40.026 E0.9124
G1 X16.066 Y-41.832 E0.9871
G1 X16.297 Y-41.945 E0.9923
G1 X17.028 Y-42.252 E1.0084
G1 X17.194 Y-42.315 E1.0119
G1 X17.919 Y-42.556 E1.0274
G1 X18.086 Y-42.605 E1.0309
G1 X18.833 Y-42.792 E1.0465
G1 X18.996 Y-42.827 E1.0498
G1 X19.756 Y-42.960 E1.0654
G1 X19.913 Y-42.982 E1.0686
G1 X20.683 Y-43.062 E1.0843
G1 X20.845 Y-43.074 E1.0875
G1 X21.622 Y-43.100 E1.1033
G1 X21.778 Y-43.100 E1.1064
G1 X22.555 Y-43.074 E1.1221
G1 X22.717 Y-43.062 E1.1254
G1 X23.487 Y-42.982 E1.1410
G1 X23.644 Y-42.960 E1.1442
G1 X24.404 Y-42.827 E1.1598
G1 X24.567 Y-42.792 E1.1632
G1 X25.314 Y-42.605 E1.1788
G1 X25.481 Y-42.556 E1.1823
G1 X26.206 Y-42.315 E1.1977
G1 X26.372 Y-42.252 E1.2013
G1 X27.070 Y-41.959 E1.2166
G1 X27.238 Y-41.880 E1.2203
G1 X27.907 Y-41.532 E1.2356
G1 X28.081 Y-41.432 E1.2396
G1 X28.712 Y-41.032 E1.2547
G1 X28.885 Y-40.910 E1.2590
G1 X29.475 Y-40.454 E1.2741
G1 X29.648 Y-40.306 E1.2787
G1 X30.187 Y-39.795 E1.2937
G1 X30.355 Y-39.619 E1.2986
G1 X30.838 Y-39.054 E1.3136
G1 X30.998 Y-38.844 E1.3190
G1 X31.412 Y-38.229 E1.3339
G1 X31.552 Y-37.992 E1.3395
G1 X31.782 Y-37.542 E1.3497
G1 X32.600 Y-36.724 E1.3731
G1 X32.600 Y-30.750 E1.4938
G1 X31.908 Y-29.419 E1.5241
G1 X32.600 Y-28.089 E1.5544
G1 X32.600 Y0.175 E2.1255
G1 X31.908 Y1.505 E2.1558
G1 X32.600 Y2.836 E2.1861
G1 X32.600 Y11.465 E2.3604
G1 X31.908 Y12.795 E2.3908
G1 X32.600 Y14.126 E2.4211
G1 X32.600 Y21.773 E2.5756
G1 X31.908 Y23.103 E2.6059
G1 X32.600 Y24.434 E2.6362
G1 X32.600 Y32.081 E2.7907
G1 X31.908 Y33.411 E2.8210
G1 X32.600 Y34.742 E2.8513
G1 X32.600 Y42.679 E3.0117
G1 X31.999 Y43.280 E3.0288
G1 X31.892 Y43.529 E3.0343
G1 X31.552 Y44.193 E3.0494
G1 X31.412 Y44.430 E3.0549
G1 X30.998 Y45.045 E3.0699
G1 X30.838 Y45.255 E3.0753
G1 X30.355 Y45.820 E3.0903
G1 X30.187 Y45.996 E3.0952
G1 X29.648 Y46.507 E3.1102
G1 X29.475 Y46.655 E3.1148
G1 X28.885 Y47.111 E3.1299
G1 X28.712 Y47.233 E3.1342
G1 X28.081 Y47.633 E3.1493
G1 X27.910 Y47.732 E3.1532
G1 X27.240 Y48.081 E3.1685
G1 X27.066 Y48.163 E3.1724
G1 X26.367 Y48.455 E3.1877
G1 X26.205 Y48.516 E3.1912
G1 X25.481 Y48.757 E3.2066
G1 X25.314 Y48.806 E3.2101
G1 X24.567 Y48.993 E3.2257
G1 X24.404 Y49.028 E3.2291
G1 X23.644 Y49.161 E3.2447
G1 X23.487 Y49.183 E3.2479
G1 X22.717 Y49.263 E3.2635
G1 X22.555 Y49.275 E3.2668
G1 X21.778 Y49.301 E3.2825
G1 X21.622 Y49.301 E3.2856
G1 X20.845 Y49.275 E3.3013
G1 X20.683 Y49.263 E3.3046
G1 X19.913 Y49.183 E3.3203
G1 X19.756 Y49.161 E3.3235
G1 X18.996 Y49.028 E3.3391
G1 X18.833 Y48.993 E3.3424
G1 X18.086 Y48.806 E3.3580
G1 X17.919 Y48.757 E3.3615
G1 X17.195 Y48.516 E3.3769
G1 X17.033 Y48.455 E3.3804
G1 X16.334 Y48.163 E3.3957
G1 X16.160 Y48.081 E3.3996
G1 X15.490 Y47.732 E3.4149
G1 X15.319 Y47.633 E3.4189
G1 X14.688 Y47.233 E3.4340
G1 X14.515 Y47.111 E3.4383
G1 X13.925 Y46.655 E3.4533
G1 X13.752 Y46.507 E3.4579
G1 X13.213 Y45.996 E3.4729
G1 X13.045 Y45.820 E3.4778
G1 X12.562 Y45.255 E3.4929
G1 X12.402 Y45.045 E3.4982
G1 X11.977 Y44.414 E3.5136
G1 X11.820 Y44.143 E3.5199
G1 X10.394 Y41.239 E3.5853
G1 X13.094 Y36.903 E3.6885
G1 X17.986 Y36.903 E3.7873
G1 X17.986 Y-0.993 E4.5530
G92 E0.0000
G1 E-5.0000 F3600
G1 Z0.235 F1000
G1 X18.386 Y-0.887 F4000
G1 Z0.135 F1000
G1 E0.0000 F3600
G92 E0.0000
G1 X19.503 Y-2.830 E0.0453 F2400
G1 X21.609 Y-4.058 E0.0946
G1 X21.492 Y-4.338 E0.1007
G1 X21.262 Y-30.376 E0.6268
G1 X13.238 Y-34.867 E0.8126
G1 X13.239 Y-39.792 E0.9121
G1 X16.252 Y-41.478 E0.9819
G1 X16.463 Y-41.581 E0.9866
G1 X17.176 Y-41.881 E1.0023
G1 X17.327 Y-41.938 E1.0055
G1 X18.038 Y-42.174 E1.0207
G1 X18.190 Y-42.219 E1.0239
G1 X18.923 Y-42.402 E1.0391
G1 X19.072 Y-42.434 E1.0422
G1 X19.818 Y-42.565 E1.0575
G1 X19.962 Y-42.585 E1.0604
G1 X20.718 Y-42.664 E1.0758
G1 X20.865 Y-42.674 E1.0788
G1 X21.629 Y-42.700 E1.0942
G1 X21.771 Y-42.700 E1.0971
G1 X22.535 Y-42.674 E1.1125
G1 X22.682 Y-42.664 E1.1155
G1 X23.438 Y-42.585 E1.1309
G1 X23.582 Y-42.565 E1.1338
G1 X24.328 Y-42.434 E1.1491
G1 X24.477 Y-42.402 E1.1522
G1 X25.210 Y-42.218 E1.1675
G1 X25.362 Y-42.174 E1.1707
G1 X26.073 Y-41.938 E1.1858
G1 X26.224 Y-41.881 E1.1891
G1 X26.907 Y-41.593 E1.2040
G1 X27.061 Y-41.521 E1.2075
G1 X27.715 Y-41.181 E1.2224
G1 X27.874 Y-41.090 E1.2261
G1 X28.489 Y-40.699 E1.2408
G1 X28.648 Y-40.587 E1.2447
G1 X29.222 Y-40.143 E1.2594
G1 X29.380 Y-40.008 E1.2636
G1 X29.905 Y-39.512 E1.2782
G1 X30.058 Y-39.351 E1.2827
G1 X30.527 Y-38.803 E1.2972
G1 X30.672 Y-38.611 E1.3021
G1 X31.074 Y-38.015 E1.3166
G1 X31.201 Y-37.799 E1.3217
G1 X31.455 Y-37.304 E1.3329
G1 X32.200 Y-36.559 E1.3542
G1 X32.200 Y-30.848 E1.4696
G1 X31.457 Y-29.419 E1.5022
G1 X32.200 Y-27.991 E1.5347
G1 X32.200 Y0.077 E2.1018
G1 X31.457 Y1.505 E2.1344
G1 X32.200 Y2.934 E2.1669
G1 X32.200 Y11.367 E2.3373
G1 X31.457 Y12.795 E2.3698
G1 X32.200 Y14.224 E2.4024
G1 X32.200 Y21.675 E2.5529
G1 X31.457 Y23.103 E2.5854
G1 X32.200 Y24.532 E2.6180
G1 X32.200 Y31.983 E2.7685
G1 X31.457 Y33.411 E2.8011
G1 X32.200 Y34.840 E2.8336
G1 X32.200 Y42.514 E2.9887
G1 X31.656 Y43.057 E3.0042
G1 X31.639 Y43.105 E3.0052
G1 X31.530 Y43.358 E3.0108
G1 X31.201 Y44.000 E3.0254
G1 X31.074 Y44.216 E3.0304
G1 X30.672 Y44.812 E3.0449
G1 X30.527 Y45.004 E3.0498
G1 X30.058 Y45.552 E3.0644
G1 X29.905 Y45.713 E3.0689
G1 X29.380 Y46.209 E3.0835
G1 X29.222 Y46.344 E3.0877
G1 X28.648 Y46.788 E3.1023
G1 X28.489 Y46.900 E3.1063
G1 X27.874 Y47.291 E3.1210
G1 X27.718 Y47.381 E3.1246
G1 X27.063 Y47.722 E3.1395
G1 X26.904 Y47.797 E3.1431
G1 X26.220 Y48.084 E3.1581
G1 X26.071 Y48.139 E3.1613
G1 X25.362 Y48.375 E3.1764
G1 X25.210 Y48.419 E3.1796
G1 X24.477 Y48.603 E3.1949
G1 X24.328 Y48.635 E3.1979
G1 X23.582 Y48.766 E3.2132
G1 X23.439 Y48.786 E3.2162
G1 X22.682 Y48.865 E3.2315
G1 X22.535 Y48.875 E3.2345
G1 X21.771 Y48.901 E3.2500
G1 X21.629 Y48.901 E3.2528
G1 X20.865 Y48.875 E3.2683
G1 X20.718 Y48.865 E3.2713
G1 X19.961 Y48.786 E3.2866
G1 X19.818 Y48.766 E3.2895
G1 X19.072 Y48.635 E3.3048
G1 X18.923 Y48.603 E3.3079
G1 X18.190 Y48.419 E3.3232
G1 X18.038 Y48.375 E3.3264
G1 X17.329 Y48.139 E3.3415
G1 X17.180 Y48.083 E3.3447
G1 X16.496 Y47.797 E3.3597
G1 X16.337 Y47.722 E3.3632
G1 X15.682 Y47.381 E3.3782
G1 X15.526 Y47.291 E3.3818
G1 X14.911 Y46.900 E3.3965
G1 X14.752 Y46.789 E3.4005
G1 X14.178 Y46.345 E3.4151
G1 X14.020 Y46.209 E3.4193
G1 X13.495 Y45.713 E3.4339
G1 X13.342 Y45.552 E3.4384
G1 X12.873 Y45.004 E3.4530
G1 X12.728 Y44.812 E3.4578
G1 X12.317 Y44.202 E3.4727
G1 X12.173 Y43.954 E3.4785
G1 X10.851 Y41.262 E3.5391
G1 X13.316 Y37.303 E3.6333
G1 X18.386 Y37.303 E3.7358
G1 X18.386 Y-0.887 E4.5074
G92 E0.0000
G1 E-5.0000 F3600
G1 Z0.235 F1000
G1 X-19.024 Y0.650 F4000
G1 Z0.135 F1000
G1 E0.0000 F3600
G92 E0.0000
G1 X-19.024 Y36.903 E0.7325 F2400
G1 X-13.188 Y36.903 E0.8504
G1 X-10.496 Y41.297 E0.9545
G1 X-11.845 Y43.943 E1.0146
G1 X-11.989 Y44.187 E1.0203
G1 X-12.406 Y44.804 E1.0353
G1 X-12.563 Y45.010 E1.0406
G1 X-13.045 Y45.574 E1.0556
G1 X-13.213 Y45.750 E1.0605
G1 X-13.751 Y46.259 E1.0754
G1 X-13.921 Y46.406 E1.0800
G1 X-14.510 Y46.863 E1.0950
G1 X-14.687 Y46.987 E1.0994
G1 X-15.321 Y47.389 E1.1146
G1 X-15.495 Y47.489 E1.1186
G1 X-16.163 Y47.836 E1.1338
G1 X-16.331 Y47.915 E1.1376
G1 X-17.029 Y48.209 E1.1529
G1 X-17.199 Y48.273 E1.1566
G1 X-17.924 Y48.513 E1.1720
G1 X-18.087 Y48.560 E1.1754
G1 X-18.831 Y48.747 E1.1909
G1 X-18.990 Y48.781 E1.1942
G1 X-19.752 Y48.915 E1.2099
G1 X-19.917 Y48.938 E1.2132
G1 X-20.687 Y49.018 E1.2289
G1 X-20.841 Y49.028 E1.2320
G1 X-21.618 Y49.056 E1.2477
G1 X-21.782 Y49.056 E1.2510
G1 X-22.558 Y49.028 E1.2667
G1 X-22.711 Y49.018 E1.2698
G1 X-23.483 Y48.938 E1.2855
G1 X-23.647 Y48.915 E1.2888
G1 X-24.410 Y48.781 E1.3045
G1 X-24.569 Y48.747 E1.3078
G1 X-25.313 Y48.560 E1.3232
G1 X-25.476 Y48.513 E1.3267
G1 X-26.201 Y48.273 E1.3421
G1 X-26.371 Y48.209 E1.3458
G1 X-27.070 Y47.915 E1.3611
G1 X-27.240 Y47.835 E1.3649
G1 X-27.906 Y47.489 E1.3801
G1 X-28.076 Y47.391 E1.3840
G1 X-28.710 Y46.989 E1.3992
G1 X-28.889 Y46.863 E1.4036
G1 X-29.479 Y46.405 E1.4187
G1 X-29.649 Y46.259 E1.4232
G1 X-30.187 Y45.750 E1.4382
G1 X-30.355 Y45.574 E1.4431
G1 X-30.838 Y45.009 E1.4581
G1 X-30.998 Y44.799 E1.4635
G1 X-31.413 Y44.182 E1.4785
G1 X-31.555 Y43.941 E1.4841
G1 X-31.780 Y43.499 E1.4942
G1 X-32.600 Y42.679 E1.5176
G1 X-32.600 Y34.497 E1.6829
G1 X-32.035 Y33.411 E1.7077
G1 X-32.600 Y32.326 E1.7324
G1 X-32.600 Y24.189 E1.8968
G1 X-32.035 Y23.103 E1.9215
G1 X-32.600 Y22.018 E1.9462
G1 X-32.600 Y13.881 E2.1106
G1 X-32.035 Y12.795 E2.1354
G1 X-32.600 Y11.710 E2.1601
G1 X-32.600 Y2.591 E2.3443
G1 X-32.256 Y1.929 E2.3594
G1 X-33.127 Y1.319 E2.3809
G1 X-28.475 Y-6.088 E2.5576
G1 X-20.287 Y-1.505 E2.7472
G1 X-19.024 Y0.650 E2.7977
G92 E0.0000
G1 E-5.0000 F3600
G1 Z0.235 F1000
G1 X-19.424 Y0.759 F4000
G1 Z0.135 F1000
G1 E0.0000 F3600
G92 E0.0000
G1 X-19.424 Y37.303 E0.7384 F2400
G1 X-13.412 Y37.303 E0.8599
G1 X-10.954 Y41.315 E0.9549
G1 X-12.196 Y43.751 E1.0102
G1 X-12.327 Y43.973 E1.0154
G1 X-12.731 Y44.570 E1.0300
G1 X-12.874 Y44.759 E1.0348
G1 X-13.342 Y45.306 E1.0493
G1 X-13.495 Y45.467 E1.0538
G1 X-14.019 Y45.962 E1.0683
G1 X-14.174 Y46.095 E1.0725
G1 X-14.748 Y46.541 E1.0872
G1 X-14.909 Y46.654 E1.0912
G1 X-15.528 Y47.047 E1.1060
G1 X-15.687 Y47.138 E1.1097
G1 X-16.340 Y47.478 E1.1245
G1 X-16.493 Y47.549 E1.1279
G1 X-17.177 Y47.837 E1.1429
G1 X-17.332 Y47.895 E1.1463
G1 X-18.043 Y48.131 E1.1614
G1 X-18.192 Y48.174 E1.1646
G1 X-18.921 Y48.357 E1.1797
G1 X-19.067 Y48.388 E1.1828
G1 X-19.815 Y48.520 E1.1981
G1 X-19.965 Y48.541 E1.2012
G1 X-20.721 Y48.619 E1.2165
G1 X-20.862 Y48.629 E1.2194
G1 X-21.625 Y48.656 E1.2348
G1 X-21.775 Y48.656 E1.2378
G1 X-22.537 Y48.629 E1.2532
G1 X-22.677 Y48.619 E1.2561
G1 X-23.435 Y48.541 E1.2715
