; G-Code generated by Simplify3D(R) Version 4.1.2
; Aug 8, 2023 at 10:39:14 PM
; Settings Summary
;   processName,process1
;   applyToModels,DN-Badge-Face-version-8.6.8
;   profileName,Default (modified)
;   profileVersion,2021-09-04 16:52:40
;   baseProfile,Monoprice Mini Delta (modified)
;   printMaterial,PLA
;   printQuality,Medium
;   printExtruders,
;   extruderName,Primary Extruder
;   extruderToolheadNumber,0
;   extruderDiameter,0.4
;   extruderAutoWidth,0
;   extruderWidth,0.4
;   extrusionMultiplier,0.9
;   extruderUseRetract,1
;   extruderRetractionDistance,5
;   extruderExtraRestartDistance,0
;   extruderRetractionZLift,0.1
;   extruderRetractionSpeed,3600
;   extruderUseCoasting,0
;   extruderCoastingDistance,1
;   extruderUseWipe,0
;   extruderWipeDistance,5
;   primaryExtruder,0
;   layerHeight,0.15
;   topSolidLayers,3
;   bottomSolidLayers,3
;   perimeterOutlines,2
;   printPerimetersInsideOut,1
;   startPointOption,2
;   startPointOriginX,0
;   startPointOriginY,0
;   sequentialIslands,0
;   spiralVaseMode,0
;   firstLayerHeightPercentage,90
;   firstLayerWidthPercentage,100
;   firstLayerUnderspeed,0.5
;   useRaft,0
;   raftExtruder,0
;   raftTopLayers,3
;   raftBaseLayers,2
;   raftOffset,3
;   raftSeparationDistance,0.14
;   raftTopInfill,100
;   aboveRaftSpeedMultiplier,0.3
;   useSkirt,1
;   skirtExtruder,0
;   skirtLayers,1
;   skirtOutlines,2
;   skirtOffset,4
;   usePrimePillar,0
;   primePillarExtruder,999
;   primePillarWidth,12
;   primePillarLocation,7
;   primePillarSpeedMultiplier,1
;   useOozeShield,0
;   oozeShieldExtruder,999
;   oozeShieldOffset,2
;   oozeShieldOutlines,1
;   oozeShieldSidewallShape,1
;   oozeShieldSidewallAngle,30
;   oozeShieldSpeedMultiplier,1
;   infillExtruder,0
;   internalInfillPattern,Rectilinear
;   externalInfillPattern,Rectilinear
;   infillPercentage,20
;   outlineOverlapPercentage,30
;   infillExtrusionWidthPercentage,120
;   minInfillLength,5
;   infillLayerInterval,1
;   internalInfillAngles,45,-45
;   overlapInternalInfillAngles,0
;   externalInfillAngles,45,-45
;   generateSupport,0
;   supportExtruder,0
;   supportInfillPercentage,30
;   supportExtraInflation,0
;   supportBaseLayers,0
;   denseSupportExtruder,0
;   denseSupportLayers,0
;   denseSupportInfillPercentage,70
;   supportLayerInterval,1
;   supportHorizontalPartOffset,0.3
;   supportUpperSeparationLayers,1
;   supportLowerSeparationLayers,1
;   supportType,0
;   supportGridSpacing,4
;   maxOverhangAngle,45
;   supportAngles,0
;   temperatureName,Primary Extruder,Heated Bed
;   temperatureNumber,0,1
;   temperatureSetpointCount,1,1
;   temperatureSetpointLayers,1,1
;   temperatureSetpointTemperatures,190,60
;   temperatureStabilizeAtStartup,1,1
;   temperatureHeatedBed,0,1
;   fanLayers,1,2
;   fanSpeeds,0,100
;   blipFanToFullPower,1
;   adjustSpeedForCooling,1
;   minSpeedLayerTime,15
;   minCoolingSpeedSlowdown,20
;   increaseFanForCooling,0
;   minFanLayerTime,60
;   maxCoolingFanSpeed,100
;   increaseFanForBridging,0
;   bridgingFanSpeed,100
;   use5D,1
;   relativeEdistances,0
;   allowEaxisZeroing,1
;   independentExtruderAxes,0
;   includeM10123,0
;   stickySupport,1
;   applyToolheadOffsets,0
;   gcodeXoffset,0
;   gcodeYoffset,0
;   gcodeZoffset,0
;   overrideMachineDefinition,1
;   machineTypeOverride,1
;   strokeXoverride,77
;   strokeYoverride,77
;   strokeZoverride,120
;   originOffsetXoverride,38.5
;   originOffsetYoverride,38.5
;   originOffsetZoverride,0
;   homeXdirOverride,0
;   homeYdirOverride,0
;   homeZdirOverride,1
;   flipXoverride,1
;   flipYoverride,-1
;   flipZoverride,1
;   toolheadOffsets,0,0|0,0|0,0|0,0|0,0|0,0
;   overrideFirmwareConfiguration,1
;   firmwareTypeOverride,RepRap (Marlin/Repetier/Sprinter)
;   GPXconfigOverride,r2
;   baudRateOverride,115200
;   overridePrinterModels,1
;   printerModelsOverride
;   startingGcode,G28 ; start from home position,G1 E-6 F900 ; retract 6mm of filament before starting the bed leveling process,G4 S5 ; pause to allow time for removing any oozing filament,G29 P2 Z0.5 ; auto level bed
;   layerChangeGcode,
;   retractionGcode,
;   toolChangeGcode,
;   endingGcode,M104 S0 ; turn off extruder,M140 S0 ; turn off bed,G91 ; switch to use relative coordinates,G1 E-5 F800 ; retract the filament a bit before lifting the nozzle to release some of the pressure,G1 Z5 ; raise Z 5mm from current position,G90 ; switch back to using absolute coordinates,M84 ; disable motors
;   exportFileFormat,gcode
;   celebration,0
;   celebrationSong,Random Song
;   postProcessing,
;   defaultSpeed,4800
;   outlineUnderspeed,0.35
;   solidInfillUnderspeed,0.6
;   supportUnderspeed,0.8
;   rapidXYspeed,4000
;   rapidZspeed,1000
;   minBridgingArea,50
;   bridgingExtraInflation,0
;   bridgingExtrusionMultiplier,1.05
;   bridgingSpeedMultiplier,1
;   useFixedBridgingAngle,0
;   fixedBridgingAngle,0
;   applyBridgingToPerimeters,0
;   filamentDiameters,1.75|1.75|1.75|1.75|1.75|1.75
;   filamentPricesPerKg,46|46|46|46|46|46
;   filamentDensities,1.25|1.25|1.25|1.25|1.25|1.25
;   useMinPrintHeight,0
;   minPrintHeight,0
;   useMaxPrintHeight,0
;   maxPrintHeight,0
;   useDiaphragm,0
;   diaphragmLayerInterval,20
;   robustSlicing,1
;   mergeAllIntoSolid,0
;   onlyRetractWhenCrossingOutline,1
;   retractBetweenLayers,1
;   useRetractionMinTravel,0
;   retractionMinTravel,3
;   retractWhileWiping,0
;   onlyWipeOutlines,1
;   avoidCrossingOutline,0
;   maxMovementDetourFactor,3
;   toolChangeRetractionDistance,12
;   toolChangeExtraRestartDistance,-0.5
;   toolChangeRetractionSpeed,600
;   externalThinWallType,0
;   internalThinWallType,2
;   thinWallAllowedOverlapPercentage,10
;   singleExtrusionMinLength,1
;   singleExtrusionMinPrintingWidthPercentage,50
;   singleExtrusionMaxPrintingWidthPercentage,200
;   singleExtrusionEndpointExtension,0.2
;   horizontalSizeCompensation,0
G90
M82
M106 S0
M140 S60
M190 S60
M104 S190 T0
M109 S190 T0
G28 ; start from home position
G1 E-6 F900 ; retract 6mm of filament before starting the bed leveling process
G4 S5 ; pause to allow time for removing any oozing filament
G29 P2 Z0.5 ; auto level bed
; process process1
; layer 1, Z = 0.135
T0
G92 E0.0000
G1 E-5.0000 F3600
; feature skirt
; tool H0.135 W0.400
G1 Z0.135 F1000
G1 X26.436 Y1.594 F4000
G1 E0.0000 F3600
G92 E0.0000
G1 X26.436 Y40.405 E0.7842 F2400
G1 X23.741 Y43.100 E0.8612
G1 X-26.275 Y43.100 E1.8718
G1 X-28.970 Y40.405 E1.9488
G1 X-28.970 Y-0.124 E2.7677
G1 X-30.886 Y-1.240 E2.8125
G1 X-32.111 Y-3.393 E2.8626
G1 X-31.813 Y-37.129 E3.5442
G1 X-30.551 Y-39.259 E3.5943
G1 X-19.558 Y-45.413 E3.8488
G1 X-18.201 Y-44.617 E3.8806
G1 X-11.154 Y-44.617 E4.0230
G1 X-9.045 Y-43.423 E4.0720
G1 X-3.149 Y-33.598 E4.3035
G1 X1.149 Y-33.598 E4.3903
G1 X7.044 Y-43.423 E4.6219
G1 X9.153 Y-44.617 E4.6708
G1 X20.149 Y-44.617 E4.8930
G1 X21.327 Y-44.299 E4.9177
G1 X30.886 Y-38.728 E5.1412
G1 X32.111 Y-36.575 E5.1913
G1 X31.814 Y-2.840 E5.8729
G1 X30.552 Y-0.710 E5.9229
G1 X26.436 Y1.594 E6.0183
G92 E0.0000
G1 E-5.0000 F3600
G1 Z0.235 F1000
G1 X26.036 Y1.360 F4000
G1 Z0.135 F1000
G1 E0.0000 F3600
G92 E0.0000
G1 X26.036 Y40.240 E0.7856 F2400
G1 X23.576 Y42.700 E0.8559
G1 X-26.110 Y42.700 E1.8598
G1 X-28.570 Y40.240 E1.9301
G1 X-28.570 Y-0.353 E2.7503
G1 X-30.592 Y-1.532 E2.7976
G1 X-31.710 Y-3.497 E2.8433
G1 X-31.414 Y-37.017 E3.5206
G1 X-30.262 Y-38.963 E3.5663
G1 X-19.563 Y-44.952 E3.8140
G1 X-18.310 Y-44.217 E3.8434
G1 X-11.260 Y-44.217 E3.9858
G1 X-9.334 Y-43.127 E4.0305
G1 X-3.376 Y-33.198 E4.2645
G1 X1.375 Y-33.198 E4.3605
G1 X7.333 Y-43.127 E4.5945
G1 X9.259 Y-44.217 E4.6392
G1 X20.096 Y-44.217 E4.8582
G1 X21.172 Y-43.926 E4.8807
G1 X30.592 Y-38.436 E5.1010
G1 X31.710 Y-36.471 E5.1467
G1 X31.415 Y-2.952 E5.8240
G1 X30.263 Y-1.006 E5.8697
G1 X26.036 Y1.360 E5.9675
G92 E0.0000
G1 E-5.0000 F3600
; feature inner perimeter
G1 Z0.235 F1000
G1 X21.236 Y-1.454 F4000
G1 Z0.135 F1000
G1 E0.0000 F3600
G92 E0.0000
G1 X21.236 Y34.578 E0.7281 F1620
G1 X20.501 Y34.017 E0.7467
G1 X19.928 Y33.880 E0.7586
G1 X19.355 Y34.017 E0.7705
G1 X18.896 Y34.368 E0.7822
G1 X18.574 Y34.848 E0.7939
G1 X18.385 Y35.406 E0.8058
G1 X18.323 Y35.999 E0.8178
G1 X18.385 Y36.593 E0.8299
G1 X18.574 Y37.151 E0.8418
G1 X19.075 Y37.900 E0.8600
G1 X-21.057 Y37.900 E1.6709
G1 X-20.711 Y37.337 E1.6843
G1 X-20.528 Y36.752 E1.6966
G1 X-20.466 Y36.128 E1.7093
G1 X-20.528 Y35.504 E1.7220
G1 X-20.711 Y34.918 E1.7344
G1 X-21.024 Y34.410 E1.7464
G1 X-21.482 Y34.030 E1.7585
G1 X-22.072 Y33.877 E1.7708
G1 X-22.662 Y34.030 E1.7831
G1 X-23.120 Y34.410 E1.7951
G1 X-23.508 Y35.040 E1.8101
G1 X-23.770 Y34.965 E1.8156
G1 X-23.770 Y-3.112 E2.5849
G1 X-26.271 Y-4.569 E2.6434
G1 X-25.482 Y-4.773 E2.6599
G1 X-25.024 Y-5.154 E2.6719
G1 X-24.711 Y-5.663 E2.6840
G1 X-24.528 Y-6.248 E2.6964
G1 X-24.466 Y-6.872 E2.7091
G1 X-24.528 Y-7.496 E2.7217
G1 X-24.711 Y-8.082 E2.7341
G1 X-25.024 Y-8.590 E2.7462
G1 X-25.482 Y-8.970 E2.7582
G1 X-26.072 Y-9.123 E2.7705
G1 X-26.862 Y-8.919 E2.7870
G1 X-26.627 Y-35.496 E3.3241
G1 X-21.859 Y-38.165 E3.4345
G1 X-21.666 Y-37.964 E3.4401
G1 X-21.940 Y-37.521 E3.4506
G1 X-22.044 Y-36.927 E3.4628
G1 X-21.900 Y-36.341 E3.4750
G1 X-21.548 Y-35.853 E3.4872
G1 X-21.056 Y-35.505 E3.4993
G1 X-20.482 Y-35.305 E3.5116
G1 X-19.868 Y-35.252 E3.5241
G1 X-19.259 Y-35.347 E3.5365
G1 X-18.693 Y-35.592 E3.5490
G1 X-18.227 Y-35.979 E3.5612
G1 X-17.918 Y-36.480 E3.5731
G1 X-17.814 Y-37.074 E3.5853
G1 X-17.958 Y-37.660 E3.5975
G1 X-18.310 Y-38.148 E3.6096
G1 X-18.802 Y-38.496 E3.6218
G1 X-19.377 Y-38.696 E3.6341
G1 X-19.990 Y-38.749 E3.6466
G1 X-20.295 Y-38.701 E3.6528
G1 X-20.393 Y-38.986 E3.6589
G1 X-19.623 Y-39.417 E3.6767
G1 X-12.706 Y-39.417 E3.8165
G1 X-6.093 Y-28.398 E4.0761
G1 X4.093 Y-28.398 E4.2819
G1 X10.705 Y-39.417 E4.5416
G1 X19.376 Y-39.417 E4.7168
G1 X26.897 Y-35.034 E4.8927
G1 X26.628 Y-4.472 E5.5102
G1 X21.236 Y-1.454 E5.6351
G92 E0.0000
G1 E-5.0000 F3600
G1 Z0.235 F1000
G1 X-23.508 Y37.216 F4000
G1 Z0.135 F1000
G1 E0.0000 F3600
G92 E0.0000
G1 X-23.087 Y37.900 E0.0162 F1620
G1 X-23.770 Y37.900 E0.0300
G1 X-23.770 Y37.290 E0.0423
G1 X-23.508 Y37.216 E0.0478
; feature outer perimeter
G1 X-24.170 Y38.300 F4000
G92 E0.0000
G1 X-24.170 Y-2.882 E0.8321 F840
G1 X-27.299 Y-4.705 E0.9053
G1 X-27.025 Y-35.732 E1.5322
G1 X-19.727 Y-39.817 E1.7012
G1 X-12.479 Y-39.817 E1.8476
G1 X-5.867 Y-28.798 E2.1073
G1 X3.866 Y-28.798 E2.3040
G1 X10.478 Y-39.817 E2.5636
G1 X19.484 Y-39.817 E2.7456
G1 X27.299 Y-35.263 E2.9284
G1 X27.026 Y-4.237 E3.5553
G1 X21.636 Y-1.220 E3.6801
G1 X21.636 Y38.300 E4.4786
G1 X-24.170 Y38.300 E5.4041
G1 X-22.813 Y37.582 F4000
G92 E0.0000
G1 X-22.464 Y37.865 E0.0091 F840
G1 X-22.072 Y37.966 E0.0173
G1 X-21.669 Y37.862 E0.0257
G1 X-21.330 Y37.581 E0.0346
G1 X-21.078 Y37.170 E0.0443
G1 X-20.922 Y36.672 E0.0549
G1 X-20.868 Y36.128 E0.0659
G1 X-20.922 Y35.584 E0.0770
G1 X-21.078 Y35.085 E0.0875
G1 X-21.330 Y34.676 E0.0972
G1 X-21.669 Y34.395 E0.1061
G1 X-22.072 Y34.290 E0.1146
G1 X-22.475 Y34.395 E0.1230
G1 X-22.814 Y34.676 E0.1319
G1 X-23.066 Y35.085 E0.1416
G1 X-23.222 Y35.584 E0.1521
G1 X-23.276 Y36.128 E0.1632
G1 X-23.222 Y36.672 E0.1742
G1 X-23.066 Y37.170 E0.1848
G1 X-22.813 Y37.582 E0.1945
G92 E0.0000
G1 E-5.0000 F3600
; feature inner perimeter
G1 Z0.235 F1000
G1 X-22.750 Y31.894 F4000
G1 Z0.135 F1000
G1 E0.0000 F3600
G92 E0.0000
G1 X-7.546 Y31.894 E0.3072 F1620
G1 X-7.546 Y30.686 E0.3316
G1 X-7.470 Y30.686 E0.3331
G1 X-7.470 Y17.031 E0.6091
G1 X-7.546 Y17.031 E0.6106
G1 X-7.546 Y16.692 E0.6174
G1 X-22.750 Y16.692 E0.9246
G1 X-22.750 Y31.894 E1.2318
; feature outer perimeter
G1 X-22.350 Y31.494 F4000
G92 E0.0000
G1 X-7.946 Y31.494 E0.2910 F840
G1 X-7.946 Y30.286 E0.3154
G1 X-7.870 Y30.286 E0.3170
G1 X-7.870 Y17.431 E0.5767
G1 X-7.946 Y17.431 E0.5783
G1 X-7.946 Y17.092 E0.5851
G1 X-22.350 Y17.092 E0.8762
G1 X-22.350 Y31.494 E1.1672
G92 E0.0000
G1 E-5.0000 F3600
; feature inner perimeter
G1 Z0.235 F1000
G1 X-4.211 Y22.608 F4000
G1 Z0.135 F1000
G1 E0.0000 F3600
G92 E0.0000
G1 X19.531 Y22.608 E0.4797 F1620
G1 X19.531 Y-11.086 E1.1605
G1 X-4.211 Y-11.086 E1.6402
G1 X-4.211 Y22.608 E2.3210
; feature outer perimeter
G1 X-3.811 Y22.208 F4000
G92 E0.0000
G1 X19.131 Y22.208 E0.4636 F840
G1 X19.131 Y-10.686 E1.1282
G1 X-3.811 Y-10.686 E1.5918
G1 X-3.811 Y22.208 E2.2564
G1 X18.936 Y35.027 F4000
G92 E0.0000
G1 X18.778 Y35.492 E0.0099 F840
G1 X18.725 Y35.999 E0.0202
G1 X18.778 Y36.507 E0.0305
G1 X18.936 Y36.972 E0.0405
G1 X19.191 Y37.354 E0.0497
G1 X19.530 Y37.613 E0.0584
G1 X19.928 Y37.708 E0.0666
G1 X20.326 Y37.613 E0.0749
G1 X20.665 Y37.354 E0.0835
G1 X20.920 Y36.972 E0.0928
G1 X21.078 Y36.507 E0.1027
G1 X21.132 Y35.999 E0.1130
G1 X21.077 Y35.492 E0.1233
G1 X20.920 Y35.027 E0.1333
G1 X20.665 Y34.645 E0.1425
G1 X20.326 Y34.386 E0.1512
G1 X19.928 Y34.291 E0.1594
G1 X19.530 Y34.386 E0.1677
G1 X19.191 Y34.645 E0.1763
G1 X18.936 Y35.027 E0.1856
G92 E0.0000
G1 E-5.0000 F3600
; feature inner perimeter
G1 Z0.235 F1000
G1 X22.928 Y-3.881 F4000
G1 Z0.135 F1000
G1 E0.0000 F3600
G92 E0.0000
G1 X23.501 Y-4.018 E0.0119 F1620
G1 X23.960 Y-4.369 E0.0236
G1 X24.282 Y-4.849 E0.0353
G1 X24.470 Y-5.406 E0.0471
G1 X24.534 Y-6.001 E0.0592
G1 X24.470 Y-6.595 E0.0713
G1 X24.282 Y-7.152 E0.0832
G1 X23.960 Y-7.632 E0.0949
G1 X23.501 Y-7.983 E0.1065
G1 X22.928 Y-8.120 E0.1184
G1 X22.355 Y-7.983 E0.1303
G1 X21.896 Y-7.632 E0.1420
G1 X21.574 Y-7.152 E0.1537
G1 X21.385 Y-6.594 E0.1656
G1 X21.323 Y-6.001 E0.1777
G1 X21.385 Y-5.407 E0.1897
G1 X21.574 Y-4.849 E0.2016
G1 X21.896 Y-4.369 E0.2133
G1 X22.355 Y-4.018 E0.2250
G1 X22.928 Y-3.881 E0.2369
; feature outer perimeter
G1 X22.928 Y-4.292 F4000
G92 E0.0000
G1 X23.326 Y-4.387 E0.0083 F840
G1 X23.665 Y-4.646 E0.0169
G1 X23.920 Y-5.028 E0.0262
G1 X24.078 Y-5.493 E0.0361
G1 X24.132 Y-6.001 E0.0464
G1 X24.077 Y-6.508 E0.0567
G1 X23.920 Y-6.973 E0.0666
G1 X23.665 Y-7.355 E0.0759
G1 X23.326 Y-7.614 E0.0845
G1 X22.928 Y-7.709 E0.0928
G1 X22.530 Y-7.614 E0.1011
G1 X22.191 Y-7.355 E0.1097
G1 X21.936 Y-6.973 E0.1189
G1 X21.778 Y-6.508 E0.1289
G1 X21.725 Y-6.001 E0.1392
G1 X21.778 Y-5.493 E0.1495
G1 X21.936 Y-5.028 E0.1594
G1 X22.191 Y-4.646 E0.1687
G1 X22.530 Y-4.387 E0.1773
G1 X22.928 Y-4.292 E0.1856
G92 E0.0000
G1 E-5.0000 F3600
; feature inner perimeter
G1 Z0.235 F1000
G1 X22.459 Y-33.007 F4000
G1 Z0.135 F1000
G1 E0.0000 F3600
G92 E0.0000
G1 X23.019 Y-33.184 E0.0119 F1620
G1 X23.440 Y-33.595 E0.0238
G1 X23.654 Y-34.134 E0.0355
G1 X23.680 Y-34.711 E0.0472
G1 X23.556 Y-35.286 E0.0590
G1 X23.303 Y-35.827 E0.0711
G1 X22.944 Y-36.303 E0.0831
G1 X22.522 Y-36.661 E0.0943
G1 X21.978 Y-36.930 E0.1066
G1 X21.397 Y-36.994 E0.1184
G1 X20.837 Y-36.817 E0.1303
G1 X20.416 Y-36.406 E0.1421
G1 X20.202 Y-35.867 E0.1539
G1 X20.176 Y-35.290 E0.1655
G1 X20.300 Y-34.715 E0.1774
G1 X20.553 Y-34.174 E0.1895
G1 X20.912 Y-33.698 E0.2015
G1 X21.360 Y-33.317 E0.2134
G1 X21.884 Y-33.071 E0.2251
G1 X22.459 Y-33.007 E0.2368
; feature outer perimeter
G1 X22.419 Y-33.414 F4000
G92 E0.0000
G1 X22.808 Y-33.537 E0.0082 F840
G1 X23.099 Y-33.822 E0.0165
G1 X23.257 Y-34.219 E0.0251
G1 X23.278 Y-34.678 E0.0344
G1 X23.175 Y-35.157 E0.0443
G1 X22.958 Y-35.620 E0.0546
G1 X22.651 Y-36.027 E0.0649
G1 X22.301 Y-36.324 E0.0742
G1 X21.864 Y-36.540 E0.0841
G1 X21.437 Y-36.587 E0.0927
G1 X21.048 Y-36.464 E0.1010
G1 X20.757 Y-36.179 E0.1092
G1 X20.599 Y-35.782 E0.1179
G1 X20.578 Y-35.323 E0.1271
G1 X20.681 Y-34.844 E0.1370
G1 X20.898 Y-34.381 E0.1474
G1 X21.205 Y-33.974 E0.1577
G1 X21.579 Y-33.656 E0.1676
G1 X21.994 Y-33.461 E0.1769
G1 X22.419 Y-33.414 E0.1855
G92 E0.0000
G1 E-5.0000 F3600
G1 Z0.235 F1000
G1 X-18.223 Y-37.060 F4000
G1 Z0.135 F1000
G1 E0.0000 F3600
G92 E0.0000
G1 X-18.328 Y-37.489 E0.0089 F840
G1 X-18.595 Y-37.860 E0.0182
G1 X-18.987 Y-38.137 E0.0278
G1 X-19.461 Y-38.302 E0.0380
G1 X-19.976 Y-38.346 E0.0484
G1 X-20.487 Y-38.267 E0.0589
G1 X-20.949 Y-38.069 E0.0691
G1 X-21.320 Y-37.764 E0.0787
G1 X-21.559 Y-37.376 E0.0880
G1 X-21.635 Y-36.941 E0.0969
G1 X-21.530 Y-36.512 E0.1058
G1 X-21.263 Y-36.141 E0.1151
G1 X-20.871 Y-35.864 E0.1247
G1 X-20.397 Y-35.699 E0.1349
G1 X-19.882 Y-35.655 E0.1453
