; G-Code generated by Simplify3D(R) Version 4.1.2
; Aug 8, 2023 at 10:39:48 PM
; Settings Summary
;   processName,process1
;   applyToModels,DN-Badge-Hex-Skill-Plug-version-8.6.8
;   profileName,Default (modified)
;   profileVersion,2021-09-04 16:52:40
;   baseProfile,Monoprice Mini Delta (modified)
;   printMaterial,PLA
;   printQuality,Medium
;   printExtruders,
;   extruderName,Primary Extruder
;   extruderToolheadNumber,0
;   extruderDiameter,0.4
;   extruderAutoWidth,0
;   extruderWidth,0.4
;   extrusionMultiplier,0.9
;   extruderUseRetract,1
;   extruderRetractionDistance,5
;   extruderExtraRestartDistance,0
;   extruderRetractionZLift,0.1
;   extruderRetractionSpeed,3600
;   extruderUseCoasting,0
;   extruderCoastingDistance,1
;   extruderUseWipe,0
;   extruderWipeDistance,5
;   primaryExtruder,0
;   layerHeight,0.15
;   topSolidLayers,3
;   bottomSolidLayers,3
;   perimeterOutlines,2
;   printPerimetersInsideOut,1
;   startPointOption,2
;   startPointOriginX,0
;   startPointOriginY,0
;   sequentialIslands,0
;   spiralVaseMode,0
;   firstLayerHeightPercentage,90
;   firstLayerWidthPercentage,100
;   firstLayerUnderspeed,0.5
;   useRaft,0
;   raftExtruder,0
;   raftTopLayers,3
;   raftBaseLayers,2
;   raftOffset,3
;   raftSeparationDistance,0.14
;   raftTopInfill,100
;   aboveRaftSpeedMultiplier,0.3
;   useSkirt,1
;   skirtExtruder,0
;   skirtLayers,1
;   skirtOutlines,2
;   skirtOffset,4
;   usePrimePillar,0
;   primePillarExtruder,999
;   primePillarWidth,12
;   primePillarLocation,7
;   primePillarSpeedMultiplier,1
;   useOozeShield,0
;   oozeShieldExtruder,999
;   oozeShieldOffset,2
;   oozeShieldOutlines,1
;   oozeShieldSidewallShape,1
;   oozeShieldSidewallAngle,30
;   oozeShieldSpeedMultiplier,1
;   infillExtruder,0
;   internalInfillPattern,Rectilinear
;   externalInfillPattern,Rectilinear
;   infillPercentage,20
;   outlineOverlapPercentage,30
;   infillExtrusionWidthPercentage,120
;   minInfillLength,5
;   infillLayerInterval,1
;   internalInfillAngles,45,-45
;   overlapInternalInfillAngles,0
;   externalInfillAngles,45,-45
;   generateSupport,0
;   supportExtruder,0
;   supportInfillPercentage,30
;   supportExtraInflation,0
;   supportBaseLayers,0
;   denseSupportExtruder,0
;   denseSupportLayers,0
;   denseSupportInfillPercentage,70
;   supportLayerInterval,1
;   supportHorizontalPartOffset,0.3
;   supportUpperSeparationLayers,1
;   supportLowerSeparationLayers,1
;   supportType,0
;   supportGridSpacing,4
;   maxOverhangAngle,45
;   supportAngles,0
;   temperatureName,Primary Extruder,Heated Bed
;   temperatureNumber,0,1
;   temperatureSetpointCount,1,1
;   temperatureSetpointLayers,1,1
;   temperatureSetpointTemperatures,190,60
;   temperatureStabilizeAtStartup,1,1
;   temperatureHeatedBed,0,1
;   fanLayers,1,2
;   fanSpeeds,0,100
;   blipFanToFullPower,1
;   adjustSpeedForCooling,1
;   minSpeedLayerTime,15
;   minCoolingSpeedSlowdown,20
;   increaseFanForCooling,0
;   minFanLayerTime,60
;   maxCoolingFanSpeed,100
;   increaseFanForBridging,0
;   bridgingFanSpeed,100
;   use5D,1
;   relativeEdistances,0
;   allowEaxisZeroing,1
;   independentExtruderAxes,0
;   includeM10123,0
;   stickySupport,1
;   applyToolheadOffsets,0
;   gcodeXoffset,0
;   gcodeYoffset,0
;   gcodeZoffset,0
;   overrideMachineDefinition,1
;   machineTypeOverride,1
;   strokeXoverride,77
;   strokeYoverride,77
;   strokeZoverride,120
;   originOffsetXoverride,38.5
;   originOffsetYoverride,38.5
;   originOffsetZoverride,0
;   homeXdirOverride,0
;   homeYdirOverride,0
;   homeZdirOverride,1
;   flipXoverride,1
;   flipYoverride,-1
;   flipZoverride,1
;   toolheadOffsets,0,0|0,0|0,0|0,0|0,0|0,0
;   overrideFirmwareConfiguration,1
;   firmwareTypeOverride,RepRap (Marlin/Repetier/Sprinter)
;   GPXconfigOverride,r2
;   baudRateOverride,115200
;   overridePrinterModels,1
;   printerModelsOverride
;   startingGcode,G28 ; start from home position,G1 E-6 F900 ; retract 6mm of filament before starting the bed leveling process,G4 S5 ; pause to allow time for removing any oozing filament,G29 P2 Z0.5 ; auto level bed
;   layerChangeGcode,
;   retractionGcode,
;   toolChangeGcode,
;   endingGcode,M104 S0 ; turn off extruder,M140 S0 ; turn off bed,G91 ; switch to use relative coordinates,G1 E-5 F800 ; retract the filament a bit before lifting the nozzle to release some of the pressure,G1 Z5 ; raise Z 5mm from current position,G90 ; switch back to using absolute coordinates,M84 ; disable motors
;   exportFileFormat,gcode
;   celebration,0
;   celebrationSong,Random Song
;   postProcessing,
;   defaultSpeed,4800
;   outlineUnderspeed,0.35
;   solidInfillUnderspeed,0.6
;   supportUnderspeed,0.8
;   rapidXYspeed,4000
;   rapidZspeed,1000
;   minBridgingArea,50
;   bridgingExtraInflation,0
;   bridgingExtrusionMultiplier,1.05
;   bridgingSpeedMultiplier,1
;   useFixedBridgingAngle,0
;   fixedBridgingAngle,0
;   applyBridgingToPerimeters,0
;   filamentDiameters,1.75|1.75|1.75|1.75|1.75|1.75
;   filamentPricesPerKg,46|46|46|46|46|46
;   filamentDensities,1.25|1.25|1.25|1.25|1.25|1.25
;   useMinPrintHeight,0
;   minPrintHeight,0
;   useMaxPrintHeight,0
;   maxPrintHeight,0
;   useDiaphragm,0
;   diaphragmLayerInterval,20
;   robustSlicing,1
;   mergeAllIntoSolid,0
;   onlyRetractWhenCrossingOutline,1
;   retractBetweenLayers,1
;   useRetractionMinTravel,0
;   retractionMinTravel,3
;   retractWhileWiping,0
;   onlyWipeOutlines,1
;   avoidCrossingOutline,0
;   maxMovementDetourFactor,3
;   toolChangeRetractionDistance,12
;   toolChangeExtraRestartDistance,-0.5
;   toolChangeRetractionSpeed,600
;   externalThinWallType,0
;   internalThinWallType,2
;   thinWallAllowedOverlapPercentage,10
;   singleExtrusionMinLength,1
;   singleExtrusionMinPrintingWidthPercentage,50
;   singleExtrusionMaxPrintingWidthPercentage,200
;   singleExtrusionEndpointExtension,0.2
;   horizontalSizeCompensation,0
G90
M82
M106 S0
M140 S60
M190 S60
M104 S190 T0
M109 S190 T0
G28 ; start from home position
G1 E-6 F900 ; retract 6mm of filament before starting the bed leveling process
G4 S5 ; pause to allow time for removing any oozing filament
G29 P2 Z0.5 ; auto level bed
; process process1
; layer 1, Z = 0.135
T0
G92 E0.0000
G1 E-5.0000 F3600
; feature skirt
; tool H0.135 W0.400
G1 Z0.135 F1000
G1 X7.802 Y13.100 F4000
G1 E0.0000 F3600
G92 E0.0000
G1 X-7.802 Y13.100 E0.3153 F2400
G1 X-9.698 Y12.185 E0.3578
G1 X-18.100 Y1.604 E0.6308
G1 X-18.100 Y-1.604 E0.6957
G1 X-9.698 Y-12.185 E0.9687
G1 X-7.802 Y-13.100 E1.0112
G1 X7.802 Y-13.100 E1.3265
G1 X9.698 Y-12.185 E1.3690
G1 X18.100 Y-1.604 E1.6420
G1 X18.100 Y1.604 E1.7068
G1 X9.698 Y12.185 E1.9798
G1 X7.802 Y13.100 E2.0224
G92 E0.0000
G1 E-5.0000 F3600
G1 Z0.235 F1000
G1 X7.711 Y12.700 F4000
G1 Z0.135 F1000
G1 E0.0000 F3600
G92 E0.0000
G1 X-7.711 Y12.700 E0.3116 F2400
G1 X-9.441 Y11.864 E0.3504
G1 X-17.700 Y1.465 E0.6188
G1 X-17.700 Y-1.465 E0.6780
G1 X-9.441 Y-11.864 E0.9463
G1 X-7.711 Y-12.700 E0.9851
G1 X7.711 Y-12.700 E1.2967
G1 X9.441 Y-11.864 E1.3355
G1 X17.700 Y-1.465 E1.6039
G1 X17.700 Y1.465 E1.6631
G1 X9.441 Y11.864 E1.9314
G1 X7.711 Y12.700 E1.9702
G92 E0.0000
G1 E-5.0000 F3600
; feature inner perimeter
G1 Z0.235 F1000
G1 X6.460 Y7.900 F4000
G1 Z0.135 F1000
G1 E0.0000 F3600
G92 E0.0000
G1 X-6.460 Y7.900 E0.2611 F1620
G1 X-6.622 Y7.697 E0.2663
G1 X-12.734 Y-0.000 E0.4649
G1 X-6.460 Y-7.900 E0.6687
G1 X6.460 Y-7.900 E0.9298
G1 X12.734 Y0.000 E1.1336
G1 X6.460 Y7.900 E1.3375
; feature outer perimeter
G1 X6.653 Y8.300 F4000
G92 E0.0000
G1 X-6.653 Y8.300 E0.2689 F840
G1 X-6.935 Y7.945 E0.2780
G1 X-13.245 Y0.000 E0.4830
G1 X-6.653 Y-8.300 E0.6972
G1 X6.653 Y-8.300 E0.9661
G1 X13.245 Y0.000 E1.1802
G1 X6.653 Y8.300 E1.3944
; feature solid layer
G1 X-5.956 Y7.620 F4000
G92 E0.0000
G1 X-7.747 Y5.829 E0.0512 F1440
G1 X-9.929 Y3.082 E0.1221
G1 X-5.391 Y7.620 E0.2517
G1 X-4.825 Y7.620 E0.2632
G1 X-12.111 Y0.334 E0.4714
G1 X-12.376 Y0.000 E0.4800
G1 X-12.156 Y-0.277 E0.4871
G1 X-4.259 Y7.620 E0.7128
G1 X-3.694 Y7.620 E0.7242
G1 X-11.906 Y-0.592 E0.9589
G1 X-11.656 Y-0.908 E0.9670
G1 X-3.128 Y7.620 E1.2107
G1 X-2.562 Y7.620 E1.2221
G1 X-11.405 Y-1.223 E1.4748
G1 X-11.155 Y-1.538 E1.4829
G1 X-1.997 Y7.620 E1.7446
G1 X-1.431 Y7.620 E1.7561
G1 X-10.904 Y-1.853 E2.0268
G1 X-10.654 Y-2.169 E2.0349
G1 X-0.865 Y7.620 E2.3146
G1 X-0.300 Y7.620 E2.3260
G1 X-10.404 Y-2.484 E2.6148
G1 X-10.153 Y-2.799 E2.6229
G1 X0.266 Y7.620 E2.9206
G1 X0.832 Y7.620 E2.9321
G1 X-9.903 Y-3.115 E3.2388
G1 X-9.652 Y-3.430 E3.2469
G1 X1.397 Y7.620 E3.5627
G1 X1.963 Y7.620 E3.5741
G1 X-9.402 Y-3.745 E3.8989
G1 X-9.152 Y-4.061 E3.9070
G1 X2.529 Y7.620 E4.2408
G1 X3.095 Y7.620 E4.2522
G1 X-8.901 Y-4.376 E4.5950
G1 X-8.651 Y-4.691 E4.6031
G1 X3.660 Y7.620 E4.9549
G1 X4.226 Y7.620 E4.9664
G1 X-8.401 Y-5.006 E5.3272
G1 X-8.150 Y-5.322 E5.3353
G1 X4.792 Y7.620 E5.7051
G1 X5.357 Y7.620 E5.7165
G1 X-7.900 Y-5.637 E6.0954
G1 X-7.649 Y-5.952 E6.1035
G1 X5.923 Y7.620 E6.4913
G1 X6.325 Y7.620 E6.4994
G1 X6.397 Y7.529 E6.5018
G1 X-7.399 Y-6.268 E6.8960
G1 X-7.149 Y-6.583 E6.9042
G1 X6.648 Y7.214 E7.2984
G1 X6.898 Y6.898 E7.3065
G1 X-6.898 Y-6.898 E7.7008
G1 X-6.648 Y-7.214 E7.7089
G1 X7.149 Y6.583 E8.1031
G1 X7.399 Y6.268 E8.1113
G1 X-6.397 Y-7.529 E8.5055
G1 X-6.325 Y-7.620 E8.5079
G1 X-5.923 Y-7.620 E8.5160
G1 X7.649 Y5.952 E8.9038
G1 X7.900 Y5.637 E8.9119
G1 X-5.357 Y-7.620 E9.2908
G1 X-4.792 Y-7.620 E9.3022
G1 X8.150 Y5.322 E9.6720
G1 X8.401 Y5.006 E9.6801
G1 X-4.226 Y-7.620 E10.0409
G1 X-3.660 Y-7.620 E10.0524
G1 X8.651 Y4.691 E10.4042
G1 X8.901 Y4.376 E10.4123
G1 X-3.095 Y-7.620 E10.7551
G1 X-2.529 Y-7.620 E10.7665
G1 X9.152 Y4.061 E11.1003
G1 X9.402 Y3.745 E11.1084
G1 X-1.963 Y-7.620 E11.4332
G1 X-1.397 Y-7.620 E11.4446
G1 X9.652 Y3.430 E11.7604
G1 X9.903 Y3.115 E11.7685
G1 X-0.832 Y-7.620 E12.0752
G1 X-0.266 Y-7.620 E12.0867
G1 X10.153 Y2.799 E12.3844
G1 X10.404 Y2.484 E12.3925
G1 X0.300 Y-7.620 E12.6813
G1 X0.865 Y-7.620 E12.6927
G1 X10.654 Y2.169 E12.9724
G1 X10.904 Y1.853 E12.9805
G1 X1.431 Y-7.620 E13.2512
G1 X1.997 Y-7.620 E13.2627
G1 X11.155 Y1.538 E13.5244
G1 X11.405 Y1.223 E13.5325
G1 X2.562 Y-7.620 E13.7852
G1 X3.128 Y-7.620 E13.7966
G1 X11.656 Y0.908 E14.0403
G1 X11.906 Y0.592 E14.0484
G1 X3.694 Y-7.620 E14.2831
G1 X4.259 Y-7.620 E14.2945
G1 X12.156 Y0.277 E14.5202
G1 X12.376 Y0.000 E14.5273
G1 X12.111 Y-0.334 E14.5359
G1 X4.825 Y-7.620 E14.7441
G1 X5.391 Y-7.620 E14.7556
G1 X9.929 Y-3.082 E14.8852
G1 X7.747 Y-5.830 E14.9561
G1 X5.956 Y-7.620 E15.0073
G92 E0.0000
G1 E-5.0000 F3600
; layer 2, Z = 0.285
M106 S255
; feature inner perimeter
; tool H0.150 W0.400
G1 Z0.285 F1000
G1 X6.460 Y-7.900 F4000
G1 E0.0000 F3600
G92 E0.0000
G1 X12.734 Y0.000 E0.2265 F3240
G1 X6.460 Y7.900 E0.4530
G1 X-6.460 Y7.900 E0.7430
G1 X-12.734 Y0.000 E0.9695
G1 X-6.460 Y-7.900 E1.1960
G1 X6.460 Y-7.900 E1.4861
; feature outer perimeter
G1 X6.653 Y-8.300 F4000
G92 E0.0000
G1 X13.245 Y0.000 E0.2379 F1680
G1 X6.653 Y8.300 E0.4759
G1 X-6.653 Y8.300 E0.7746
G1 X-13.245 Y0.000 E1.0126
G1 X-6.653 Y-8.300 E1.2505
G1 X6.653 Y-8.300 E1.5493
; feature solid layer
G1 X7.747 Y5.830 F4000
G92 E0.0000
G1 X5.956 Y7.620 E0.0568 F2880
G1 X5.391 Y7.620 E0.0695
G1 X9.929 Y3.082 E0.2136
G1 X12.111 Y0.334 E0.2924
G1 X4.825 Y7.620 E0.5237
G1 X4.259 Y7.620 E0.5364
G1 X12.156 Y-0.277 E0.7871
G1 X11.906 Y-0.592 E0.7962
G1 X3.694 Y7.620 E1.0569
G1 X3.128 Y7.620 E1.0696
G1 X11.656 Y-0.908 E1.3404
G1 X11.405 Y-1.223 E1.3494
G1 X2.562 Y7.620 E1.6302
G1 X1.997 Y7.620 E1.6429
G1 X11.155 Y-1.538 E1.9336
G1 X10.904 Y-1.853 E1.9427
G1 X1.431 Y7.620 E2.2435
G1 X0.865 Y7.620 E2.2562
G1 X10.654 Y-2.169 E2.5669
G1 X10.404 Y-2.484 E2.5760
G1 X0.300 Y7.620 E2.8968
G1 X-0.266 Y7.620 E2.9095
G1 X10.153 Y-2.799 E3.2403
G1 X9.903 Y-3.115 E3.2493
G1 X-0.832 Y7.620 E3.5902
G1 X-1.397 Y7.620 E3.6029
G1 X9.653 Y-3.430 E3.9537
G1 X9.402 Y-3.745 E3.9627
G1 X-1.963 Y7.620 E4.3236
G1 X-2.529 Y7.620 E4.3363
G1 X9.152 Y-4.061 E4.7071
G1 X8.901 Y-4.376 E4.7162
G1 X-3.094 Y7.620 E5.0970
G1 X-3.660 Y7.620 E5.1097
G1 X8.651 Y-4.691 E5.5006
G1 X8.401 Y-5.006 E5.5097
G1 X-4.226 Y7.620 E5.9105
G1 X-4.792 Y7.620 E5.9232
G1 X8.150 Y-5.322 E6.3341
G1 X7.900 Y-5.637 E6.3432
G1 X-5.357 Y7.620 E6.7641
G1 X-5.923 Y7.620 E6.7768
G1 X7.649 Y-5.952 E7.2077
G1 X7.399 Y-6.268 E7.2168
G1 X-6.397 Y7.529 E7.6548
G1 X-6.648 Y7.214 E7.6638
G1 X7.149 Y-6.583 E8.1019
G1 X6.898 Y-6.898 E8.1109
G1 X-6.898 Y6.898 E8.5489
G1 X-7.149 Y6.583 E8.5580
G1 X6.648 Y-7.214 E8.9960
G1 X6.397 Y-7.529 E9.0051
G1 X-7.399 Y6.268 E9.4431
G1 X-7.649 Y5.952 E9.4521
G1 X5.923 Y-7.620 E9.8831
G1 X5.357 Y-7.620 E9.8958
G1 X-7.900 Y5.637 E10.3167
G1 X-8.150 Y5.322 E10.3257
G1 X4.792 Y-7.620 E10.7366
G1 X4.226 Y-7.620 E10.7493
G1 X-8.401 Y5.006 E11.1502
G1 X-8.651 Y4.691 E11.1592
G1 X3.660 Y-7.620 E11.5501
G1 X3.095 Y-7.620 E11.5628
G1 X-8.901 Y4.376 E11.9437
G1 X-9.152 Y4.061 E11.9527
G1 X2.529 Y-7.620 E12.3236
G1 X1.963 Y-7.620 E12.3363
G1 X-9.402 Y3.745 E12.6971
G1 X-9.652 Y3.430 E12.7062
G1 X1.397 Y-7.620 E13.0570
G1 X0.832 Y-7.620 E13.0697
G1 X-9.903 Y3.115 E13.4105
G1 X-10.153 Y2.799 E13.4196
G1 X0.266 Y-7.620 E13.7504
G1 X-0.300 Y-7.620 E13.7631
G1 X-10.404 Y2.484 E14.0839
G1 X-10.654 Y2.169 E14.0929
G1 X-0.865 Y-7.620 E14.4037
G1 X-1.431 Y-7.620 E14.4164
G1 X-10.904 Y1.853 E14.7172
G1 X-11.155 Y1.538 E14.7262
G1 X-1.997 Y-7.620 E15.0170
G1 X-2.562 Y-7.620 E15.0297
G1 X-11.405 Y1.223 E15.3105
G1 X-11.656 Y0.908 E15.3195
G1 X-3.128 Y-7.620 E15.5903
G1 X-3.694 Y-7.620 E15.6030
G1 X-11.906 Y0.592 E15.8637
G1 X-12.156 Y0.277 E15.8727
G1 X-4.259 Y-7.620 E16.1235
G1 X-4.825 Y-7.620 E16.1362
G1 X-12.111 Y-0.334 E16.3675
G1 X-9.929 Y-3.082 E16.4463
G1 X-5.391 Y-7.620 E16.5904
G1 X-5.956 Y-7.620 E16.6031
G1 X-7.747 Y-5.829 E16.6599
G92 E0.0000
G1 E-5.0000 F3600
; layer 3, Z = 0.435
; feature inner perimeter
G1 Z0.435 F1000
G1 X-6.460 Y-7.900 F4000
G1 E0.0000 F3600
G92 E0.0000
G1 X6.460 Y-7.900 E0.2901 F3240
G1 X12.734 Y0.000 E0.5166
G1 X6.460 Y7.900 E0.7430
G1 X-6.460 Y7.900 E1.0331
G1 X-12.734 Y0.000 E1.2596
G1 X-6.460 Y-7.900 E1.4861
; feature outer perimeter
G1 X-6.653 Y-8.300 F4000
G92 E0.0000
G1 X6.653 Y-8.300 E0.2987 F1680
G1 X13.245 Y0.000 E0.5367
G1 X6.653 Y8.300 E0.7746
G1 X-6.653 Y8.300 E1.0734
G1 X-13.245 Y0.000 E1.3113
G1 X-6.653 Y-8.300 E1.5493
; feature solid layer
G1 X5.956 Y-7.620 F4000
G92 E0.0000
G1 X7.747 Y-5.830 E0.0568 F2880
G1 X9.929 Y-3.082 E0.1356
G1 X5.391 Y-7.620 E0.2797
G1 X4.825 Y-7.620 E0.2924
G1 X12.111 Y-0.334 E0.5237
G1 X12.376 Y0.000 E0.5333
G1 X12.156 Y0.277 E0.5412
G1 X4.259 Y-7.620 E0.7920
G1 X3.694 Y-7.620 E0.8047
G1 X11.906 Y0.592 E1.0654
G1 X11.656 Y0.908 E1.0745
G1 X3.128 Y-7.620 E1.3452
G1 X2.562 Y-7.620 E1.3579
G1 X11.405 Y1.223 E1.6387
G1 X11.155 Y1.538 E1.6477
G1 X1.997 Y-7.620 E1.9385
G1 X1.431 Y-7.620 E1.9512
G1 X10.904 Y1.853 E2.2519
G1 X10.654 Y2.169 E2.2610
G1 X0.865 Y-7.620 E2.5718
G1 X0.300 Y-7.620 E2.5845
G1 X10.404 Y2.484 E2.9053
G1 X10.153 Y2.799 E2.9143
G1 X-0.266 Y-7.620 E3.2451
G1 X-0.832 Y-7.620 E3.2578
G1 X9.903 Y3.115 E3.5987
G1 X9.652 Y3.430 E3.6077
G1 X-1.397 Y-7.620 E3.9585
G1 X-1.963 Y-7.620 E3.9712
G1 X9.402 Y3.745 E4.3321
G1 X9.152 Y4.061 E4.3411
G1 X-2.529 Y-7.620 E4.7120
G1 X-3.095 Y-7.620 E4.7247
G1 X8.901 Y4.376 E5.1055
G1 X8.651 Y4.691 E5.1146
G1 X-3.660 Y-7.620 E5.5055
G1 X-4.226 Y-7.620 E5.5182
G1 X8.401 Y5.006 E5.9190
G1 X8.150 Y5.322 E5.9281
G1 X-4.792 Y-7.620 E6.3390
G1 X-5.357 Y-7.620 E6.3517
G1 X7.900 Y5.637 E6.7726
G1 X7.649 Y5.952 E6.7816
G1 X-5.923 Y-7.620 E7.2126
G1 X-6.325 Y-7.620 E7.2216
G1 X-6.397 Y-7.529 E7.2242
G1 X7.399 Y6.268 E7.6622
G1 X7.149 Y6.583 E7.6713
G1 X-6.648 Y-7.214 E8.1093
G1 X-6.898 Y-6.898 E8.1184
G1 X6.898 Y6.898 E8.5564
G1 X6.648 Y7.214 E8.5654
G1 X-7.149 Y-6.583 E9.0035
G1 X-7.399 Y-6.268 E9.0125
G1 X6.397 Y7.529 E9.4505
G1 X6.325 Y7.620 E9.4532
G1 X5.923 Y7.620 E9.4622
G1 X-7.649 Y-5.952 E9.8931
G1 X-7.900 Y-5.637 E9.9021
G1 X5.357 Y7.620 E10.3231
G1 X4.792 Y7.620 E10.3358
G1 X-8.150 Y-5.322 E10.7467
G1 X-8.401 Y-5.006 E10.7557
G1 X4.226 Y7.620 E11.1566
G1 X3.660 Y7.620 E11.1693
G1 X-8.651 Y-4.691 E11.5602
G1 X-8.901 Y-4.376 E11.5692
G1 X3.095 Y7.620 E11.9501
