; G-Code generated by Simplify3D(R) Version 4.1.2
; Aug 8, 2023 at 10:38:40 PM
; Settings Summary
;   processName,process1
;   applyToModels,DN-Badge-Back-version-8.6.0
;   profileName,Default (modified)
;   profileVersion,2021-09-04 16:52:40
;   baseProfile,Monoprice Mini Delta (modified)
;   printMaterial,PLA
;   printQuality,Medium
;   printExtruders,
;   extruderName,Primary Extruder
;   extruderToolheadNumber,0
;   extruderDiameter,0.4
;   extruderAutoWidth,0
;   extruderWidth,0.4
;   extrusionMultiplier,0.9
;   extruderUseRetract,1
;   extruderRetractionDistance,5
;   extruderExtraRestartDistance,0
;   extruderRetractionZLift,0.1
;   extruderRetractionSpeed,3600
;   extruderUseCoasting,0
;   extruderCoastingDistance,1
;   extruderUseWipe,0
;   extruderWipeDistance,5
;   primaryExtruder,0
;   layerHeight,0.15
;   topSolidLayers,3
;   bottomSolidLayers,3
;   perimeterOutlines,2
;   printPerimetersInsideOut,1
;   startPointOption,2
;   startPointOriginX,0
;   startPointOriginY,0
;   sequentialIslands,0
;   spiralVaseMode,0
;   firstLayerHeightPercentage,90
;   firstLayerWidthPercentage,100
;   firstLayerUnderspeed,0.5
;   useRaft,0
;   raftExtruder,0
;   raftTopLayers,3
;   raftBaseLayers,2
;   raftOffset,3
;   raftSeparationDistance,0.14
;   raftTopInfill,100
;   aboveRaftSpeedMultiplier,0.3
;   useSkirt,1
;   skirtExtruder,0
;   skirtLayers,1
;   skirtOutlines,2
;   skirtOffset,4
;   usePrimePillar,0
;   primePillarExtruder,999
;   primePillarWidth,12
;   primePillarLocation,7
;   primePillarSpeedMultiplier,1
;   useOozeShield,0
;   oozeShieldExtruder,999
;   oozeShieldOffset,2
;   oozeShieldOutlines,1
;   oozeShieldSidewallShape,1
;   oozeShieldSidewallAngle,30
;   oozeShieldSpeedMultiplier,1
;   infillExtruder,0
;   internalInfillPattern,Rectilinear
;   externalInfillPattern,Rectilinear
;   infillPercentage,20
;   outlineOverlapPercentage,30
;   infillExtrusionWidthPercentage,120
;   minInfillLength,5
;   infillLayerInterval,1
;   internalInfillAngles,45,-45
;   overlapInternalInfillAngles,0
;   externalInfillAngles,45,-45
;   generateSupport,0
;   supportExtruder,0
;   supportInfillPercentage,30
;   supportExtraInflation,0
;   supportBaseLayers,0
;   denseSupportExtruder,0
;   denseSupportLayers,0
;   denseSupportInfillPercentage,70
;   supportLayerInterval,1
;   supportHorizontalPartOffset,0.3
;   supportUpperSeparationLayers,1
;   supportLowerSeparationLayers,1
;   supportType,0
;   supportGridSpacing,4
;   maxOverhangAngle,45
;   supportAngles,0
;   temperatureName,Primary Extruder,Heated Bed
;   temperatureNumber,0,1
;   temperatureSetpointCount,1,1
;   temperatureSetpointLayers,1,1
;   temperatureSetpointTemperatures,190,60
;   temperatureStabilizeAtStartup,1,1
;   temperatureHeatedBed,0,1
;   fanLayers,1,2
;   fanSpeeds,0,100
;   blipFanToFullPower,1
;   adjustSpeedForCooling,1
;   minSpeedLayerTime,15
;   minCoolingSpeedSlowdown,20
;   increaseFanForCooling,0
;   minFanLayerTime,60
;   maxCoolingFanSpeed,100
;   increaseFanForBridging,0
;   bridgingFanSpeed,100
;   use5D,1
;   relativeEdistances,0
;   allowEaxisZeroing,1
;   independentExtruderAxes,0
;   includeM10123,0
;   stickySupport,1
;   applyToolheadOffsets,0
;   gcodeXoffset,0
;   gcodeYoffset,0
;   gcodeZoffset,0
;   overrideMachineDefinition,1
;   machineTypeOverride,1
;   strokeXoverride,77
;   strokeYoverride,77
;   strokeZoverride,120
;   originOffsetXoverride,38.5
;   originOffsetYoverride,38.5
;   originOffsetZoverride,0
;   homeXdirOverride,0
;   homeYdirOverride,0
;   homeZdirOverride,1
;   flipXoverride,1
;   flipYoverride,-1
;   flipZoverride,1
;   toolheadOffsets,0,0|0,0|0,0|0,0|0,0|0,0
;   overrideFirmwareConfiguration,1
;   firmwareTypeOverride,RepRap (Marlin/Repetier/Sprinter)
;   GPXconfigOverride,r2
;   baudRateOverride,115200
;   overridePrinterModels,1
;   printerModelsOverride
;   startingGcode,G28 ; start from home position,G1 E-6 F900 ; retract 6mm of filament before starting the bed leveling process,G4 S5 ; pause to allow time for removing any oozing filament,G29 P2 Z0.5 ; auto level bed
;   layerChangeGcode,
;   retractionGcode,
;   toolChangeGcode,
;   endingGcode,M104 S0 ; turn off extruder,M140 S0 ; turn off bed,G91 ; switch to use relative coordinates,G1 E-5 F800 ; retract the filament a bit before lifting the nozzle to release some of the pressure,G1 Z5 ; raise Z 5mm from current position,G90 ; switch back to using absolute coordinates,M84 ; disable motors
;   exportFileFormat,gcode
;   celebration,0
;   celebrationSong,Random Song
;   postProcessing,
;   defaultSpeed,4800
;   outlineUnderspeed,0.35
;   solidInfillUnderspeed,0.6
;   supportUnderspeed,0.8
;   rapidXYspeed,4000
;   rapidZspeed,1000
;   minBridgingArea,50
;   bridgingExtraInflation,0
;   bridgingExtrusionMultiplier,1.05
;   bridgingSpeedMultiplier,1
;   useFixedBridgingAngle,0
;   fixedBridgingAngle,0
;   applyBridgingToPerimeters,0
;   filamentDiameters,1.75|1.75|1.75|1.75|1.75|1.75
;   filamentPricesPerKg,46|46|46|46|46|46
;   filamentDensities,1.25|1.25|1.25|1.25|1.25|1.25
;   useMinPrintHeight,0
;   minPrintHeight,0
;   useMaxPrintHeight,0
;   maxPrintHeight,0
;   useDiaphragm,0
;   diaphragmLayerInterval,20
;   robustSlicing,1
;   mergeAllIntoSolid,0
;   onlyRetractWhenCrossingOutline,1
;   retractBetweenLayers,1
;   useRetractionMinTravel,0
;   retractionMinTravel,3
;   retractWhileWiping,0
;   onlyWipeOutlines,1
;   avoidCrossingOutline,0
;   maxMovementDetourFactor,3
;   toolChangeRetractionDistance,12
;   toolChangeExtraRestartDistance,-0.5
;   toolChangeRetractionSpeed,600
;   externalThinWallType,0
;   internalThinWallType,2
;   thinWallAllowedOverlapPercentage,10
;   singleExtrusionMinLength,1
;   singleExtrusionMinPrintingWidthPercentage,50
;   singleExtrusionMaxPrintingWidthPercentage,200
;   singleExtrusionEndpointExtension,0.2
;   horizontalSizeCompensation,0
G90
M82
M106 S0
M140 S60
M190 S60
M104 S190 T0
M109 S190 T0
G28 ; start from home position
G1 E-6 F900 ; retract 6mm of filament before starting the bed leveling process
G4 S5 ; pause to allow time for removing any oozing filament
G29 P2 Z0.5 ; auto level bed
; process process1
; layer 1, Z = 0.135
T0
G92 E0.0000
G1 E-5.0000 F3600
; feature skirt
; tool H0.135 W0.400
G1 Z0.135 F1000
G1 X28.100 Y0.946 F4000
G1 E0.0000 F3600
G92 E0.0000
G1 X28.100 Y40.405 E0.7973 F2400
G1 X25.405 Y43.100 E0.8743
G1 X-25.405 Y43.100 E1.9010
G1 X-28.100 Y40.405 E1.9779
G1 X-28.100 Y1.247 E2.7692
G1 X-29.598 Y0.376 E2.8042
G1 X-30.823 Y-1.731 E2.8534
G1 X-31.110 Y-35.427 E3.5343
G1 X-29.923 Y-37.554 E3.5835
G1 X-24.622 Y-40.760 E3.7087
G1 X-23.409 Y-41.098 E3.7341
G1 X13.421 Y-41.098 E4.4783
G1 X13.421 Y-42.152 E4.4996
G1 X18.031 Y-44.805 E4.6071
G1 X29.598 Y-38.086 E4.8774
G1 X30.823 Y-35.979 E4.9266
G1 X31.110 Y-2.283 E5.6075
G1 X29.923 Y-0.156 E5.6567
G1 X28.100 Y0.946 E5.6997
G92 E0.0000
G1 E-5.0000 F3600
G1 Z0.235 F1000
G1 X27.700 Y0.721 F4000
G1 Z0.135 F1000
G1 E0.0000 F3600
G92 E0.0000
G1 X27.700 Y40.240 E0.7985 F2400
G1 X25.240 Y42.700 E0.8688
G1 X-25.240 Y42.700 E1.8888
G1 X-27.700 Y40.240 E1.9591
G1 X-27.700 Y1.017 E2.7516
G1 X-29.306 Y0.084 E2.7891
G1 X-30.424 Y-1.840 E2.8341
G1 X-30.709 Y-35.324 E3.5107
G1 X-29.625 Y-37.266 E3.5556
G1 X-24.461 Y-40.389 E3.6775
G1 X-23.354 Y-40.698 E3.7008
G1 X13.821 Y-40.698 E4.4519
G1 X13.821 Y-41.920 E4.4766
G1 X18.031 Y-44.343 E4.5748
G1 X29.306 Y-37.794 E4.8382
G1 X30.424 Y-35.870 E4.8832
G1 X30.709 Y-2.386 E5.5598
G1 X29.625 Y-0.444 E5.6047
G1 X27.700 Y0.721 E5.6502
G92 E0.0000
G1 E-5.0000 F3600
; feature inner perimeter
G1 Z0.235 F1000
G1 X25.897 Y-3.799 F4000
G1 Z0.135 F1000
G1 E0.0000 F3600
G92 E0.0000
G1 X22.900 Y-1.986 E0.0708 F1620
G1 X22.900 Y37.900 E0.8767
G1 X-22.900 Y37.900 E1.8021
G1 X-22.900 Y-1.746 E2.6032
G1 X-25.637 Y-3.336 E2.6671
G1 X-25.897 Y-33.911 E3.2849
G1 X-22.612 Y-35.898 E3.3625
G1 X18.621 Y-35.898 E4.1956
G1 X18.621 Y-38.449 E4.2472
G1 X25.637 Y-34.374 E4.4111
G1 X25.897 Y-3.799 E5.0290
; feature outer perimeter
G1 X26.299 Y-3.574 F4000
G92 E0.0000
G1 X23.300 Y-1.760 E0.0708 F840
G1 X23.300 Y38.300 E0.8803
G1 X-23.300 Y38.300 E1.8218
G1 X-23.300 Y-1.516 E2.6263
G1 X-26.035 Y-3.105 E2.6902
G1 X-26.299 Y-34.136 E3.3173
G1 X-22.724 Y-36.298 E3.4017
G1 X18.221 Y-36.298 E4.2290
G1 X18.221 Y-39.144 E4.2865
G1 X26.035 Y-34.605 E4.4691
G1 X26.299 Y-3.574 E5.0961
; feature solid layer
G1 X24.778 Y-34.549 F4000
G92 E0.0000
G1 X25.360 Y-33.967 E0.0166 F1440
G1 X25.365 Y-33.396 E0.0282
G1 X23.429 Y-35.333 E0.0835
G1 X22.079 Y-36.117 E0.1150
G1 X25.370 Y-32.826 E0.2091
G1 X25.375 Y-32.255 E0.2206
G1 X20.729 Y-36.901 E0.3534
G1 X19.380 Y-37.685 E0.3849
G1 X25.380 Y-31.685 E0.5564
G1 X25.385 Y-31.114 E0.5679
G1 X18.901 Y-37.598 E0.7532
G1 X18.901 Y-37.032 E0.7646
G1 X25.390 Y-30.544 E0.9500
G1 X25.394 Y-29.973 E0.9615
G1 X18.901 Y-36.466 E1.1471
G1 X18.901 Y-35.901 E1.1585
G1 X25.399 Y-29.402 E1.3442
G1 X25.404 Y-28.832 E1.3557
G1 X18.618 Y-35.618 E1.5496
G1 X18.052 Y-35.618 E1.5611
G1 X25.409 Y-28.261 E1.7713
G1 X25.414 Y-27.691 E1.7828
G1 X17.487 Y-35.618 E2.0093
G1 X16.921 Y-35.618 E2.0208
G1 X25.419 Y-27.120 E2.2636
G1 X25.424 Y-26.550 E2.2751
G1 X16.355 Y-35.618 E2.5342
G1 X15.790 Y-35.618 E2.5457
G1 X25.428 Y-25.979 E2.8211
G1 X25.433 Y-25.409 E2.8326
G1 X15.224 Y-35.618 E3.1244
G1 X14.658 Y-35.618 E3.1358
G1 X25.438 Y-24.838 E3.4438
G1 X25.443 Y-24.268 E3.4553
G1 X14.092 Y-35.618 E3.7797
G1 X13.527 Y-35.618 E3.7911
G1 X25.448 Y-23.697 E4.1318
G1 X25.453 Y-23.126 E4.1433
G1 X12.961 Y-35.618 E4.5002
G1 X12.395 Y-35.618 E4.5117
G1 X25.457 Y-22.556 E4.8849
G1 X25.462 Y-21.985 E4.8964
G1 X11.830 Y-35.618 E5.2860
G1 X11.264 Y-35.618 E5.2974
G1 X25.467 Y-21.415 E5.7033
G1 X25.472 Y-20.844 E5.7148
G1 X10.698 Y-35.618 E6.1370
G1 X10.133 Y-35.618 E6.1484
G1 X25.477 Y-20.274 E6.5868
G1 X25.482 Y-19.703 E6.5984
G1 X9.567 Y-35.618 E7.0531
G1 X9.001 Y-35.618 E7.0646
G1 X25.487 Y-19.133 E7.5356
G1 X25.491 Y-18.562 E7.5472
G1 X8.436 Y-35.618 E8.0345
G1 X7.870 Y-35.618 E8.0460
G1 X25.496 Y-17.992 E8.5496
G1 X25.501 Y-17.421 E8.5612
G1 X7.304 Y-35.618 E9.0811
G1 X6.739 Y-35.618 E9.0926
G1 X25.506 Y-16.851 E9.6288
G1 X25.511 Y-16.280 E9.6404
G1 X6.173 Y-35.618 E10.1930
G1 X5.607 Y-35.618 E10.2044
G1 X25.516 Y-15.709 E10.7733
G1 X25.521 Y-15.139 E10.7848
G1 X5.042 Y-35.618 E11.3700
G1 X4.476 Y-35.618 E11.3814
G1 X25.525 Y-14.568 E11.9829
G1 X25.530 Y-13.998 E11.9944
G1 X3.910 Y-35.618 E12.6122
G1 X3.344 Y-35.618 E12.6237
G1 X25.535 Y-13.427 E13.2578
G1 X25.540 Y-12.857 E13.2693
G1 X2.779 Y-35.618 E13.9197
G1 X2.213 Y-35.618 E13.9311
G1 X25.545 Y-12.286 E14.5978
G1 X25.550 Y-11.716 E14.6093
G1 X1.647 Y-35.618 E15.2924
G1 X1.082 Y-35.618 E15.3038
G1 X25.555 Y-11.145 E16.0031
G1 X25.559 Y-10.575 E16.0146
G1 X0.516 Y-35.618 E16.7302
G1 X-0.050 Y-35.618 E16.7417
G1 X25.564 Y-10.004 E17.4736
G1 X25.569 Y-9.434 E17.4851
G1 X-0.615 Y-35.618 E18.2333
G1 X-1.181 Y-35.618 E18.2448
G1 X25.574 Y-8.863 E19.0093
G1 X25.579 Y-8.292 E19.0208
G1 X-1.747 Y-35.618 E19.8016
G1 X-2.312 Y-35.618 E19.8131
G1 X25.584 Y-7.722 E20.6102
G1 X25.589 Y-7.151 E20.6217
G1 X-2.878 Y-35.618 E21.4352
G1 X-3.444 Y-35.618 E21.4466
G1 X25.593 Y-6.581 E22.2763
G1 X25.598 Y-6.010 E22.2879
G1 X-4.009 Y-35.618 E23.1339
G1 X-4.575 Y-35.618 E23.1453
G1 X25.603 Y-5.440 E24.0077
G1 X25.608 Y-4.869 E24.0192
G1 X-5.141 Y-35.618 E24.8978
G1 X-5.707 Y-35.618 E24.9093
G1 X25.613 Y-4.299 E25.8042
G1 X25.616 Y-3.956 E25.8111
G1 X25.475 Y-3.871 E25.8145
G1 X-6.272 Y-35.618 E26.7216
G1 X-6.838 Y-35.618 E26.7331
G1 X25.123 Y-3.657 E27.6463
G1 X24.770 Y-3.444 E27.6547
G1 X-7.404 Y-35.618 E28.5740
G1 X-7.969 Y-35.618 E28.5855
G1 X24.418 Y-3.231 E29.5109
G1 X24.065 Y-3.018 E29.5192
G1 X-8.535 Y-35.618 E30.4508
G1 X-9.101 Y-35.618 E30.4622
G1 X23.713 Y-2.805 E31.3999
G1 X23.360 Y-2.591 E31.4082
G1 X-9.666 Y-35.618 E32.3519
G1 X-10.232 Y-35.618 E32.3633
G1 X23.008 Y-2.378 E33.3132
G1 X22.655 Y-2.165 E33.3215
G1 X-10.798 Y-35.618 E34.2774
G1 X-11.363 Y-35.618 E34.2888
G1 X22.620 Y-1.635 E35.2599
G1 X22.620 Y-1.069 E35.2713
G1 X-11.929 Y-35.618 E36.2586
G1 X-12.495 Y-35.618 E36.2700
G1 X22.620 Y-0.503 E37.2734
G1 X22.620 Y0.062 E37.2848
G1 X-13.060 Y-35.618 E38.3044
G1 X-13.626 Y-35.618 E38.3158
G1 X22.620 Y0.628 E39.3516
G1 X22.620 Y1.194 E39.3630
G1 X-14.192 Y-35.618 E40.4149
G1 X-14.757 Y-35.618 E40.4263
G1 X22.620 Y1.759 E41.4944
G1 X22.620 Y2.325 E41.5058
G1 X-15.323 Y-35.618 E42.5900
G1 X-15.889 Y-35.618 E42.6015
G1 X22.620 Y2.891 E43.7018
G1 X22.620 Y3.457 E43.7133
G1 X-16.455 Y-35.618 E44.8298
G1 X-17.020 Y-35.618 E44.8413
G1 X22.620 Y4.022 E45.9740
G1 X22.620 Y4.588 E45.9854
G1 X-17.586 Y-35.618 E47.1343
G1 X-18.152 Y-35.618 E47.1457
G1 X22.620 Y5.154 E48.3108
G1 X22.620 Y5.719 E48.3222
G1 X-18.717 Y-35.618 E49.5034
G1 X-19.283 Y-35.618 E49.5148
G1 X22.620 Y6.285 E50.7122
G1 X22.620 Y6.851 E50.7236
G1 X-19.849 Y-35.618 E51.9372
G1 X-20.414 Y-35.618 E51.9486
G1 X22.620 Y7.416 E53.1783
G1 X22.620 Y7.982 E53.1897
G1 X-20.980 Y-35.618 E54.4356
G1 X-21.546 Y-35.618 E54.4470
G1 X22.620 Y8.548 E55.7091
G1 X22.620 Y9.113 E55.7205
G1 X-22.111 Y-35.618 E56.9987
G1 X-22.534 Y-35.618 E57.0072
G1 X-22.623 Y-35.564 E57.0093
G1 X22.620 Y9.679 E58.3022
G1 X22.620 Y10.245 E58.3136
G1 X-22.976 Y-35.351 E59.6165
G1 X-23.328 Y-35.138 E59.6248
G1 X22.620 Y10.810 E60.9378
G1 X22.620 Y11.376 E60.9492
G1 X-23.681 Y-34.925 E62.2722
G1 X-24.033 Y-34.711 E62.2806
G1 X22.620 Y11.942 E63.6137
G1 X22.620 Y12.508 E63.6251
G1 X-24.386 Y-34.498 E64.9683
G1 X-24.738 Y-34.285 E64.9766
G1 X22.620 Y13.073 E66.3299
G1 X22.620 Y13.639 E66.3413
G1 X-25.091 Y-34.072 E67.7046
G1 X-25.443 Y-33.859 E67.7130
G1 X22.620 Y14.205 E69.0864
G1 X22.620 Y14.770 E69.0978
G1 X-25.613 Y-33.463 E70.4761
G1 X-25.608 Y-32.892 E70.4876
G1 X22.620 Y15.336 E71.8657
G1 X22.620 Y15.902 E71.8771
G1 X-25.604 Y-32.322 E73.2551
G1 X-25.599 Y-31.751 E73.2667
G1 X22.620 Y16.467 E74.6445
G1 X22.620 Y17.033 E74.6559
G1 X-25.594 Y-31.181 E76.0336
G1 X-25.589 Y-30.610 E76.0452
G1 X22.620 Y17.599 E77.4227
G1 X22.620 Y18.164 E77.4342
G1 X-25.584 Y-30.040 E78.8116
G1 X-25.579 Y-29.469 E78.8231
G1 X22.620 Y18.730 E80.2004
G1 X22.620 Y19.296 E80.2119
G1 X-25.574 Y-28.899 E81.5890
G1 X-25.570 Y-28.328 E81.6005
G1 X22.620 Y19.861 E82.9775
G1 X22.620 Y20.427 E82.9890
G1 X-25.565 Y-27.758 E84.3659
G1 X-25.560 Y-27.187 E84.3774
G1 X22.620 Y20.993 E85.7541
G1 X22.620 Y21.558 E85.7656
G1 X-25.555 Y-26.617 E87.1421
G1 X-25.550 Y-26.046 E87.1537
G1 X22.620 Y22.124 E88.5301
G1 X22.620 Y22.690 E88.5416
G1 X-25.545 Y-25.475 E89.9179
G1 X-25.540 Y-24.905 E89.9294
G1 X22.620 Y23.256 E91.3056
G1 X22.620 Y23.821 E91.3170
G1 X-25.536 Y-24.334 E92.6931
G1 X-25.531 Y-23.764 E92.7046
G1 X22.620 Y24.387 E94.0805
G1 X22.620 Y24.953 E94.0919
G1 X-25.526 Y-23.193 E95.4677
G1 X-25.521 Y-22.623 E95.4792
G1 X22.620 Y25.518 E96.8549
G1 X22.620 Y26.084 E96.8663
G1 X-25.516 Y-22.052 E98.2418
G1 X-25.511 Y-21.482 E98.2533
G1 X22.620 Y26.650 E99.6287
G1 X22.620 Y27.215 E99.6401
G1 X-25.506 Y-20.911 E101.0153
G1 X-25.502 Y-20.341 E101.0268
G1 X22.620 Y27.781 E102.4019
G1 X22.620 Y28.347 E102.4133
G1 X-25.497 Y-19.770 E103.7883
G1 X-25.492 Y-19.200 E103.7998
G1 X22.620 Y28.912 E105.1746
G1 X22.620 Y29.478 E105.1860
G1 X-25.487 Y-18.629 E106.5607
G1 X-25.482 Y-18.058 E106.5722
G1 X22.620 Y30.044 E107.9467
G1 X22.620 Y30.609 E107.9581
G1 X-25.477 Y-17.488 E109.3325
G1 X-25.472 Y-16.917 E109.3440
G1 X22.620 Y31.175 E110.7183
G1 X22.620 Y31.741 E110.7297
G1 X-25.468 Y-16.347 E112.1038
G1 X-25.463 Y-15.776 E112.1153
G1 X22.620 Y32.306 E113.4893
G1 X22.620 Y32.872 E113.5007
G1 X-25.458 Y-15.206 E114.8746
G1 X-25.453 Y-14.635 E114.8861
G1 X22.620 Y33.438 E116.2598
G1 X22.620 Y34.004 E116.2712
G1 X-25.448 Y-14.065 E117.6448
G1 X-25.443 Y-13.494 E117.6563
G1 X22.620 Y34.569 E119.0297
G1 X22.620 Y35.135 E119.0411
G1 X-25.438 Y-12.924 E120.4144
G1 X-25.434 Y-12.353 E120.4259
G1 X22.620 Y35.701 E121.7990
G1 X22.620 Y36.266 E121.8105
G1 X-25.429 Y-11.782 E123.1835
G1 X-25.424 Y-11.212 E123.1950
G1 X22.620 Y36.832 E124.5678
G1 X22.620 Y37.398 E124.5793
G1 X-25.419 Y-10.641 E125.9520
