; G-Code generated by Simplify3D(R) Version 4.1.2
; Aug 9, 2023 at 4:18:53 PM
; Settings Summary
;   processName,process1
;   applyToModels,DC31_SAO_Insert
;   profileName,Default (modified)
;   profileVersion,2021-09-04 16:52:40
;   baseProfile,Monoprice Mini Delta (modified)
;   printMaterial,PLA
;   printQuality,Medium
;   printExtruders,
;   extruderName,Primary Extruder
;   extruderToolheadNumber,0
;   extruderDiameter,0.4
;   extruderAutoWidth,0
;   extruderWidth,0.4
;   extrusionMultiplier,0.9
;   extruderUseRetract,1
;   extruderRetractionDistance,5
;   extruderExtraRestartDistance,0
;   extruderRetractionZLift,0.1
;   extruderRetractionSpeed,3600
;   extruderUseCoasting,0
;   extruderCoastingDistance,1
;   extruderUseWipe,0
;   extruderWipeDistance,5
;   primaryExtruder,0
;   layerHeight,0.15
;   topSolidLayers,3
;   bottomSolidLayers,3
;   perimeterOutlines,2
;   printPerimetersInsideOut,1
;   startPointOption,2
;   startPointOriginX,0
;   startPointOriginY,0
;   sequentialIslands,0
;   spiralVaseMode,0
;   firstLayerHeightPercentage,90
;   firstLayerWidthPercentage,100
;   firstLayerUnderspeed,0.5
;   useRaft,1
;   raftExtruder,0
;   raftTopLayers,3
;   raftBaseLayers,2
;   raftOffset,3
;   raftSeparationDistance,0.14
;   raftTopInfill,100
;   aboveRaftSpeedMultiplier,0.3
;   useSkirt,1
;   skirtExtruder,0
;   skirtLayers,1
;   skirtOutlines,2
;   skirtOffset,4
;   usePrimePillar,0
;   primePillarExtruder,999
;   primePillarWidth,12
;   primePillarLocation,7
;   primePillarSpeedMultiplier,1
;   useOozeShield,0
;   oozeShieldExtruder,999
;   oozeShieldOffset,2
;   oozeShieldOutlines,1
;   oozeShieldSidewallShape,1
;   oozeShieldSidewallAngle,30
;   oozeShieldSpeedMultiplier,1
;   infillExtruder,0
;   internalInfillPattern,Rectilinear
;   externalInfillPattern,Rectilinear
;   infillPercentage,20
;   outlineOverlapPercentage,30
;   infillExtrusionWidthPercentage,120
;   minInfillLength,5
;   infillLayerInterval,1
;   internalInfillAngles,45,-45
;   overlapInternalInfillAngles,0
;   externalInfillAngles,45,-45
;   generateSupport,1
;   supportExtruder,0
;   supportInfillPercentage,30
;   supportExtraInflation,0
;   supportBaseLayers,0
;   denseSupportExtruder,0
;   denseSupportLayers,0
;   denseSupportInfillPercentage,70
;   supportLayerInterval,1
;   supportHorizontalPartOffset,0.3
;   supportUpperSeparationLayers,1
;   supportLowerSeparationLayers,1
;   supportType,0
;   supportGridSpacing,4
;   maxOverhangAngle,45
;   supportAngles,0
;   temperatureName,Primary Extruder,Heated Bed
;   temperatureNumber,0,1
;   temperatureSetpointCount,1,1
;   temperatureSetpointLayers,1,1
;   temperatureSetpointTemperatures,190,60
;   temperatureStabilizeAtStartup,1,1
;   temperatureHeatedBed,0,1
;   fanLayers,1,2
;   fanSpeeds,0,100
;   blipFanToFullPower,1
;   adjustSpeedForCooling,1
;   minSpeedLayerTime,15
;   minCoolingSpeedSlowdown,20
;   increaseFanForCooling,0
;   minFanLayerTime,60
;   maxCoolingFanSpeed,100
;   increaseFanForBridging,0
;   bridgingFanSpeed,100
;   use5D,1
;   relativeEdistances,0
;   allowEaxisZeroing,1
;   independentExtruderAxes,0
;   includeM10123,0
;   stickySupport,1
;   applyToolheadOffsets,0
;   gcodeXoffset,0
;   gcodeYoffset,0
;   gcodeZoffset,0
;   overrideMachineDefinition,1
;   machineTypeOverride,1
;   strokeXoverride,77
;   strokeYoverride,77
;   strokeZoverride,120
;   originOffsetXoverride,38.5
;   originOffsetYoverride,38.5
;   originOffsetZoverride,0
;   homeXdirOverride,0
;   homeYdirOverride,0
;   homeZdirOverride,1
;   flipXoverride,1
;   flipYoverride,-1
;   flipZoverride,1
;   toolheadOffsets,0,0|0,0|0,0|0,0|0,0|0,0
;   overrideFirmwareConfiguration,1
;   firmwareTypeOverride,RepRap (Marlin/Repetier/Sprinter)
;   GPXconfigOverride,r2
;   baudRateOverride,115200
;   overridePrinterModels,1
;   printerModelsOverride
;   startingGcode,G28 ; start from home position,G1 E-6 F900 ; retract 6mm of filament before starting the bed leveling process,G4 S5 ; pause to allow time for removing any oozing filament,G29 P2 Z0.5 ; auto level bed
;   layerChangeGcode,
;   retractionGcode,
;   toolChangeGcode,
;   endingGcode,M104 S0 ; turn off extruder,M140 S0 ; turn off bed,G91 ; switch to use relative coordinates,G1 E-5 F800 ; retract the filament a bit before lifting the nozzle to release some of the pressure,G1 Z5 ; raise Z 5mm from current position,G90 ; switch back to using absolute coordinates,M84 ; disable motors
;   exportFileFormat,gcode
;   celebration,0
;   celebrationSong,Random Song
;   postProcessing,
;   defaultSpeed,4800
;   outlineUnderspeed,0.35
;   solidInfillUnderspeed,0.6
;   supportUnderspeed,0.8
;   rapidXYspeed,4000
;   rapidZspeed,1000
;   minBridgingArea,50
;   bridgingExtraInflation,0
;   bridgingExtrusionMultiplier,1.05
;   bridgingSpeedMultiplier,1
;   useFixedBridgingAngle,0
;   fixedBridgingAngle,0
;   applyBridgingToPerimeters,0
;   filamentDiameters,1.75|1.75|1.75|1.75|1.75|1.75
;   filamentPricesPerKg,46|46|46|46|46|46
;   filamentDensities,1.25|1.25|1.25|1.25|1.25|1.25
;   useMinPrintHeight,0
;   minPrintHeight,0
;   useMaxPrintHeight,0
;   maxPrintHeight,0
;   useDiaphragm,0
;   diaphragmLayerInterval,20
;   robustSlicing,1
;   mergeAllIntoSolid,0
;   onlyRetractWhenCrossingOutline,1
;   retractBetweenLayers,1
;   useRetractionMinTravel,0
;   retractionMinTravel,3
;   retractWhileWiping,0
;   onlyWipeOutlines,1
;   avoidCrossingOutline,0
;   maxMovementDetourFactor,3
;   toolChangeRetractionDistance,12
;   toolChangeExtraRestartDistance,-0.5
;   toolChangeRetractionSpeed,600
;   externalThinWallType,0
;   internalThinWallType,2
;   thinWallAllowedOverlapPercentage,10
;   singleExtrusionMinLength,1
;   singleExtrusionMinPrintingWidthPercentage,50
;   singleExtrusionMaxPrintingWidthPercentage,200
;   singleExtrusionEndpointExtension,0.2
;   horizontalSizeCompensation,0
G90
M82
M106 S0
M140 S60
M190 S60
M104 S190 T0
M109 S190 T0
G28 ; start from home position
G1 E-6 F900 ; retract 6mm of filament before starting the bed leveling process
G4 S5 ; pause to allow time for removing any oozing filament
G29 P2 Z0.5 ; auto level bed
; process process1
; layer 1, Z = 0.450
T0
G92 E0.0000
G1 E-5.0000 F3600
; feature skirt
; tool H0.450 W0.400
G1 Z0.450 F1000
G1 X19.015 Y-7.060 F4000
G1 E0.0000 F3600
G92 E0.0000
G1 X20.281 Y-6.317 E0.0988 F2400
G1 X20.407 Y-6.237 E0.1089
G1 X20.693 Y-6.044 E0.1321
G1 X20.814 Y-5.956 E0.1422
G1 X21.544 Y-5.388 E0.2045
G1 X21.765 Y-5.193 E0.2244
G1 X22.243 Y-4.711 E0.2701
G1 X22.437 Y-4.489 E0.2899
G1 X23.102 Y-3.622 E0.3635
G1 X23.267 Y-3.376 E0.3835
G1 X23.609 Y-2.785 E0.4295
G1 X23.741 Y-2.520 E0.4494
G1 X24.169 Y-1.498 E0.5240
G1 X24.267 Y-1.211 E0.5444
G1 X24.450 Y-0.537 E0.5915
G1 X24.510 Y-0.240 E0.6119
G1 X24.634 Y0.690 E0.6751
G1 X24.649 Y0.835 E0.6849
G1 X24.673 Y1.172 E0.7077
G1 X24.678 Y1.319 E0.7176
G1 X24.759 Y15.637 E1.6819
G1 X24.064 Y17.337 E1.8056
G1 X21.009 Y20.409 E2.0974
G1 X19.313 Y21.114 E2.2211
G1 X-13.963 Y21.114 E4.4624
G1 X-15.657 Y20.411 E4.5859
G1 X-18.711 Y17.346 E4.8773
G1 X-19.408 Y15.650 E5.0008
G1 X-19.302 Y-13.172 E6.9420
G1 X-19.295 Y-13.345 E6.9537
G1 X-19.264 Y-13.743 E6.9806
G1 X-19.243 Y-13.915 E6.9922
G1 X-19.076 Y-14.990 E7.0655
G1 X-18.996 Y-15.333 E7.0893
G1 X-18.750 Y-16.107 E7.1439
G1 X-18.618 Y-16.433 E7.1676
G1 X-18.140 Y-17.399 E7.2402
G1 X-18.059 Y-17.547 E7.2516
G1 X-17.861 Y-17.883 E7.2778
G1 X-17.770 Y-18.025 E7.2892
G1 X-1.348 Y-41.664 E9.2278
G1 X-1.284 Y-41.752 E9.2351
G1 X-1.132 Y-41.950 E9.2519
G1 X-1.065 Y-42.034 E9.2592
G1 X-0.636 Y-42.541 E9.3039
G1 X-0.494 Y-42.694 E9.3180
G1 X-0.151 Y-43.033 E9.3505
G1 X0.004 Y-43.173 E9.3645
G1 X0.606 Y-43.667 E9.4170
G1 X0.775 Y-43.794 E9.4312
G1 X1.178 Y-44.067 E9.4640
G1 X1.358 Y-44.177 E9.4782
G1 X2.045 Y-44.556 E9.5310
G1 X2.237 Y-44.651 E9.5455
G1 X2.689 Y-44.848 E9.5787
G1 X2.889 Y-44.924 E9.5931
G1 X3.521 Y-45.132 E9.6379
G1 X3.622 Y-45.163 E9.6451
G1 X3.857 Y-45.229 E9.6615
G1 X3.960 Y-45.255 E9.6686
G1 X6.752 Y-45.897 E9.8616
G1 X6.880 Y-45.923 E9.8704
G1 X7.177 Y-45.973 E9.8907
G1 X7.306 Y-45.992 E9.8995
G1 X8.119 Y-46.083 E9.9545
G1 X8.378 Y-46.098 E9.9720
G1 X8.976 Y-46.098 E10.0123
G1 X9.235 Y-46.083 E10.0298
G1 X10.174 Y-45.976 E10.0934
G1 X10.423 Y-45.934 E10.1105
G1 X10.992 Y-45.805 E10.1497
G1 X11.235 Y-45.735 E10.1668
G1 X12.107 Y-45.434 E10.2289
G1 X12.336 Y-45.341 E10.2456
G1 X12.851 Y-45.098 E10.2839
G1 X13.068 Y-44.981 E10.3005
G1 X13.845 Y-44.507 E10.3618
G1 X14.046 Y-44.369 E10.3782
G1 X14.493 Y-44.027 E10.4161
G1 X14.679 Y-43.868 E10.4326
G1 X15.338 Y-43.242 E10.4938
G1 X15.507 Y-43.062 E10.5105
G1 X15.875 Y-42.629 E10.5488
G1 X16.025 Y-42.432 E10.5654
G1 X16.543 Y-41.669 E10.6275
G1 X16.673 Y-41.452 E10.6446
G1 X16.946 Y-40.936 E10.6839
G1 X17.052 Y-40.706 E10.7009
G1 X17.399 Y-39.828 E10.7646
G1 X17.481 Y-39.581 E10.7820
G1 X17.637 Y-39.003 E10.8223
G1 X17.690 Y-38.749 E10.8398
G1 X17.812 Y-37.943 E10.8948
G1 X17.828 Y-37.814 E10.9035
G1 X17.856 Y-37.517 E10.9236
G1 X17.865 Y-37.387 E10.9324
G1 X19.015 Y-7.060 E12.9765
G92 E0.0000
G1 E-5.0000 F3600
G1 Z0.550 F1000
G1 X18.624 Y-6.825 F4000
G1 Z0.450 F1000
G1 E0.0000 F3600
G92 E0.0000
G1 X20.073 Y-5.975 E0.1131 F2400
G1 X20.188 Y-5.903 E0.1223
G1 X20.463 Y-5.716 E0.1447
G1 X20.574 Y-5.636 E0.1539
G1 X21.289 Y-5.080 E0.2149
G1 X21.490 Y-4.902 E0.2330
G1 X21.950 Y-4.438 E0.2770
G1 X22.127 Y-4.236 E0.2951
G1 X22.776 Y-3.389 E0.3670
G1 X22.927 Y-3.164 E0.3852
G1 X23.257 Y-2.596 E0.4295
G1 X23.377 Y-2.353 E0.4477
G1 X23.795 Y-1.356 E0.5205
G1 X23.884 Y-1.094 E0.5392
G1 X24.060 Y-0.445 E0.5845
G1 X24.115 Y-0.173 E0.6031
G1 X24.237 Y0.736 E0.6650
G1 X24.251 Y0.870 E0.6740
G1 X24.273 Y1.194 E0.6958
G1 X24.278 Y1.327 E0.7049
G1 X24.359 Y15.560 E1.6634
G1 X23.724 Y17.112 E1.7764
G1 X20.782 Y20.070 E2.0574
G1 X19.233 Y20.714 E2.1704
G1 X-13.883 Y20.714 E4.4008
G1 X-15.430 Y20.072 E4.5136
G1 X-18.371 Y17.120 E4.7943
G1 X-19.008 Y15.571 E4.9071
G1 X-18.902 Y-13.163 E6.8424
G1 X-18.896 Y-13.321 E6.8530
G1 X-18.865 Y-13.704 E6.8789
G1 X-18.847 Y-13.861 E6.8895
G1 X-18.683 Y-14.914 E6.9613
G1 X-18.610 Y-15.227 E6.9830
G1 X-18.374 Y-15.971 E7.0356
G1 X-18.253 Y-16.269 E7.0572
G1 X-17.785 Y-17.215 E7.1283
G1 X-17.711 Y-17.350 E7.1387
G1 X-17.520 Y-17.673 E7.1639
G1 X-17.437 Y-17.803 E7.1743
G1 X-1.022 Y-41.432 E9.1121
G1 X-0.964 Y-41.512 E9.1188
G1 X-0.818 Y-41.703 E9.1350
G1 X-0.756 Y-41.779 E9.1416
G1 X-0.337 Y-42.276 E9.1854
G1 X-0.207 Y-42.416 E9.1982
G1 X0.123 Y-42.742 E9.2295
G1 X0.265 Y-42.870 E9.2423
G1 X0.853 Y-43.352 E9.2936
G1 X1.007 Y-43.468 E9.3066
G1 X1.395 Y-43.731 E9.3381
G1 X1.559 Y-43.831 E9.3511
G1 X2.230 Y-44.201 E9.4027
G1 X2.405 Y-44.288 E9.4158
G1 X2.840 Y-44.478 E9.4478
G1 X3.023 Y-44.547 E9.4610
G1 X3.642 Y-44.751 E9.5048
G1 X3.734 Y-44.779 E9.5113
G1 X3.960 Y-44.842 E9.5272
G1 X4.054 Y-44.866 E9.5337
G1 X6.836 Y-45.506 E9.7259
G1 X6.953 Y-45.529 E9.7340
G1 X7.239 Y-45.578 E9.7535
G1 X7.357 Y-45.595 E9.7615
G1 X8.152 Y-45.685 E9.8155
G1 X8.389 Y-45.698 E9.8314
G1 X8.965 Y-45.698 E9.8702
G1 X9.201 Y-45.684 E9.8861
G1 X10.118 Y-45.580 E9.9483
G1 X10.346 Y-45.541 E9.9638
G1 X10.893 Y-45.417 E10.0016
G1 X11.115 Y-45.354 E10.0172
G1 X11.966 Y-45.059 E10.0779
G1 X12.175 Y-44.974 E10.0931
G1 X12.671 Y-44.741 E10.1299
G1 X12.869 Y-44.634 E10.1451
G1 X13.627 Y-44.171 E10.2050
G1 X13.811 Y-44.045 E10.2200
G1 X14.241 Y-43.716 E10.2564
G1 X14.411 Y-43.571 E10.2715
G1 X15.055 Y-42.959 E10.3313
G1 X15.209 Y-42.795 E10.3465
G1 X15.563 Y-42.378 E10.3833
G1 X15.700 Y-42.199 E10.3985
G1 X16.206 Y-41.453 E10.4592
G1 X16.325 Y-41.255 E10.4747
G1 X16.587 Y-40.759 E10.5126
G1 X16.684 Y-40.549 E10.5281
G1 X17.023 Y-39.691 E10.5903
G1 X17.097 Y-39.466 E10.6062
G1 X17.247 Y-38.910 E10.6450
G1 X17.296 Y-38.678 E10.6610
G1 X17.416 Y-37.888 E10.7148
G1 X17.430 Y-37.771 E10.7227
G1 X17.457 Y-37.485 E10.7421
G1 X17.465 Y-37.367 E10.7501
G1 X18.624 Y-6.825 E12.8085
G92 E0.0000
G1 E-5.0000 F3600
; feature raft
; tool H0.450 W0.800
G1 Z0.550 F1000
G1 X17.675 Y-2.049 F4000
G1 Z0.450 F1000
G1 E0.0000 F3600
G92 E0.0000
G1 X17.815 Y-1.954 E0.0228 F600
G1 X18.339 Y-1.546 E0.1123
G1 X18.574 Y-1.310 E0.1572
G1 X19.028 Y-0.718 E0.2577
G1 X19.196 Y-0.428 E0.3028
G1 X19.488 Y0.269 E0.4047
G1 X19.578 Y0.600 E0.4508
G1 X19.667 Y1.268 E0.5416
G1 X19.679 Y1.433 E0.5639
G1 X19.753 Y14.581 E2.3350
G1 X18.229 Y16.114 E2.6263
G1 X-12.880 Y16.114 E6.8167
G1 X-14.404 Y14.585 E7.1076
G1 X-14.303 Y-13.052 E10.8303
G1 X-14.287 Y-13.247 E10.8567
G1 X-14.167 Y-14.018 E10.9618
G1 X-14.047 Y-14.398 E11.0155
G1 X-13.704 Y-15.090 E11.1195
G1 X-13.607 Y-15.254 E11.1452
G1 X2.722 Y-38.759 E15.0005
G1 X2.796 Y-38.856 E15.0170
G1 X3.105 Y-39.221 E15.0813
G1 X3.273 Y-39.387 E15.1132
G1 X3.684 Y-39.725 E15.1849
G1 X3.882 Y-39.859 E15.2170
G1 X4.350 Y-40.118 E15.2891
G1 X4.572 Y-40.214 E15.3217
G1 X5.026 Y-40.364 E15.3860
G1 X5.141 Y-40.396 E15.4021
G1 X7.798 Y-41.007 E15.7693
G1 X7.943 Y-41.032 E15.7892
G1 X8.528 Y-41.098 E15.8686
G1 X8.822 Y-41.098 E15.9081
G1 X9.462 Y-41.025 E15.9948
G1 X9.741 Y-40.962 E16.0334
G1 X10.336 Y-40.756 E16.1182
G1 X10.588 Y-40.637 E16.1558
G1 X11.119 Y-40.313 E16.2395
G1 X11.338 Y-40.145 E16.2767
G1 X11.789 Y-39.717 E16.3604
G1 X11.969 Y-39.504 E16.3980
G1 X12.323 Y-38.984 E16.4828
G1 X12.456 Y-38.730 E16.5214
G1 X12.693 Y-38.132 E16.6081
G1 X12.769 Y-37.848 E16.6476
G1 X12.857 Y-37.268 E16.7267
G1 X12.871 Y-37.122 E16.7465
G1 X14.123 Y-4.133 E21.1934
G1 X17.675 Y-2.049 E21.7481
G92 E0.0000
G1 E-5.0000 F3600
G1 Z0.550 F1000
G1 X-13.842 Y14.132 F4000
G1 Z0.450 F1000
G1 E0.0000 F3600
G92 E0.0000
G1 X19.191 Y14.132 E4.4497 F600
G1 X19.178 Y11.847 E4.7576
G1 X-13.834 Y11.847 E9.2044
G1 X-13.826 Y9.561 E9.5123
G1 X19.165 Y9.561 E13.9562
G1 X19.152 Y7.275 E14.2641
G1 X-13.817 Y7.275 E18.7052
G1 X-13.809 Y4.990 E19.0131
G1 X19.139 Y4.990 E23.4513
G1 X19.126 Y2.704 E23.7592
G1 X-13.800 Y2.704 E28.1945
G1 X-13.792 Y0.418 E28.5023
G1 X18.943 Y0.418 E32.9119
G1 X18.693 Y-0.178 E32.9990
G1 X18.562 Y-0.406 E33.0344
G1 X18.151 Y-0.941 E33.1253
G1 X17.967 Y-1.126 E33.1605
G1 X17.486 Y-1.501 E33.2426
G1 X17.375 Y-1.575 E33.2606
G1 X16.877 Y-1.868 E33.3383
G1 X-13.784 Y-1.868 E37.4685
G1 X-13.775 Y-4.153 E37.7764
G1 X13.562 Y-4.153 E41.4588
G1 X13.475 Y-6.439 E41.7669
G1 X-13.767 Y-6.439 E45.4364
G1 X-13.758 Y-8.725 E45.7443
G1 X13.388 Y-8.725 E49.4011
G1 X13.301 Y-11.010 E49.7092
G1 X-13.750 Y-11.010 E53.3531
G1 X-13.743 Y-13.029 E53.6250
G1 X-13.731 Y-13.182 E53.6456
G1 X-13.713 Y-13.296 E53.6613
G1 X13.215 Y-13.296 E57.2885
G1 X13.128 Y-15.582 E57.5966
G1 X-12.697 Y-15.582 E61.0753
G1 X-11.109 Y-17.868 E61.4502
G1 X13.041 Y-17.868 E64.7034
G1 X12.955 Y-20.153 E65.0115
G1 X-9.521 Y-20.153 E68.0391
G1 X-7.934 Y-22.439 E68.4140
G1 X12.868 Y-22.439 E71.2160
G1 X12.781 Y-24.725 E71.5241
G1 X-6.346 Y-24.725 E74.1006
G1 X-4.758 Y-27.010 E74.4755
G1 X12.694 Y-27.010 E76.8264
G1 X12.608 Y-29.296 E77.1345
G1 X-3.170 Y-29.296 E79.2598
G1 X-1.582 Y-31.582 E79.6347
G1 X12.521 Y-31.582 E81.5345
G1 X12.434 Y-33.868 E81.8426
G1 X0.006 Y-33.868 E83.5168
G1 X1.594 Y-36.153 E83.8917
G1 X12.348 Y-36.153 E85.3403
G1 X12.312 Y-37.085 E85.4658
G1 X12.301 Y-37.199 E85.4813
G1 X12.220 Y-37.733 E85.5541
G1 X12.160 Y-37.956 E85.5851
G1 X11.969 Y-38.439 E85.6551
G1 X3.182 Y-38.439 E86.8388
G92 E0.0000
G1 E-5.0000 F3600
; layer 2, Z = 0.950
M106 S255
; tool H0.500 W0.800
G1 Z0.950 F1000
G1 X2.722 Y-38.759 F4000
G1 E0.0000 F3600
G92 E0.0000
G1 X2.796 Y-38.856 E0.0183 F1200
G1 X3.105 Y-39.221 E0.0898
G1 X3.273 Y-39.387 E0.1252
G1 X3.684 Y-39.725 E0.2049
G1 X3.882 Y-39.859 E0.2406
G1 X4.350 Y-40.118 E0.3206
G1 X4.572 Y-40.214 E0.3569
G1 X5.026 Y-40.364 E0.4284
G1 X5.141 Y-40.396 E0.4463
G1 X7.798 Y-41.007 E0.8543
G1 X7.943 Y-41.032 E0.8764
G1 X8.528 Y-41.098 E0.9645
G1 X8.822 Y-41.098 E1.0085
G1 X9.462 Y-41.025 E1.1048
G1 X9.741 Y-40.962 E1.1477
G1 X10.336 Y-40.756 E1.2419
G1 X10.588 Y-40.637 E1.2837
G1 X11.119 Y-40.313 E1.3767
G1 X11.338 Y-40.145 E1.4180
G1 X11.789 Y-39.717 E1.5110
G1 X11.969 Y-39.504 E1.5528
G1 X12.323 Y-38.984 E1.6470
G1 X12.456 Y-38.730 E1.6899
G1 X12.693 Y-38.132 E1.7862
